rachanatexeira/mscdissertation-few-shot-pref-learning/results/fetchreach_run/log.csv
time/steps,time/epochs,time/steps_per_second,time/dataset,time/preprocess,time/train_step,train/env_steps,eval/reward,eval/length,eval/is_success,eval/reward_std,step,train/reward,train/length,train/num_ep,train/q_loss,train/target_q,train/actor_loss,train/entropy,train/alpha_loss,train/alpha
10000,0,343.9107890868633,0.00034499168395996094,0.0008351802825927734,0.029222965240478516,9501.5,-14.606916731850442,50.0,0.0,3.8109859087262676,10000,-13.945469567365398,50.0,190.5,0.25301438570022583,-0.36658670008182526,0.06001178175210953,-0.6724390387535095,0.1663695052266121,0.049992501735687256
15000,0,31.37977892804853,0.0003540515899658203,0.0009248256683349609,0.03455805778503418,14501.5,-10.587544505914456,50.0,0.05,3.3538399467953766,15000,-12.753798839790203,50.0,290.5,0.24932879227399826,-2.7084488935470583,2.735105578184128,2.4399075918197632,0.2094019969701767,0.03250964848138392
20000,0,31.39469099462602,0.0003578662872314453,0.001947164535522461,0.037895917892456055,19501.5,-9.884111242185298,50.0,0.0,1.7461642094177143,20000,-12.445851208083926,50.0,390.5,0.24612309004366398,-2.705033604621887,2.762229398012161,-0.6644279704336077,0.07067260089702904,0.02117353315092623
25000,0,30.756352642207812,0.0004107952117919922,0.0009641647338867188,0.03542304039001465,24501.5,-9.498674941649767,50.0,0.15,2.4149420797846153,25000,-9.650372871709735,50.0,490.5,0.27252267614007,-2.7807074735164643,2.865956238269806,0.16828916990570725,0.05732125218957663,0.01374105811212212
30000,0,29.42589015635703,0.0003979206085205078,0.001177072525024414,0.0394740104675293,29501.5,-13.280005500814264,50.0,0.15,1.7609951631239593,30000,-10.423082630955754,50.0,590.5,0.2731297713071108,-2.6949711441993713,2.788157907962799,-1.114095683351159,0.026196441434323786,0.009059899314306676
35000,0,29.86626763553963,0.0005712509155273438,0.0011777877807617188,0.03537392616271973,34501.5,-9.147022872857075,50.0,0.2,2.1581038613020773,35000,-8.408884465949395,50.0,690.5,0.24644886514544487,-2.534061098575592,2.61818340754509,-3.5177819969654083,0.003717765293928096,0.007721504176966846
40000,0,31.44384726705713,0.00037980079650878906,0.0009369850158691406,0.037464141845703125,39501.5,-8.167646478748665,50.0,0.15,1.490112794949998,40000,-8.507063119374617,50.0,790.5,0.23946503581106662,-2.447343042373657,2.5324934928417204,-3.736428873538971,0.0015327691308775683,0.005807303076144308
45000,0,31.33923825198484,0.00038504600524902344,0.0011668205261230469,0.03736114501953125,44501.5,-9.512164580242533,50.0,0.2,1.9675301980075863,45000,-7.635111376424289,50.0,890.5,0.2262802814990282,-2.391739133358002,2.477273795604706,-4.400325597524643,-0.0025311448200882295,0.006286198319867253
50000,0,31.615781611055418,0.0003478527069091797,0.0009799003601074219,0.03280019760131836,49501.5,-8.908646652640943,50.0,0.0,1.7424199303447907,50000,-8.372294049166603,50.0,990.5,0.23593607656657695,-2.358583925008774,2.454165565729141,-3.936001071214676,0.00042101634064601966,0.006538870584219694
55000,0,31.60124785895214,0.0004000663757324219,0.0009388923645019531,0.03311800956726074,54501.5,-7.0026176953294,50.0,0.35,1.8336145504557368,55000,-7.671321812588284,50.0,1090.5,0.20202227236330508,-2.198794625043869,2.2767378556728364,-3.8760143511295317,0.0008135157384022022,0.006592016107402742
60000,0,31.90091518111257,0.0003631114959716797,0.0010979175567626953,0.044158935546875,59501.5,-8.6512103602957,50.0,0.0,2.061719486560379,60000,-7.109131477568759,50.0,1190.5,0.20731036860495805,-2.1932635927200317,2.2790521116256715,-4.351541178703308,-0.0024162374224688393,0.006631660760845989
65000,0,31.990623841815893,0.0003724098205566406,0.0009648799896240234,0.037842750549316406,64501.5,-6.0772266706873115,50.0,0.15,2.3901132455316296,65000,-6.075605654104725,50.0,1290.5,0.21153032122552395,-2.189105945587158,2.2806127610206604,-3.4756817970275877,0.0027357453776348847,0.005191544730681926
70000,0,31.598935182519067,0.0003249645233154297,0.002044200897216797,0.03709697723388672,69501.5,-8.96880132341337,50.0,0.1,2.7724361325838625,70000,-8.06073817991717,50.0,1390.5,0.21004983298480512,-2.107671768903732,2.1969742200374602,-4.413761321306229,-0.0025759776419617994,0.006178649953566492
75000,0,28.792080464476367,0.00040602684020996094,0.0009729862213134766,0.039489030838012695,74501.5,-15.741009835524755,50.0,0.0,2.723374211298195,75000,-14.096701921817807,50.0,1490.5,0.24684934876859188,-2.2557084522247313,2.3624288589954374,-4.935896522521973,-0.008977495596249356,0.009461589445360005
80000,0,29.123519008186776,0.00041294097900390625,0.0009751319885253906,0.03562498092651367,79501.5,-7.665111588344128,50.0,0.25,2.6458871589103743,80000,-7.862271289133834,50.0,1590.5,0.20640047074854373,-2.150357537031174,2.2408889858722687,-1.493647825717926,0.02108893267996609,0.008408026322722435
85000,0,26.69704265244881,0.0005321502685546875,0.0012278556823730469,0.04853415489196777,84501.5,-6.762177116238931,50.0,0.65,1.2166091132905037,85000,-6.603927841520684,50.0,1690.5,0.2268456234931946,-2.1900955176353456,2.2924579272270202,-3.50233194065094,0.0042108098075696035,0.008573927389457822
90000,0,28.599690904343483,0.0004911422729492188,0.0015339851379394531,0.03775906562805176,89501.5,-6.638231075172885,50.0,0.3,1.9541654579760501,90000,-6.760320304933717,50.0,1790.5,0.20113382188230752,-2.107205313205719,2.198915731430054,-2.694172209262848,0.007270068815385457,0.00555438415845856
95000,0,29.72190315379754,0.0004222393035888672,0.0011026859283447266,0.03653407096862793,94501.5,-6.80856683528457,50.0,0.45,2.495585886091355,95000,-5.906125850234751,50.0,1890.5,0.19309243907779455,-2.034126538872719,2.120992068052292,-4.193361363649368,-0.0009035988975010696,0.004704586432315409
100000,0,26.894502463207825,0.0006151199340820312,0.0013909339904785156,0.04525113105773926,99501.5,-5.143649839129575,50.0,0.6,1.8964964616472624,100000,-5.873741297184882,50.0,1990.5,0.18630983974039556,-2.0062133412361147,2.092184364557266,-3.845397652864456,0.0006611184252396925,0.0042722135707736015
105000,0,26.919413552313372,0.0004069805145263672,0.0009860992431640625,0.038221120834350586,104501.5,-10.84309120543934,50.0,0.0,1.6483362839458542,105000,-10.65778870987145,50.0,2090.5,0.2334881660193205,-1.9497290407419205,2.03539908349514,-8.523149037361145,-0.026275007963180542,0.005810342533979565
110000,0,26.258501810252866,0.0006091594696044922,0.0016598701477050781,0.04609107971191406,109501.5,-5.1886427785124765,50.0,0.45,1.7479565584358516,110000,-5.484913538318786,50.0,2190.5,0.196765680141747,-2.061602336645126,2.160126099824905,-2.935537936925888,0.008384792963057407,0.007914205086417497
115000,0,27.208549201748713,0.0004799365997314453,0.0012359619140625,0.04383492469787598,114501.5,-18.39543868276984,50.0,0.05,0.8968283406262494,115000,-18.475143142537675,50.0,2290.5,0.3079398600310087,-1.985796134352684,2.0868797680139544,-7.833606145858765,-0.030284940956160425,0.00792501575872302
120000,0,26.193440009304556,0.00048828125,0.004396677017211914,0.03876018524169922,119501.5,-5.837098735729614,50.0,0.3,1.7958769150125835,120000,-7.073262699469697,50.0,2390.5,0.2119288812428713,-2.120134729385376,2.223802601337433,-1.2848931632889435,0.03096029528626241,0.011553833922371269
125000,0,25.691792490512384,0.00043487548828125,0.0013089179992675781,0.0451970100402832,124501.5,-7.441056921140972,50.0,0.35,2.4551431812550555,125000,-6.113240783087813,50.0,2490.5,0.20529619617015124,-2.0293869190216065,2.1245112483501436,-2.83632207351923,0.01138664832903305,0.009712736801244319
130000,0,27.016799276213533,0.00047779083251953125,0.0016999244689941406,0.043653249740600586,129501.5,-21.671129327790318,50.0,0.0,1.4806039323687727,130000,-24.388914211978122,50.0,2590.5,0.36966582283377647,-1.903148289680481,1.9985205204486847,-10.017703491210938,-0.05552465767040849,0.00925407439377159
135000,0,26.848425397970413,0.0004258155822753906,0.0009920597076416016,0.03652310371398926,134501.5,-5.552731259780662,50.0,0.35,1.2644015335604837,135000,-6.397435183927277,50.0,2690.5,0.19935075083374978,-2.0973186640739443,2.191269073724747,0.3069337534960359,0.05330103624612093,0.012368877770379186
140000,0,26.265444922298116,0.0005786418914794922,0.0017321109771728516,0.045432090759277344,139501.5,-5.949325156613734,50.0,0.35,1.971141138955715,140000,-5.284604964882426,50.0,2790.5,0.1860635199472308,-1.9780106499195098,2.0621833016872406,-1.7645847900509835,0.018093368592031766,0.008085162479430436
145000,0,27.104323363891535,0.0007059574127197266,0.0012233257293701172,0.04607272148132324,144501.5,-4.481190851556545,50.0,0.35,0.87218968255232,145000,-4.7225998043148305,50.0,2890.5,0.1811467305123806,-1.936559312224388,2.0181062769889833,-2.499782648444176,0.008976030966528924,0.005972279292531311
150000,0,26.805724052925235,0.0005657672882080078,0.0011970996856689453,0.04303717613220215,149501.5,-4.891863692208141,50.0,0.95,1.9310800140283582,150000,-4.556155460522012,50.0,2990.5,0.17608479364961385,-1.8774969913959503,1.9559282680749894,-3.802399250268936,0.0010104727382858982,0.005096739531494677
155000,0,25.628957875432484,0.0005528926849365234,0.0013880729675292969,0.04992794990539551,154501.5,-4.348621060860404,50.0,0.6,1.4167769651346787,155000,-4.2958745033610555,50.0,3090.5,0.17022084637731313,-1.8497020536661148,1.927312153339386,-3.610265346765518,0.0016996709903214652,0.004356029054615646
160000,0,26.25894090792316,0.0004901885986328125,0.001458883285522461,0.04843902587890625,159501.5,-3.771822278369652,50.0,0.8,1.4458741489740874,160000,-4.1923545454503275,50.0,3190.5,0.16573969950526954,-1.8106799043416977,1.8875799219608307,-3.8584214334487914,0.0005673716385535954,0.004020962243899703
165000,0,26.580040519519873,0.0004222393035888672,0.0024089813232421875,0.042288780212402344,164501.5,-4.137170947593209,50.0,0.75,0.968589841309988,165000,-4.187478730944647,50.0,3290.5,0.1631913855075836,-1.782709821820259,1.8590849742889404,-4.005606656551361,-1.8307145990547724e-05,0.0034690011027269066
170000,0,26.42327533090895,0.0005660057067871094,0.0015392303466796875,0.04613304138183594,169501.5,-3.6508707695588334,50.0,0.85,1.3775910231167157,170000,-4.464040297113351,50.0,3390.5,0.15928047575056553,-1.7574361125230789,1.8341876711845397,-4.074059704303742,-0.0002694311811465013,0.0036462056164164097
175000,0,26.641208985206173,0.0003809928894042969,0.0010178089141845703,0.03662824630737305,174501.5,-3.178946329072617,50.0,1.0,1.0116520392911603,175000,-3.9344288289759364,50.0,3490.5,0.1597511810809374,-1.7346343809366227,1.8116889106035232,-4.039689812898636,-0.00015164718597588945,0.0038468136256560683
180000,0,27.040499774337146,0.0005550384521484375,0.0014300346374511719,0.0457758903503418,179501.5,-3.4658052089367937,50.0,1.0,0.6775392237222065,180000,-3.924217213326313,50.0,3590.5,0.15864890979975463,-1.7310093623399734,1.80968181681633,-3.930994443178177,0.0002677971976263507,0.0038742250862997024
185000,0,26.54432220097009,0.0006809234619140625,0.001216888427734375,0.04177212715148926,184501.5,-3.893725951324978,50.0,0.9,1.2833034022211736,185000,-3.8203672480412516,50.0,3690.5,0.15793789349496365,-1.7009704048633576,1.7792416493892669,-4.078252366065979,-0.00027069269768253436,0.0034989232544321565
190000,0,26.572276246876566,0.0003991127014160156,0.0010292530059814453,0.03667783737182617,189501.5,-3.9828479578384313,50.0,1.0,0.6630254773805212,190000,-3.787748858757876,50.0,3790.5,0.15631937459111214,-1.6843228738307954,1.7634882054328918,-4.02004785656929,-6.819092715340957e-05,0.0034234120959881695
195000,0,27.204851800344198,0.0005679130554199219,0.0012450218200683594,0.04483985900878906,194501.5,-3.315819410307698,50.0,1.0,1.0927732876911698,195000,-4.078103224125217,50.0,3890.5,0.15601824097335337,-1.6616070790290833,1.7406120870113373,-4.304812552690506,-0.0010546959485218394,0.0034640149578917773
200000,0,26.567303622806243,0.0004999637603759766,0.0019562244415283203,0.037381887435913086,199501.5,-3.8291547858490604,50.0,1.0,0.683621691119017,200000,-3.797864272267623,50.0,3990.5,0.15597517334669828,-1.6726613063812257,1.7552482404708862,-3.7548216152191163,0.0007969763166474877,0.0032831397540867327
205000,0,26.372002216923597,0.0005869865417480469,0.0018162727355957031,0.044634103775024414,204501.5,-3.081171196952835,50.0,1.0,0.8497464568584353,205000,-3.826452644127996,50.0,4090.5,0.15281709087640047,-1.6446729650497436,1.7262087720632553,-3.8227061965465547,0.0005298836508845853,0.00297910478990525
210000,0,25.66959462030732,0.0006060600280761719,0.001708984375,0.04669499397277832,209501.5,-3.3223776065511843,50.0,0.95,0.958064262421872,210000,-3.439423873010111,50.0,4190.5,0.15011244290322065,-1.630685804605484,1.7120753223896026,-3.9065220675468444,0.00024772491753901704,0.0026311767974402755
215000,0,25.967906946781504,0.00045490264892578125,0.0013301372528076172,0.04660487174987793,214501.5,-3.13268427034891,50.0,1.0,0.9817506088506783,215000,-3.6658835068568676,50.0,4290.5,0.14984089612215756,-1.6069078722000123,1.6878122823238373,-4.054113862276077,-0.00015074184544573656,0.002795458977576345
220000,0,25.931722186206493,0.0006160736083984375,0.0015919208526611328,0.048148155212402344,219501.5,-19.146796233809138,50.0,0.0,1.2575262990778533,220000,-20.604703312778703,50.0,4390.5,0.2572381159514189,-1.6535270560979842,1.7439451733827591,-10.081237331867218,-0.025907941864803434,0.004275028834585101
225000,0,26.19093096153864,0.00044417381286621094,0.001024007797241211,0.041275978088378906,224501.5,-3.4544047835266496,50.0,0.95,0.9707710268790737,225000,-3.988503530270762,50.0,4490.5,0.1696427071839571,-1.7506234053373337,1.8435894708633422,-2.4437871569395067,0.0060497010010294614,0.00388158591510728
230000,0,26.781512247362937,0.0003867149353027344,0.0011529922485351562,0.04921603202819824,229501.5,-3.435898030962673,50.0,0.95,1.1342207749844695,230000,-3.673197198042962,50.0,4590.5,0.1648220139592886,-1.6868464802503587,1.773121796607971,-3.407839205265045,0.0016499680306296795,0.002780844634398818
235000,0,27.736799784353746,0.0004642009735107422,0.0010030269622802734,0.03553199768066406,234501.5,-3.6202959995246586,50.0,1.0,0.748001139370468,235000,-3.536019455013529,50.0,4690.5,0.16129854979366065,-1.6576870836019515,1.7434747016429901,-3.977487529754639,5.6443688417857626e-05,0.002505735926097259
240000,0,27.043609114394894,0.0006079673767089844,0.0017728805541992188,0.04404401779174805,239501.5,-3.664149623625819,50.0,0.9,0.9795241102307621,240000,-3.980450898411239,50.0,4790.5,0.1573720568343997,-1.637093706727028,1.7221143033504487,-3.9283546781539918,0.00018928726260492113,0.0026140499578323215
245000,0,25.82894528649694,0.0005791187286376953,0.0012750625610351562,0.044435977935791016,244501.5,-3.5607934601011855,50.0,1.0,1.0523951847787127,245000,-3.5153822952559346,50.0,4890.5,0.15719812490791082,-1.6124361145496369,1.6967651708126068,-4.083568604230881,-0.000233741800464486,0.0028084435670170933
250000,0,26.574930791705484,0.0006072521209716797,0.0013949871063232422,0.04607892036437988,249501.5,-3.5431469702082863,50.0,1.0,0.8366718672258595,250000,-3.5332777549792764,50.0,4990.5,0.15546678163856267,-1.6116275990009308,1.6972667977809905,-4.0076820464134215,-2.008844813099131e-05,0.002664609365630895
255000,0,26.706395057736806,0.0006110668182373047,0.0018939971923828125,0.04822802543640137,254501.5,-3.0199841601448187,50.0,1.0,0.6473737988987781,255000,-3.3983404650930047,50.0,5090.5,0.15352809138596057,-1.5808867717981339,1.6658746975660323,-4.098983048677445,-0.0002734077458044339,0.0027870949471835047
260000,0,27.093943928257026,0.0005300045013427734,0.001238107681274414,0.03940701484680176,259501.5,-3.4145273988743634,50.0,0.85,1.2298838792700169,260000,-3.312961471592648,50.0,5190.5,0.15458183144032955,-1.58224331843853,1.668418627023697,-4.044730677366257,-0.0001232394557155203,0.0028113202722743155
265000,0,26.30900735487944,0.0005650520324707031,0.0012080669403076172,0.04017901420593262,264501.5,-3.779627259067959,50.0,0.95,0.9801355266172679,265000,-3.8350413128201253,50.0,5290.5,0.15157826441526412,-1.5728520774841308,1.6589525601863861,-4.005745717525482,-1.5025771084765438e-05,0.002688818857073784
270000,0,27.116828389088276,0.0006301403045654297,0.0016357898712158203,0.046688079833984375,269501.5,-3.5046865500629565,50.0,1.0,1.075006984224796,270000,-3.6642270006702793,50.0,5390.5,0.15325831333547832,-1.5716773072481156,1.6592056970596314,-3.9617829098701476,0.0001025398111269169,0.002683403765084222
275000,0,26.640670881105034,0.00047087669372558594,0.0010571479797363281,0.04144787788391113,274501.5,-3.1385537539980026,50.0,1.0,0.990994180370455,275000,-3.664024063337485,50.0,5490.5,0.15435677895694971,-1.5661576051712036,1.6553247963190079,-3.971810193061829,7.853405480273068e-05,0.0028075936590321363
280000,0,26.091719344812624,0.0004858970642089844,0.001444101333618164,0.04585409164428711,279501.5,-3.242012005486399,50.0,1.0,0.9809473208993493,280000,-3.8205128574599776,50.0,5590.5,0.15146472410857678,-1.545119168162346,1.6327286030054093,-4.02508918595314,-6.738946977566229e-05,0.0026838105383794756
285000,0,26.453419541600386,0.0007600784301757812,0.0014510154724121094,0.04566001892089844,284501.5,-3.753035706811697,50.0,0.7,1.0882396263518725,285000,-3.443869444442604,50.0,5690.5,0.14928263940662145,-1.5301718429327011,1.6179812123775483,-4.099738086938858,-0.0002715967568256019,0.0027289848134387285
290000,0,26.696385045076546,0.0005519390106201172,0.001194000244140625,0.039138078689575195,289501.5,-3.9319925148757946,50.0,0.9,0.7476225933413763,290000,-3.722055363972031,50.0,5790.5,0.15205723717808722,-1.5272565902471542,1.6160095505714416,-4.107227406263352,-0.00029630223584899796,0.0027558079715818166
295000,0,26.44553896912874,0.0004458427429199219,0.0018320083618164062,0.03761100769042969,294501.5,-3.8054294911409188,50.0,0.95,0.9777331429184531,295000,-3.235402031151236,50.0,5890.5,0.14913912529498338,-1.5176052360534669,1.6057538460493088,-4.006803019046783,-1.8037359457593994e-05,0.002665795088279992
300000,0,27.261057993742735,0.00040912628173828125,0.00125885009765625,0.03464508056640625,299501.5,-3.090679678291626,50.0,1.0,0.6761221907207072,300000,-3.549206849984273,50.0,5990.5,0.1476012342646718,-1.509344913840294,1.5980949952602386,-3.940795242547989,0.00015699617213795137,0.002652781549608335
305000,0,25.804186334113982,0.0004949569702148438,0.0020639896392822266,0.04502606391906738,304501.5,-3.153929836087195,50.0,1.0,0.7509438034958432,305000,-3.621551399456615,50.0,6090.5,0.1468878566324711,-1.4991632229089737,1.5879672306776047,-3.9970150172710417,7.94982431762037e-06,0.0025976591962389647
310000,0,26.32202302003466,0.0002999305725097656,0.0009253025054931641,0.0332789421081543,309501.5,-3.2720670203912676,50.0,0.95,1.049413982310653,310000,-3.4667631842603535,50.0,6190.5,0.14820109681785107,-1.4972675242424012,1.586697539806366,-3.9953463549613955,1.2587130997417263e-05,0.0026407207651063798
315000,0,26.083149104646374,0.0006868839263916016,0.0019218921661376953,0.044814109802246094,314501.5,-12.884923249967898,50.0,0.0,0.5104430375600921,315000,-11.540886325988732,50.0,6290.5,0.24088571755588054,-1.606324209690094,1.7149303393363953,-8.608201270103455,-0.021244629299944792,0.004608014688361436
320000,0,26.318417789157756,0.00040912628173828125,0.0009951591491699219,0.03715682029724121,319501.5,-3.206224243829874,50.0,1.0,0.7040066754908068,320000,-3.4316497751785584,50.0,6390.5,0.15164370626211165,-1.5440747239589692,1.6384580391645431,-2.739121428966522,0.005083057291107252,0.004026267623761669
325000,0,26.488158930216635,0.00045013427734375,0.001207113265991211,0.04478311538696289,324501.5,-3.3820541103421475,50.0,1.0,1.1167535861896885,325000,-3.433349667145906,50.0,6490.5,0.14693523479253054,-1.5029377875328065,1.5926215314865113,-3.5157011013031005,0.0013775680405487946,0.0028465249203145503
330000,0,25.8439201362444,0.0006260871887207031,0.0017478466033935547,0.04521608352661133,329501.5,-3.298836776114392,50.0,1.0,1.0274440135487668,330000,-3.367406178265347,50.0,6590.5,0.14489899457246064,-1.4782418386936187,1.5665368392467498,-3.9972864513397215,6.649735041719396e-06,0.002381551009370014
335000,0,26.728774381109467,0.0004780292510986328,0.0012238025665283203,0.03839898109436035,334501.5,-3.012460175949306,50.0,1.0,0.8675563659244032,335000,-3.6101880727065394,50.0,6690.5,0.1448943063467741,-1.484818336725235,1.5746429864168168,-3.7450820417404174,0.0006601164856547257,0.002585029286099598
340000,0,26.718825882789822,0.0006048679351806641,0.0020940303802490234,0.04786491394042969,339501.5,-3.365788029388102,50.0,0.8,1.2468278052013309,340000,-3.3201639826253397,50.0,6790.5,0.1431896731108427,-1.4658246748447419,1.554173194527626,-4.0884628252983095,-0.00021196204665284313,0.0023754221962299198
345000,0,25.266303591983277,0.0007700920104980469,0.0020837783813476562,0.04751110076904297,344501.5,-3.2299510878292543,50.0,1.0,0.7868594297703988,345000,-3.391631244541275,50.0,6890.5,0.14553174240887165,-1.4725204458236694,1.5628934717178344,-4.060659055709839,-0.00014165551527912611,0.002330608050338924
350000,0,26.27580952288355,0.00045800209045410156,0.0012099742889404297,0.03926992416381836,349501.5,-3.13708385366433,50.0,1.0,0.6521417414861451,350000,-3.449057543503121,50.0,6990.5,0.14543304605036975,-1.468996784567833,1.560343719124794,-4.038024704217911,-9.039450930140446e-05,0.0023874691587407143
355000,0,25.472513057208793,0.0004241466522216797,0.0009829998016357422,0.03664088249206543,354501.5,-3.5003867495184187,50.0,1.0,0.816637382509377,355000,-3.286064562479832,50.0,7090.5,0.14397147709131242,-1.4592467948198318,1.550181112766266,-3.9871760337352753,3.172201494635374e-05,0.002442411530762911
360000,0,27.093428682887644,0.0007772445678710938,0.0019888877868652344,0.0483708381652832,359501.5,-3.5872985391230885,50.0,1.0,0.7846912299031911,360000,-3.116427524620979,50.0,7190.5,0.14301779283583163,-1.4508337823152542,1.5412534009218215,-3.9597950415611267,9.364411448950704e-05,0.00233525313436985
365000,0,27.11475001947802,0.0006470680236816406,0.0022919178009033203,0.04606485366821289,364501.5,-2.948520457765423,50.0,1.0,0.5022489169383539,365000,-3.5633517717159577,50.0,7290.5,0.1459163661673665,-1.464812594294548,1.5578110942840575,-3.99189595413208,1.9238687946199208e-05,0.0023326416530180722
370000,0,26.36287008219302,0.0006537437438964844,0.0016660690307617188,0.04876995086669922,369501.5,-3.3166819934922698,50.0,1.0,0.9048810282787823,370000,-3.190374101211008,50.0,7390.5,0.1423643478155136,-1.4388859534263612,1.5300849899053575,-4.007404830932617,-1.6646768279315437e-05,0.002302554628578946
375000,0,25.84349273852029,0.0006859302520751953,0.0015940666198730469,0.04409599304199219,374501.5,-3.128021815713483,50.0,1.0,0.959809996093638,375000,-3.2322541277282903,50.0,7490.5,0.14328968627750874,-1.4325308542251587,1.5241618468761444,-4.024303450107574,-5.474153231625678e-05,0.002268286089878529
380000,0,26.46566619270645,0.0006270408630371094,0.001664876937866211,0.04457807540893555,379501.5,-3.121827151529327,50.0,1.0,0.6642199172062658,380000,-3.5681337381179112,50.0,7590.5,0.14320758864283561,-1.4571143783330918,1.5514614998102187,-3.251777190685272,0.002138209995289799,0.0028574990765191616
385000,0,25.930487577708313,0.0004611015319824219,0.0010190010070800781,0.041931867599487305,384501.5,-2.869785868431468,50.0,1.0,0.7734787543862761,385000,-3.1491034139338283,50.0,7690.5,0.14348873352259398,-1.4284498924016953,1.5212081699371338,-3.79210604763031,0.0005048901967620623,0.002434295770479366
390000,0,26.496459112931763,0.0006048679351806641,0.0021059513092041016,0.045774221420288086,389501.5,-2.9936384653549384,50.0,1.0,0.7524002133905926,390000,-3.4549980553501505,50.0,7790.5,0.14162942533940076,-1.4126032317876815,1.5050205675363542,-3.9804650802612302,4.3942855363638955e-05,0.0022202226670924572
395000,0,27.135201167766795,0.0005040168762207031,0.0017619132995605469,0.04653000831604004,394501.5,-2.7793805199575172,50.0,1.0,0.8090270346715246,395000,-3.1890549474926906,50.0,7890.5,0.14156146455556154,-1.4188372766971589,1.5117216557264328,-3.916450520992279,0.0001860500900347688,0.002224042907822877
400000,0,27.005843546965213,0.00047278404235839844,0.0014069080352783203,0.03697037696838379,399501.5,-6.817551098374255,50.0,0.1,0.8959410743302005,400000,-8.35824257766174,50.0,7990.5,0.21138127788901329,-1.4555675109624864,1.5563602480888368,-10.424545022964477,-0.017496520328801127,0.0027378763747401536
405000,0,26.707119140260176,0.0005114078521728516,0.0013158321380615234,0.04945206642150879,404501.5,-3.044123152141047,50.0,1.0,0.9471681774201423,405000,-3.259760672536326,50.0,8090.5,0.14131875851005316,-1.4166205966472625,1.5103417481184005,-3.6165599915981295,0.0010789566283383465,0.0028067169920541345
410000,0,26.58148903449188,0.0004658699035644531,0.0057830810546875,0.04160594940185547,409501.5,-2.553901193518902,50.0,1.0,0.9396079627339275,410000,-3.17150198164257,50.0,8190.5,0.13988764441758395,-1.4044858943223952,1.4975630707740784,-3.971288192272186,6.775053068122361e-05,0.0023529175396542995
415000,0,26.618416150346064,0.0006010532379150391,0.001668691635131836,0.04733920097351074,414501.5,-5.078933375806772,50.0,0.0,0.7193228242257874,415000,-3.398033081022645,50.0,8290.5,0.14068396527320146,-1.395347926735878,1.488410356760025,-3.961574608564377,8.814471258119738e-05,0.00226384101761505
420000,0,26.28063837798383,0.0007088184356689453,0.0013811588287353516,0.04452991485595703,419501.5,-2.404882649947757,50.0,1.0,0.922358877776048,420000,-3.473064408567038,50.0,8390.5,0.14081233756244182,-1.412779766559601,1.5078218432664872,-3.5848142416477202,0.0010889389890580787,0.002618186746491119
425000,0,26.681760043577302,0.00047898292541503906,0.0010831356048583984,0.04222702980041504,424501.5,-2.832939265940801,50.0,1.0,0.6219860375771785,425000,-3.196253329962706,50.0,8490.5,0.14030236107856034,-1.3929395084381104,1.4866348142623902,-3.9517948672771452,0.00011202523185420432,0.002333859008969739
430000,0,26.203817097143748,0.00043582916259765625,0.0019562244415283203,0.03630375862121582,429501.5,-3.3048309623678387,50.0,1.0,1.1204949195596186,430000,-3.0829863404226128,50.0,8590.5,0.13850945645570756,-1.3593794265985488,1.4502099168300628,-4.080769203186035,-0.00018724207834384287,0.0023174700755625964
435000,0,31.310614428511286,0.0004673004150390625,0.0010738372802734375,0.03921699523925781,434501.5,-2.6202336737715712,50.0,1.0,0.5769137121104755,435000,-2.9362840144933307,50.0,8690.5,0.13901844315975903,-1.365282809495926,1.4573595185279846,-4.181304040193558,-0.0004016247762228886,0.0022563165875617414
440000,0,31.209182293267844,0.0003898143768310547,0.0009589195251464844,0.031805992126464844,439501.5,-3.2820830330569626,50.0,1.0,0.7113842190958257,440000,-3.314616598471499,50.0,8790.5,0.13918361645191907,-1.3750966362953185,1.4691636255979539,-3.9840547313690187,3.8037841906771066e-05,0.0023360651712864638
445000,0,31.041949732471682,0.0004038810729980469,0.0009162425994873047,0.04844498634338379,444501.5,-3.045286161261885,50.0,1.0,0.8053458454701373,445000,-3.0650780901859678,50.0,8890.5,0.14004288264364004,-1.3655187764167787,1.458791564464569,-4.36958991408348,-0.0008604210473768034,0.0023506050303112717
450000,0,31.0375556433105,0.00039505958557128906,0.0009808540344238281,0.03461408615112305,449501.5,-2.8584595055873665,50.0,1.0,0.8793820402476812,450000,-3.1436160447175103,50.0,8990.5,0.1397873270139098,-1.3591034976243972,1.4527105940580367,-4.127551954984665,-0.0002967679322100594,0.0023070173191372307
455000,0,31.028469346197788,0.00033092498779296875,0.0016450881958007812,0.03454899787902832,454501.5,-4.505099229316512,50.0,0.8,0.917024458966295,455000,-3.081156889858735,50.0,9090.5,0.1381989529579878,-1.3512968175411224,1.444540457725525,-4.104423733711243,-0.00023012212628782436,0.0021890465244650843
460000,0,31.31656317282752,0.0004153251647949219,0.0009229183197021484,0.034813880920410156,459501.5,-2.635795466620187,50.0,1.0,0.7931084080387264,460000,-2.919373436139426,50.0,9190.5,0.13928915047645568,-1.3492451313734055,1.442847431063652,-4.083795166254044,-0.00017535303216754982,0.002079351374413818
465000,0,31.353163511970173,0.0003752708435058594,0.0009918212890625,0.034516096115112305,464501.5,-3.5010568724593774,50.0,1.0,0.8576394596159956,465000,-3.2712919927052573,50.0,9290.5,0.1389366778358817,-1.340191116809845,1.4334327669143676,-4.140205825567246,-0.00031903428884834286,0.0022939700484275816
470000,0,31.183493371843024,0.0003540515899658203,0.0009829998016357422,0.03365683555603027,469501.5,-3.147026051659165,50.0,1.0,0.811029838216387,470000,-2.967658799694877,50.0,9390.5,0.1372602223008871,-1.3406317883729935,1.4344798738956452,-3.9660756578445433,7.899871843983419e-05,0.0023008009023033084
475000,0,30.898449028698387,0.0004260540008544922,0.0010197162628173828,0.034040212631225586,474501.5,-3.1928507779648605,50.0,1.0,0.7256301315781889,475000,-3.1564989117632702,50.0,9490.5,0.13601034042239188,-1.3380249570608138,1.4317447152137757,-4.018845403671265,-3.976102011074545e-05,0.0021232188197318463
480000,0,32.04379985915349,0.00038695335388183594,0.0009779930114746094,0.03482198715209961,479501.5,-3.597662564641073,50.0,1.0,0.7446908333240182,480000,-3.1119269252507697,50.0,9590.5,0.13625524231791497,-1.3214664974212647,1.4144378007650376,-4.1748958714008335,-0.00039671372236261957,0.0022578211496584117
485000,0,31.318357170010444,0.0003879070281982422,0.0009620189666748047,0.034577131271362305,484501.5,-2.2909350623945577,50.0,1.0,0.7271666988202239,485000,-3.2781122745087403,50.0,9690.5,0.1367039243206382,-1.3297835434675216,1.4242560713291168,-3.9829513382911683,4.0235594955447596e-05,0.002312986530130729
490000,0,30.78872244298924,0.0006339550018310547,0.001764059066772461,0.037848711013793945,489501.5,-3.360967143971365,50.0,1.0,0.8623609652878845,490000,-2.973180829373167,50.0,9790.5,0.1381693025827408,-1.3329533764123918,1.4278798100948333,-3.937838242292404,0.0001427580023846531,0.002281495424453169
495000,0,30.960917892643806,0.0004253387451171875,0.0010957717895507812,0.036656856536865234,494501.5,-3.264140558450601,50.0,1.0,0.46063188837672303,495000,-3.2940981188041105,50.0,9890.5,0.13691556587070228,-1.3118540456295014,1.4057154947519301,-4.045204063892364,-9.92292825212644e-05,0.0022261193778831513
500000,0,31.79563989958673,0.0003941059112548828,0.0009148120880126953,0.04199409484863281,499501.5,-2.7148151019902746,50.0,1.0,0.651393611933882,500000,-2.921293785246058,50.0,9990.5,0.1368670340925455,-1.3315009669065476,1.427258180975914,-3.8232674462795257,0.00037362323740853756,0.0021088246707804503
505000,0,31.859182471810502,0.0004169940948486328,0.0010268688201904297,0.03420901298522949,504501.5,-3.0144289306782395,50.0,1.0,0.9708577859852086,505000,-3.172801478738648,50.0,10090.5,0.1346708208620548,-1.3126290583610534,1.406689500808716,-4.002450747489929,-5.010577877328615e-06,0.0021709664955269544
510000,0,31.103345083227527,0.00035691261291503906,0.0010380744934082031,0.03265380859375,509501.5,-2.9208888338471155,50.0,1.0,0.9264959439719881,510000,-3.3809010236478025,50.0,10190.5,0.13618599320203065,-1.3149017186164855,1.4102477403879166,-4.0649668736457825,-0.0001280458775563602,0.0019931493420153857
515000,0,30.865820959334673,0.0003876686096191406,0.0009810924530029297,0.03230714797973633,514501.5,-2.616888680463622,50.0,1.0,0.8198211436128318,515000,-3.216233926506207,50.0,10290.5,0.1350505819246173,-1.3056256775856019,1.400102567911148,-3.9960055334568025,8.49037306761602e-06,0.0019935224058572204
520000,0,30.862889527347765,0.00039076805114746094,0.0009002685546875,0.03748202323913574,519501.5,-2.8898544401840818,50.0,1.0,0.8124463266472712,520000,-3.0004414637225687,50.0,10390.5,0.1360546755194664,-1.2966741535663604,1.3907562067508699,-4.047751137495041,-9.869823297049151e-05,0.0021033074448350815
525000,0,30.841937848072625,0.00046896934509277344,0.0012509822845458984,0.03296375274658203,524501.5,-2.965927805171822,50.0,1.0,0.8031908212144871,525000,-3.213015073983094,50.0,10490.5,0.13540539411455393,-1.2971877222061157,1.3920400533676147,-3.9847712750434874,3.277263140080322e-05,0.0021073337714187803
530000,0,29.5489011550289,0.00042510032653808594,0.0009548664093017578,0.03474020957946777,529501.5,-3.076273659124399,50.0,1.0,0.8097955346772047,530000,-2.9723303237927454,50.0,10590.5,0.13485810566693546,-1.2915699676275254,1.3864824401140212,-3.9152732563018797,0.00016817316650485735,0.001971098295995034
535000,0,30.80729815037912,0.0004220008850097656,0.0009510517120361328,0.0341339111328125,534501.5,-2.4594530261412504,50.0,1.0,0.8086635139953987,535000,-3.1752729115385003,50.0,10690.5,0.13472637038677931,-1.286927995800972,1.3813960770368576,-4.094874346971512,-0.0001919009845423716,0.002002121931873262
540000,0,30.705069360169425,0.00041604042053222656,0.00121307373046875,0.03429698944091797,539501.5,-2.486212258525228,50.0,1.0,0.8758460540019475,540000,-2.5860720379506867,50.0,10790.5,0.13422612404823303,-1.2856435210704804,1.3809166711568832,-3.985280599594116,2.981587983413192e-05,0.0020129005066119136
545000,0,30.91291113135774,0.000370025634765625,0.0010941028594970703,0.03342485427856445,544501.5,-3.251076295459945,50.0,1.0,0.9223211006183252,545000,-2.818009058667582,50.0,10890.5,0.1359438123330474,-1.2963168896436692,1.3930391660928727,-3.9768509001731873,4.668148350901902e-05,0.002023719629505649
550000,0,30.84058714751319,0.0005490779876708984,0.001199960708618164,0.03746294975280762,549501.5,-3.0194629148465237,50.0,1.0,0.761913591940327,550000,-2.6247210763146347,50.0,10990.5,0.13441939883679152,-1.275262069940567,1.3701246379613876,-3.999719872236252,6.952476314836531e-07,0.0020148258197586985
555000,0,30.717150489338028,0.0004820823669433594,0.0010211467742919922,0.033516883850097656,554501.5,-2.9681745696483777,50.0,1.0,0.7424596780108413,555000,-3.0763949073926407,50.0,11090.5,0.13486490547657012,-1.276027517080307,1.3713487552404404,-4.033951200246811,-6.780682882890687e-05,0.001995587930548936
560000,0,30.903581382223194,0.0009379386901855469,0.0013179779052734375,0.04506802558898926,559501.5,-2.7049820034919705,50.0,1.0,0.919499857165272,560000,-3.073276713999257,50.0,11190.5,0.13309734620153904,-1.2645156291723252,1.3590039315223694,-4.03144389295578,-6.122387503637583e-05,0.0019516792485956102
565000,0,30.585235449064232,0.00041294097900390625,0.0010380744934082031,0.03635001182556152,564501.5,-2.669911323769112,50.0,1.0,0.7989351786324554,565000,-3.1402524328014874,50.0,11290.5,0.13407093124091626,-1.2759366935491563,1.371799575448036,-3.9569857959747314,8.157980379110086e-05,0.0018874944327399135
570000,0,31.797839953556988,0.0003781318664550781,0.0011057853698730469,0.0354611873626709,569501.5,-2.9204093935350053,50.0,1.0,0.9121851410782228,570000,-2.8940225479265353,50.0,11390.5,0.1329184496253729,-1.2654621430635453,1.3607666101455689,-3.820220105648041,0.00038844069232072797,0.002160567024722695
575000,0,31.305835983550235,0.00043010711669921875,0.0010619163513183594,0.035012245178222656,574501.5,-2.9066167939044703,50.0,1.0,0.7289572823645337,575000,-2.764108368307302,50.0,11490.5,0.13497938756644726,-1.2653116377592086,1.3612705889940262,-3.7031546709537504,0.0006545798780352924,0.00219766933680512
580000,0,30.349917287635915,0.0004341602325439453,0.0009479522705078125,0.032052040100097656,579501.5,-2.5802741018804234,50.0,1.0,0.8638959722126223,580000,-3.0611274874524605,50.0,11590.5,0.13525151886045933,-1.2693196288347244,1.366042924284935,-3.828462779045105,0.00035543625912578137,0.0020671554366126655
585000,0,30.624846448774143,0.0003600120544433594,0.001020193099975586,0.03359198570251465,584501.5,-3.112215093708372,50.0,1.0,0.6097092147539297,585000,-4.248537290266505,50.0,11690.5,0.15890708935260772,-1.2910832672119141,1.3922718774080276,-6.774111878395081,-0.006389036040345673,0.0023536176190245895
590000,0,30.761160174645013,0.00036907196044921875,0.0008509159088134766,0.026348114013671875,589501.5,-2.865993432063911,50.0,1.0,1.0190839979927941,590000,-2.813206684543146,50.0,11790.5,0.13491039615124464,-1.2707328975200654,1.3684229811429978,-3.7451868755817412,0.0005233267006024107,0.0020529233841225505
595000,0,30.68590568131849,0.0004489421844482422,0.0009961128234863281,0.036544084548950195,594501.5,-2.49201546271537,50.0,1.0,0.8383176586294148,595000,-3.2792486804757615,50.0,11890.5,0.13471764311939477,-1.2737996487617493,1.372201739192009,-3.8143594877719877,0.00037608473686123034,0.0020277023913804443
600000,0,30.571340066951922,0.00039386749267578125,0.0009710788726806641,0.03284716606140137,599501.5,-2.5483084394562865,50.0,1.0,0.6643738949792236,600000,-2.7398523028516135,50.0,11990.5,0.1334106971770525,-1.2592491034269333,1.3558139407634735,-3.9287964458465576,0.0001297731279155414,0.001817015051841736
605000,0,31.096535466838972,0.0004088878631591797,0.0010142326354980469,0.0365297794342041,604501.5,-4.171796874512308,50.0,1.0,0.6643323701292236,605000,-3.053342159159361,50.0,12090.5,0.13245732530206442,-1.2606174356937407,1.3575587733983994,-4.171478451251984,-0.0003169080471052439,0.0018200947779696435
610000,0,30.720703441107357,0.00041174888610839844,0.0009601116180419922,0.03361201286315918,609501.5,-2.744888764670513,50.0,1.0,0.7392075045720617,610000,-3.366496052554735,50.0,12190.5,0.13366956412792205,-1.2438192501068115,1.3400245362520218,-3.9771045508384706,4.3377594753110315e-05,0.0018865400071954356
615000,0,30.67300904001303,0.00041294097900390625,0.001260995864868164,0.03781604766845703,614501.5,-2.4620093224094988,50.0,1.0,0.711309703709492,615000,-3.009173142609923,50.0,12290.5,0.12983965222537516,-1.237393635392189,1.3326164926290511,-4.0060816912651065,-1.0945491847451194e-05,0.0018321687859715894
620000,0,30.77540301354472,0.0005419254302978516,0.0010874271392822266,0.04255080223083496,619501.5,-2.5563963543660635,50.0,1.0,0.7715915414499537,620000,-3.006686680352344,50.0,12390.5,0.13308139447122813,-1.2602301565408707,1.3589247871637344,-3.599761733055115,0.0008585451830913371,0.002145044235745445
625000,0,30.64579811313015,0.0003819465637207031,0.0009999275207519531,0.03486013412475586,624501.5,-6.942771286897752,50.0,0.0,0.961540444255254,625000,-3.0398318814731975,50.0,12490.5,0.13584042075276376,-1.2433824667930602,1.3405005017518996,-4.460000608205795,-0.0008729131492746092,0.0018762678756611422
630000,0,34.20148301690013,0.0003108978271484375,0.0009350776672363281,0.029648780822753906,629501.5,-2.6128539790839733,50.0,1.0,0.7750557401480108,630000,-2.7656061225842157,50.0,12590.5,0.13497933273017407,-1.266691297531128,1.3665842368602752,-3.4917357721328734,0.0011722635697806255,0.002305336809484288
635000,0,33.55482096748465,0.0003247261047363281,0.0009982585906982422,0.029362916946411133,634501.5,-3.805761809018224,50.0,1.0,0.7829584272198333,635000,-2.8924312077293783,50.0,12690.5,0.13230865996330976,-1.239606253027916,1.3365559881925584,-4.007457511425018,-1.3735896736761788e-05,0.0018735684893326835
640000,0,28.90964154477295,0.0005121231079101562,0.0019478797912597656,0.03720211982727051,639501.5,-2.7528904302522523,50.0,1.0,0.667393634057677,640000,-3.034327694422166,50.0,12790.5,0.13207498794794081,-1.2430327841043471,1.3403581944704055,-4.179967830181122,-0.00032285498355849997,0.0018161522108130156
645000,0,29.15574042844849,0.0004181861877441406,0.000997781753540039,0.0328221321105957,644501.5,-2.654890106255782,50.0,1.0,0.8028520684779834,645000,-3.1227443978193827,50.0,12890.5,0.13301258705556393,-1.2487734078168868,1.3476171011924745,-4.006387141466141,-1.1712834774698421e-05,0.001915721617639065
650000,0,31.86724057782714,0.00045490264892578125,0.0009169578552246094,0.03986406326293945,649501.5,-2.550250519570696,50.0,1.0,0.70771516066282,650000,-3.349550338632099,50.0,12990.5,0.13128249982744455,-1.2307598900794983,1.3280305033922195,-3.970822852611542,5.263250718417112e-05,0.0017996583596104755
655000,0,31.10573272923566,0.0004508495330810547,0.0009160041809082031,0.03179812431335449,654501.5,-3.2768686861486684,50.0,1.0,0.6867002220405763,655000,-2.6924826250162255,50.0,13090.5,0.13115291555970907,-1.2375047535896302,1.33506313931942,-3.9605114018917082,6.891885687400645e-05,0.0017129579794127494
660000,0,31.023238752770098,0.0005612373352050781,0.0014348030090332031,0.034375905990600586,659501.5,-2.8640900449164977,50.0,1.0,0.8583449355240229,660000,-3.269804915729977,50.0,13190.5,0.13214490115642546,-1.2365934027433396,1.3348845417499542,-3.95255277967453,8.429565037477005e-05,0.0017579392918851227
665000,0,31.794686886460177,0.0004100799560546875,0.0009768009185791016,0.031211137771606445,664501.5,-3.169805963694164,50.0,1.0,0.8757031159905123,665000,-2.870930384190898,50.0,13290.5,0.1309202448874712,-1.2205281279087066,1.3174408631324768,-3.9981934003829958,3.3075772244046673e-06,0.0017375933373114094
670000,0,32.20453857439029,0.0004470348358154297,0.0009510517120361328,0.03312802314758301,669501.5,-3.312382775630563,50.0,1.0,0.8485391104838574,670000,-2.736422343002574,50.0,13390.5,0.13069202674925326,-1.2134412392377854,1.3100215075016022,-4.118591419458389,-0.0002086596062508761,0.0017581981286639349
675000,0,32.06043374148948,0.00045990943908691406,0.0009601116180419922,0.032354116439819336,674501.5,-2.8838716459916087,50.0,1.0,0.6630953425116398,675000,-2.7725867749831874,50.0,13490.5,0.13164278876781463,-1.230331732392311,1.3287453005313874,-3.9217671663761138,0.00014512464734980313,0.0018466389157110825
680000,0,31.573129230833295,0.0004971027374267578,0.0009937286376953125,0.03455615043640137,679501.5,-2.902946951643597,50.0,1.0,0.782385670589206,680000,-2.790049628679625,50.0,13590.5,0.1307506351619959,-1.226940341591835,1.3249861264228822,-3.910025683403015,0.00015870237706803891,0.0017538986451691016
685000,0,31.473472472117454,0.0004258155822753906,0.0013189315795898438,0.0317540168762207,684501.5,-3.3973141812556165,50.0,1.0,0.7410238926310414,685000,-3.1535733956376166,50.0,13690.5,0.13196288631111383,-1.2160422366857528,1.314224640607834,-4.0310765929222105,-5.241786794431391e-05,0.001686368616996333
690000,0,24.781004148041788,0.00041604042053222656,0.000843048095703125,0.03418278694152832,689501.5,-2.8192466296061633,50.0,1.0,1.104367045222885,690000,-2.9039267756708407,50.0,13790.5,0.12947757513076066,-1.203428970336914,1.2998074941635132,-4.109247902393341,-0.00018880206239919062,0.0017357719916617498
695000,0,29.998382893950385,0.0003159046173095703,0.0009241104125976562,0.04549670219421387,694501.5,-3.074326705438843,50.0,1.0,0.7152238608553221,695000,-3.2269790455719956,50.0,13890.5,0.13248300357162954,-1.214204390525818,1.3128041653633118,-4.539582830429077,-0.00094461430098454,0.0017585507147014142
700000,0,28.130747576636967,0.00045180320739746094,0.0009891986846923828,0.03737187385559082,699501.5,-2.913380928623839,50.0,1.0,0.8012390592132071,700000,-2.8922462190856613,50.0,13990.5,0.13041251922398805,-1.2140763912200927,1.3123308578729629,-3.9709428265094755,5.163873252786289e-05,0.0017911722770659253
705000,0,27.752042318572116,0.0004639625549316406,0.0018298625946044922,0.03771710395812988,704501.5,-3.138682794861424,50.0,1.0,0.7776022562297435,705000,-3.2012456130553915,50.0,14090.5,0.13091855450719594,-1.2109495739936829,1.3092780057191848,-3.9282631506919863,0.0001300304394635532,0.0018005957562709227
710000,0,25.848860440303362,0.0007958412170410156,0.0026781558990478516,0.046057939529418945,709501.5,-2.8774670037111747,50.0,1.0,0.7960078591549867,710000,-3.048295957645149,50.0,14190.5,0.12904188218712806,-1.1963900458812713,1.2932077105045319,-4.0732793684005735,-0.00012542356977246526,0.001688930161180906
715000,0,26.20436831270069,0.0005438327789306641,0.0015881061553955078,0.04688310623168945,714501.5,-2.612299031143716,50.0,1.0,0.659208918322137,715000,-2.7227794049370835,50.0,14290.5,0.13129692135751247,-1.2065968599319459,1.3049680525064469,-4.012427222967148,-2.1965899618408004e-05,0.0017795476071769372
720000,0,25.95724465958034,0.0004611015319824219,0.0010030269622802734,0.03566575050354004,719501.5,-2.8738538273487038,50.0,1.0,0.754665364550582,720000,-2.7861973518388554,50.0,14390.5,0.1305574012249708,-1.2030250911712645,1.3011371665000915,-3.9765474400520326,3.991906355804531e-05,0.001691745018470101
725000,0,26.61445906729859,0.0006000995635986328,0.0024259090423583984,0.04231095314025879,724501.5,-2.6239008529978998,50.0,1.0,0.5163491560346894,725000,-2.8128413310524447,50.0,14490.5,0.1303375550583005,-1.1965773679018021,1.2944135996103288,-4.0664719111919405,-0.00011467579038981058,0.0017327805729582906
730000,0,25.19777725093636,0.0006172657012939453,0.0016300678253173828,0.045999765396118164,729501.5,-2.826177760748366,50.0,1.0,0.7926630700865935,730000,-2.956049693175731,50.0,14590.5,0.12980215799063444,-1.2038052864074706,1.3023904248476028,-4.105520484209061,-0.00017935929374198167,0.001701324303052388
735000,0,25.518602604284595,0.0004680156707763672,0.0011458396911621094,0.03103804588317871,734501.5,-2.583135574328862,50.0,1.0,0.7922316198274229,735000,-2.881163198668857,50.0,14690.5,0.13059448307752608,-1.2010833014249802,1.2998209983110427,-4.025711621761322,-4.6123558313411195e-05,0.001803153280983679
740000,0,25.20378962769051,0.0004317760467529297,0.0010151863098144531,0.036496877670288086,739501.5,-2.523112096986652,50.0,1.0,0.7547684506390848,740000,-3.1286238470708265,50.0,14790.5,0.1296355563029647,-1.1982427631616592,1.2965935077667237,-4.00243744468689,-4.102915876501356e-06,0.0017263716920278966
745000,0,25.52079332688265,0.0006327629089355469,0.0017430782318115234,0.04981088638305664,744501.5,-2.585421469629229,50.0,1.0,0.7327173151800422,745000,-3.367834793077089,50.0,14890.5,0.12903288877010347,-1.1860505375862123,1.2838322360515595,-4.022679422140121,-3.714893454161938e-05,0.0016410208559827879
750000,0,25.37170375573749,0.0007061958312988281,0.002827882766723633,0.04630303382873535,749501.5,-2.749798183196554,50.0,1.0,0.6913698713534714,750000,-2.895650762257785,50.0,14990.5,0.13004340735822917,-1.1896513479948043,1.2882353883981705,-3.955972781896591,7.822661751742999e-05,0.0017646264913491905
755000,0,25.414990533996054,0.0005681514739990234,0.0015370845794677734,0.04514598846435547,754501.5,-2.817242088654689,50.0,1.0,0.9157707646297759,755000,-2.7374751444101255,50.0,15090.5,0.13192995379120112,-1.1938309838771821,1.2933294491767884,-4.036970010995865,-6.063612404977903e-05,0.0016433013721834867
760000,0,25.962661812136975,0.0004680156707763672,0.0012509822845458984,0.04574894905090332,759501.5,-2.6280530077930737,50.0,1.0,1.0366617405115053,760000,-2.743797572564538,50.0,15190.5,0.129361112780869,-1.1889840685129165,1.2875217578411102,-4.013988592147827,-2.427405914204428e-05,0.0017426928144413977
765000,0,26.300520561443687,0.00045800209045410156,0.00127410888671875,0.04172205924987793,764501.5,-2.6889637902582577,50.0,1.0,0.7134183828874262,765000,-2.6427619292021913,50.0,15290.5,0.1286752154007554,-1.1886482598781585,1.2876801335811614,-4.063536507844925,-0.00011718133671820397,0.0018648165370104834
770000,0,25.67040324307409,0.0004909038543701172,0.0011289119720458984,0.044403076171875,769501.5,-2.7698580388310665,50.0,1.0,0.6282419945810761,770000,-3.330781666072057,50.0,15390.5,0.1322290435731411,-1.1911620268821717,1.291346363902092,-4.52474388384819,-0.0009334883139381418,0.0017292862783651799
775000,0,26.62684077707818,0.00042891502380371094,0.0010318756103515625,0.040775299072265625,774501.5,-3.089055068206855,50.0,1.0,0.8277110927041889,775000,-2.8836272716332525,50.0,15490.5,0.13058993571996688,-1.1890369355678558,1.2885681685209274,-3.9680736606121063,5.410376614963752e-05,0.001670816166442819
780000,0,25.873207745553707,0.0006611347198486328,0.0023200511932373047,0.049893856048583984,779501.5,-2.7630250818020134,50.0,1.0,0.9060348206954495,780000,-2.7165343449463792,50.0,15590.5,0.12959755390137434,-1.178600910782814,1.2775191532373429,-4.011536316156388,-2.0593016370185068e-05,0.001812771962257102
785000,0,26.080617029887346,0.0003521442413330078,0.001007080078125,0.04452085494995117,784501.5,-2.8486924715227286,50.0,1.0,0.8855176944074508,785000,-2.7907215781461825,50.0,15690.5,0.13189230099320412,-1.1945548317432404,1.2950996326208115,-4.094884711503982,-0.0001674404506557039,0.0017859074184671045
790000,0,24.99044262307868,0.0006151199340820312,0.001692056655883789,0.04662585258483887,789501.5,-2.456972103241014,50.0,1.0,0.6471012532647433,790000,-2.9314100403834127,50.0,15790.5,0.130352316506207,-1.181197791814804,1.2807836574316025,-3.917688287973404,0.0001508170895431249,0.0018256572129903361
795000,0,26.089201996058726,0.0005669593811035156,0.001435995101928711,0.046215057373046875,794501.5,-2.8996733674370665,50.0,1.0,0.7731155264090803,795000,-2.899603571048951,50.0,15890.5,0.13266098486632108,-1.192956643342972,1.2942804017066956,-4.1863269112110135,-0.0003599732228358334,0.0019227033136412501
800000,0,25.418276081230488,0.0005872249603271484,0.0015590190887451172,0.04802989959716797,799501.5,-2.7002774677289696,50.0,1.0,0.8781288339488027,800000,-3.2659954599623937,50.0,15990.5,0.13755048229545355,-1.2129837936162948,1.3175587731599807,-4.333949983596802,-0.0008212604038708378,0.002524652624735609
805000,0,25.65181826988115,0.0004639625549316406,0.0018391609191894531,0.04080677032470703,804501.5,-3.0222688757358442,50.0,1.0,0.5967891815179217,805000,-2.823023986985907,50.0,16090.5,0.13162149953842164,-1.1945360497236253,1.2966286890506744,-3.644723304986954,0.0007016300727427734,0.0019735820587957276
810000,0,26.298008436409113,0.0004410743713378906,0.001035928726196289,0.03683304786682129,809501.5,-2.4495874656038765,50.0,1.0,0.7139920724872364,810000,-3.1396060269848283,50.0,16190.5,0.1293263063579798,-1.1798706109523773,1.2800819257497786,-3.831332621574402,0.00033121248554380145,0.001964069883688353
815000,0,24.66640400869526,0.00045418739318847656,0.0010020732879638672,0.039543867111206055,814501.5,-2.754446134908993,50.0,1.0,0.8160719378916788,815000,-3.0345170393665386,50.0,16290.5,0.1307975093126297,-1.1736940503120423,1.2735266383886337,-3.833212585687637,0.0003123632201441069,0.001859600239316933
820000,0,25.380298998431897,0.0004589557647705078,0.0011179447174072266,0.03875088691711426,819501.5,-2.7306800713042114,50.0,1.0,0.8796631668530059,820000,-2.7564237948189714,50.0,16390.5,0.1305430081859231,-1.1751876306533813,1.2754240556955339,-3.799194852352142,0.00037147259934135944,0.0018440403094282373
825000,0,25.167760759861515,0.0007731914520263672,0.002270936965942383,0.04615187644958496,824501.5,-3.1412702446686067,50.0,1.0,0.833610161936612,825000,-2.881194954765082,50.0,16490.5,0.12928543276339768,-1.1696038615703583,1.2689781160354614,-3.990061104774475,1.7012044283546857e-05,0.001687224737019278
830000,0,26.36366514019915,0.0007119178771972656,0.0020248889923095703,0.03727221488952637,829501.5,-3.0544188303802793,50.0,1.0,0.8616044428919885,830000,-2.9324262631500533,50.0,16590.5,0.13028388498723506,-1.1743775856494905,1.2749763346910477,-3.936348263025284,0.00010576059911181801,0.0016733957888791337
835000,0,25.447644344454975,0.0006999969482421875,0.0016589164733886719,0.0457608699798584,834501.5,-2.817510339558375,50.0,1.0,0.7593459986558635,835000,-3.1405671679618954,50.0,16690.5,0.13039421229809522,-1.1713061661720277,1.2716091264486313,-3.9632253737449648,6.28849310996884e-05,0.0016826038408325986
840000,0,26.807335709243016,0.0005218982696533203,0.0015912055969238281,0.049813032150268555,839501.5,-2.5535285875124965,50.0,1.0,0.6079411139562966,840000,-2.9721260686145086,50.0,16790.5,0.12812139327824115,-1.1578505747318268,1.256556006193161,-4.029442057847977,-5.1137617625499845e-05,0.0017503982756752522
845000,0,31.86820932571126,0.0003948211669921875,0.000993967056274414,0.0319368839263916,844501.5,-2.7666982662618578,50.0,1.0,0.7782576860571802,845000,-3.0096034367251407,50.0,16890.5,0.128737087585032,-1.166196360707283,1.2662484525442124,-3.7877440803050995,0.00038655282233594334,0.0018215304936747998
850000,0,30.729229872296703,0.00040411949157714844,0.0010249614715576172,0.032937049865722656,849501.5,-2.7201491146541126,50.0,1.0,0.737916678902337,850000,-2.8936276437960955,50.0,16990.5,0.12994645958393813,-1.1718005814552308,1.272692813396454,-3.7623497891426085,0.0004204968524281867,0.0017585222616326064
855000,0,30.869159386260787,0.0003821849822998047,0.0008869171142578125,0.0312039852142334,854501.5,-2.8671597334854093,50.0,1.0,0.8861086655364205,855000,-2.9345589056405026,50.0,17090.5,0.12755062017589808,-1.1492143950462341,1.2474283818006515,-4.06138248705864,-0.0001008751172303164,0.0016383057024795561
860000,0,31.094194643853456,0.00041985511779785156,0.0009992122650146484,0.03300881385803223,859501.5,-2.5667622910301957,50.0,1.0,0.7191290591252135,860000,-2.6718635391604315,50.0,17190.5,0.1277950323447585,-1.1534794348478317,1.252591218471527,-4.07015711236,-0.00011839843273992301,0.0017009724595118314
865000,0,30.775310882402376,0.00041222572326660156,0.0010030269622802734,0.03382682800292969,864501.5,-2.7692545449834913,50.0,1.0,0.9801462336964769,865000,-2.952172405889895,50.0,17290.5,0.13025992694497107,-1.1642949587106706,1.265080939769745,-3.9607861728668214,6.783692017597786e-05,0.0017368185612140223
870000,0,31.815150412820202,0.00047397613525390625,0.0012679100036621094,0.03255295753479004,869501.5,-3.3007964584966074,50.0,1.0,0.7470643789876856,870000,-3.1013350788233973,50.0,17390.5,0.12819622427225114,-1.149561751961708,1.2490607136487961,-3.922257308006287,0.00012969798695121427,0.0016586991857038811
875000,0,30.950695345083467,0.0004010200500488281,0.0009629726409912109,0.03499102592468262,874501.5,-3.2366635940219277,50.0,1.0,0.6903665063209549,875000,-2.834042477257171,50.0,17490.5,0.12837804114818574,-1.1560515123605728,1.2562043167352677,-3.8606284871101377,0.00022301462814539264,0.0016081396971130743
880000,0,30.953154180448887,0.00044989585876464844,0.001065969467163086,0.033095359802246094,879501.5,-2.5765054366185334,50.0,1.0,0.864202095203123,880000,-2.7475945185193855,50.0,17590.5,0.12819184685498475,-1.152221248149872,1.2513865894079208,-4.055286127567292,-8.652712966068066e-05,0.0015576731503242627
885000,0,30.754709723346313,0.0004119873046875,0.0011169910430908203,0.032896995544433594,884501.5,-2.6532584522038354,50.0,1.0,0.8660907309072862,885000,-2.7641484497571702,50.0,17690.5,0.12954473162442445,-1.1554465910196305,1.2557832243442535,-4.021476824998856,-3.55013807566138e-05,0.0016512422291561962
890000,0,33.319116142075984,0.00037026405334472656,0.0009520053863525391,0.031048059463500977,889501.5,-3.112798079349404,50.0,1.0,0.8278891007374777,890000,-3.0160919239670396,50.0,17790.5,0.1289613499045372,-1.155222699046135,1.2558927042484282,-3.9459935171604155,8.782832000906638e-05,0.0016387383996043353
895000,0,30.93951639759242,0.0003981590270996094,0.001004934310913086,0.03310394287109375,894501.5,-2.5331420301987797,50.0,1.0,0.7988856627127243,895000,-3.120164859643076,50.0,17890.5,0.12838728058338164,-1.146280970454216,1.2465127736330033,-4.029619118690491,-4.942251401007525e-05,0.0016808364539174362
900000,0,30.896862360064265,0.0004031658172607422,0.0009479522705078125,0.031861066818237305,899501.5,-2.630407056069299,50.0,1.0,0.8422693965857382,900000,-2.686151997903818,50.0,17990.5,0.12722511111944915,-1.1376868596076966,1.2365992448329926,-4.016207848072052,-2.5211208185282886e-05,0.0015712579757673666
905000,0,30.990242785707704,0.0004048347473144531,0.0009930133819580078,0.032794952392578125,904501.5,-3.081516624046829,50.0,1.0,1.0305441822093744,905000,-2.822573076089989,50.0,18090.5,0.1282622974216938,-1.1430470237731933,1.242737754702568,-4.111456860542297,-0.00017300210417124618,0.0015522177979582922
910000,0,30.88675257009378,0.0004260540008544922,0.0009629726409912109,0.03442716598510742,909501.5,-2.7082300622973197,50.0,1.0,0.559377129325316,910000,-3.010488618523783,50.0,18190.5,0.1278183329999447,-1.1507795149087905,1.251221391439438,-4.004194787502289,-6.244359947231715e-06,0.001505207334063016
915000,0,33.94463755723281,0.0003859996795654297,0.0009560585021972656,0.030992984771728516,914501.5,-3.1048200263667054,50.0,1.0,0.8400817997124821,915000,-3.0053913769835163,50.0,18290.5,0.12950621950626373,-1.1525640738010408,1.2535624153614044,-3.9720096542835237,4.280562393068976e-05,0.0015255064979428426
920000,0,30.95568011833099,0.0004029273986816406,0.0009279251098632812,0.032411813735961914,919501.5,-2.783800904279201,50.0,1.0,0.5850851302203441,920000,-3.3750443297546524,50.0,18390.5,0.1285322249904275,-1.1493751285076141,1.2502288298606872,-3.984578785419464,2.3602277926329407e-05,0.00153470603749156
925000,0,30.757574176498323,0.00039124488830566406,0.0009207725524902344,0.03433513641357422,924501.5,-2.796573695192181,50.0,1.0,0.5357111779830588,925000,-2.7505337561679126,50.0,18490.5,0.1282464409545064,-1.1408253762722016,1.2408114227056504,-4.044690037727356,-6.95351615340769e-05,0.0015732701279921456
930000,0,30.8110845163778,0.00042891502380371094,0.0009729862213134766,0.032610177993774414,929501.5,-2.602144768231354,50.0,1.0,0.626918402525662,930000,-2.8596984270470522,50.0,18590.5,0.12969890719652175,-1.1452536468505858,1.246634703040123,-4.00718304347992,-1.1190264229298919e-05,0.001573420715983957
935000,0,31.258262782583113,0.0003879070281982422,0.0009891986846923828,0.030920982360839844,934501.5,-2.7699283750307258,50.0,1.0,0.8062913342746078,935000,-2.809401979065187,50.0,18690.5,0.12939434301108121,-1.1461224645376205,1.2472550463676453,-3.943391188621521,8.678271095777746e-05,0.0015340580879710615
940000,0,32.96037710350882,0.0004000663757324219,0.001180887222290039,0.03467202186584473,939501.5,-2.675510359588209,50.0,1.0,0.9156949475899788,940000,-2.836056742235116,50.0,18790.5,0.1302320083901286,-1.1523338772058487,1.254449391722679,-3.855854365825653,0.00023731375268835108,0.0016628151671029628
945000,0,30.786442871076492,0.00039505958557128906,0.0009741783142089844,0.031317949295043945,944501.5,-3.1283545480408863,50.0,1.0,0.6528423696618444,945000,-2.5429935518819065,50.0,18890.5,0.12828099415451288,-1.1327811357975006,1.2326872177124024,-3.967923416852951,4.960704156565043e-05,0.0015456096855923534
950000,0,30.889351169440275,0.00039505958557128906,0.0010039806365966797,0.032824039459228516,949501.5,-2.7112122943003185,50.0,1.0,1.0764082890434774,950000,-2.7574802869435056,50.0,18990.5,0.12726710118353368,-1.1396340435743333,1.2404324122667312,-3.8980436589717864,0.00015608450774834637,0.0015157262161374092
955000,0,32.803871032974556,0.0003807544708251953,0.0010170936584472656,0.031108856201171875,954501.5,-2.8452762140270744,50.0,1.0,0.8636998578586632,955000,-2.6113033941832833,50.0,19090.5,0.12844804563373327,-1.136345164179802,1.236946839928627,-4.026560006380081,-4.04345529677812e-05,0.0015077469513053074
960000,0,31.93920921066732,0.0004558563232421875,0.0013623237609863281,0.03568267822265625,959501.5,-2.6813646630289063,50.0,1.0,0.8539022725928432,960000,-2.8242299643469884,50.0,19190.5,0.12895724936574698,-1.136206433415413,1.2373038684129716,-4.059078134298325,-9.453779627619951e-05,0.001596700394526124
965000,0,30.973872094609,0.00039887428283691406,0.0010101795196533203,0.035681962966918945,964501.5,-3.1393090389176512,50.0,1.0,0.7542449394867189,965000,-2.8924992145334043,50.0,19290.5,0.12769142352044582,-1.1296710634231568,1.2299571571350099,-3.9458175678253173,8.065857773544848e-05,0.0014866928610717878
970000,0,26.760466724859125,0.0004379749298095703,0.0009827613830566406,0.03849625587463379,969501.5,-2.8535867130289345,50.0,1.0,0.8370750373161128,970000,-2.8576965730065838,50.0,19390.5,0.1266046407148242,-1.1346517375707625,1.235276188492775,-3.950041852235794,7.400368127673574e-05,0.0014722697702236475
975000,0,31.34282883963747,0.0004038810729980469,0.0010209083557128906,0.03335714340209961,974501.5,-2.9988966981348018,50.0,1.0,0.747232918595169,975000,-3.988425943966381,50.0,19490.5,0.1462909049987793,-1.1842695237398149,1.2929630942344665,-6.94480458688736,-0.005348582212463953,0.0018195940701989457
980000,0,30.770256031497773,0.0003528594970703125,0.001644134521484375,0.032858848571777344,979501.5,-2.867386006769624,50.0,1.0,0.8175802540810698,980000,-2.7100922289269387,50.0,19590.5,0.1293744255155325,-1.133475072979927,1.2347554780244827,-3.8143100929260254,0.0003192397572856862,0.0017090137322666123
985000,0,30.930416466750135,0.0003871917724609375,0.0009949207305908203,0.03278493881225586,984501.5,-3.092183537758489,50.0,1.0,1.0802025885001427,985000,-2.8286273189453652,50.0,19690.5,0.1264811804294586,-1.1164534723758697,1.2170132875442505,-4.003370035886764,-4.811105907720048e-06,0.0014466382960090414
990000,0,30.72552414318592,0.0003497600555419922,0.0008330345153808594,0.030558347702026367,989501.5,-2.5030184005346725,50.0,1.0,0.7442746849379283,990000,-2.7572713224234975,50.0,19790.5,0.12297081587463618,-1.0917076773643493,1.190511623263359,-3.9405851340293885,8.651358193310444e-05,0.0014550438723526895
995000,0,33.397685174671565,0.00039076805114746094,0.0010640621185302734,0.04081082344055176,994501.5,-2.7747730305777685,50.0,1.0,0.7264509618062768,995000,-2.620768708489556,50.0,19890.5,0.1233428948968649,-1.099629670023918,1.2006127709150314,-4.003472541809082,-4.776186065100774e-06,0.0013963782049249858
1000000,0,33.32131104310317,0.0003609657287597656,0.0009601116180419922,0.030823945999145508,999501.5,-2.481993353139251,50.0,1.0,0.9618790291126699,1000000,-3.1780346204283108,50.0,19990.5,0.12286294447630644,-1.0844931482076645,1.1848944561481476,-3.9319922797679903,9.695361416652304e-05,0.0014157771192258224
