rachanatexeira/mscdissertation-few-shot-pref-learning/results/fetchreach - test/log.csv
time/steps,time/epochs,time/steps_per_second,time/dataset,time/preprocess,time/train_step,train/env_steps,eval/reward,eval/length,eval/is_success,eval/reward_std,step,train/reward,train/length,train/num_ep,train/q_loss,train/target_q,train/actor_loss,train/entropy,train/alpha_loss,train/alpha
10000,0,354.45042194627683,0.0003540515899658203,0.0017080307006835938,0.03833603858947754,9501.5,-14.345903011550524,50.0,0.0,3.5445206753523535,10000,-14.484519089927256,50.0,190.5,0.33014239370822906,-0.37873122096061707,0.08320331946015358,-0.5621790289878845,0.34372998774051666,0.0999550111591816
15000,0,29.820012016579607,0.00036716461181640625,0.0009329319000244141,0.03498482704162598,14501.5,-8.071663176254898,50.0,0.1,1.6256488205099375,15000,-9.735147373925939,50.0,290.5,0.19132522712647915,-2.248573764562607,2.2871623017787934,1.6590081276148558,0.18740876775979995,0.033028584392741325
20000,0,30.55427431729969,0.0003597736358642578,0.0009071826934814453,0.03426504135131836,19501.5,-29.985236428237187,50.0,0.05,4.2324056263776235,20000,-13.948644455044422,50.0,390.5,0.808645520567894,-4.829052853584289,4.943921716690063,-3.152970402657986,0.012230631216792971,0.014120768467895686
25000,0,30.29172135548647,0.0003509521484375,0.0009191036224365234,0.0349729061126709,24501.5,-11.563339656323503,50.0,0.0,3.2557400903136933,25000,-10.686984557005143,50.0,490.5,1.7082028062343597,-7.143655079841614,7.296766082286835,-3.741010443806648,0.0061578515069559215,0.023660910760983825
30000,0,30.230508942453937,0.00035500526428222656,0.0012009143829345703,0.03422212600708008,29501.5,-12.826239769725712,50.0,0.0,2.1785910491899645,30000,-12.446566825208466,50.0,590.5,3.807266808748245,-8.227058862686157,8.416647487163544,-2.67553033291921,0.065154162188177,0.05108883126080036
35000,0,30.284586099029383,0.0003371238708496094,0.0009810924530029297,0.033818721771240234,34501.5,-12.218719231503238,50.0,0.0,1.8100547499092923,35000,-12.805072067413112,50.0,690.5,7.357468193054199,-9.448568970680236,9.645356877803803,-4.518699064042419,-0.02396240906591993,0.04804039965942502
40000,0,30.12733399702521,0.00040030479431152344,0.0021800994873046875,0.03616166114807129,39501.5,-8.48567339156364,50.0,0.0,1.9020675957298754,40000,-11.081374586657628,50.0,790.5,8.363038472652436,-9.897452766418457,10.09638375377655,-3.738666055440903,0.027917696672491728,0.10739670802652836
45000,0,30.27142325446597,0.0003581047058105469,0.0010190010070800781,0.033967018127441406,44501.5,-9.204658531872179,50.0,0.0,1.7816686137087543,45000,-10.227331843637307,50.0,890.5,4.978399239301681,-10.907809297561645,11.090707463264465,-3.517072387456894,0.022546904174843802,0.045182492513209584
50000,0,30.64879863553897,0.0003619194030761719,0.0010249614715576172,0.03376913070678711,49501.5,-8.9743995862561,50.0,0.05,2.2511528637496765,50000,-9.264940880853514,50.0,990.5,6.090842710733414,-11.916728978157044,12.111787978172302,-3.7516099685430526,0.010939000180398579,0.04412895470485091
55000,0,29.993872582978554,0.00035500526428222656,0.0009701251983642578,0.03466176986694336,54501.5,-10.86402735029348,50.0,0.05,2.3074907139522685,55000,-11.583430983298557,50.0,1090.5,7.029095844268799,-12.644020731925965,12.83022658252716,-3.5598894087076185,0.021629496837384066,0.049448698937892915
60000,0,29.443708678076106,0.0003757476806640625,0.0009610652923583984,0.03565526008605957,59501.5,-16.25335058493863,50.0,0.0,2.519043478760934,60000,-16.213157906869732,50.0,1190.5,8.489773968696595,-13.087840686798096,13.320458835601807,-4.34181141269207,-0.01561853690445423,0.045028126638382675
65000,0,29.58582411011212,0.0003509521484375,0.0009808540344238281,0.034768104553222656,64501.5,-10.984815640253426,50.0,0.1,3.091846024079326,65000,-13.769914989441324,50.0,1290.5,7.1897361490726475,-13.620047261238097,13.882285858154297,-4.396516207933426,-0.015764888996724038,0.042072730671614406
70000,0,29.675911870995865,0.00036978721618652344,0.0012519359588623047,0.0351719856262207,69501.5,-12.825544242739303,50.0,0.05,2.9395844443839056,70000,-10.762475017944293,50.0,1390.5,7.288313770055771,-14.083708938598633,14.349489820480347,-4.001867417812347,-2.741115936078131e-05,0.03512078389525414
75000,0,29.792252950483608,0.00041985511779785156,0.0009541511535644531,0.03536391258239746,74501.5,-12.15801475238719,50.0,0.0,3.47629174218396,75000,-11.033917150945708,50.0,1490.5,8.22495008611679,-14.293115483283996,14.5541295337677,-3.891211047410965,0.003954192675882951,0.03619290555268526
80000,0,29.478682061904177,0.0003943443298339844,0.000972747802734375,0.03611588478088379,79501.5,-9.365680775682524,50.0,0.15,2.677962965324462,80000,-9.936739266975348,50.0,1590.5,8.484102301120759,-14.28831186580658,14.54783868408203,-3.875530464887619,0.004999526188301388,0.03923622485622764
85000,0,29.522782619453356,0.00037097930908203125,0.0009679794311523438,0.034940242767333984,84501.5,-10.375182450221805,50.0,0.1,4.293668022768318,85000,-10.283867803159698,50.0,1690.5,8.06772558760643,-14.375416891098023,14.627875842094422,-4.000821818828583,1.4682300912681966e-05,0.03724349386245012
90000,0,29.679511538669523,0.0003719329833984375,0.0009970664978027344,0.0369720458984375,89501.5,-10.554845714977896,50.0,0.0,2.997658815990847,90000,-8.714994658591923,50.0,1790.5,7.9837930579185485,-14.380061690330505,14.632287174224853,-3.9837650220394134,0.0005857629553647712,0.03339324192330241
95000,0,29.585958091487655,0.0003609657287597656,0.0010390281677246094,0.035336971282958984,94501.5,-8.72776733592315,50.0,0.15,2.5020353711140264,95000,-9.20076340229561,50.0,1890.5,7.817012223720551,-14.360760252952575,14.619173760414123,-4.0374946582317355,-0.0012411337215598906,0.032909209210425616
100000,0,29.80056666707876,0.0003592967987060547,0.0009307861328125,0.03947615623474121,99501.5,-11.178117570185771,50.0,0.05,3.3452879434255274,100000,-9.89877297064948,50.0,1990.5,7.585014787912368,-14.290842155456543,14.546898802757264,-4.150279410839081,-0.004750583043147344,0.03310446663759649
105000,0,29.81632308024965,0.00045180320739746094,0.0012578964233398438,0.037676095962524414,104501.5,-11.233999327657088,50.0,0.05,3.6999610539451586,105000,-13.228399154349788,50.0,2090.5,7.285522382736206,-14.357974283218384,14.633869513511657,-3.9168231010437013,0.0028229321172984784,0.034425473388284444
110000,0,29.436805107691736,0.00037407875061035156,0.0009186267852783203,0.035474300384521484,109501.5,-10.839370404054842,50.0,0.0,2.5894939815436424,110000,-10.26038940386902,50.0,2190.5,6.9571102709770205,-14.297105109214783,14.553671685218811,-3.7917908840179444,0.006205777770490386,0.029712167229503393
115000,0,29.824215065101637,0.0003788471221923828,0.0009920597076416016,0.035378217697143555,114501.5,-8.848845764407907,50.0,0.0,2.5871048870684414,115000,-10.68116888885892,50.0,2290.5,7.185934428453446,-14.162688386917115,14.420718499183655,-4.037727685451507,-0.0012158335501735564,0.033251466784626246
120000,0,29.51852802262985,0.00039076805114746094,0.0009779930114746094,0.03521418571472168,119501.5,-12.424788115584033,50.0,0.05,2.5234368805750433,120000,-9.975706231981352,50.0,2390.5,7.5425961313247685,-14.11992657661438,14.395020844459534,-3.902890690803528,0.004345360378938495,0.044774740990251305
125000,0,29.6045011673132,0.0003459453582763672,0.0011150836944580078,0.035173892974853516,124501.5,-11.627245802090211,50.0,0.0,2.441622198116112,125000,-9.727313752139406,50.0,2490.5,7.525677379131317,-14.12599604320526,14.399977951049804,-4.052102660417557,-0.0019657526206283363,0.03976675286144018
130000,0,29.748185041861117,0.00038313865661621094,0.000997781753540039,0.035490989685058594,129501.5,-9.97151773345372,50.0,0.0,2.981471250908942,130000,-10.48707709179866,50.0,2590.5,7.579915702342987,-14.139994146347046,14.402668681144714,-4.05172096824646,-0.0018903515271667857,0.037668704826384784
135000,0,29.81993314918122,0.0003790855407714844,0.00092315673828125,0.03923296928405762,134501.5,-9.488056225882993,50.0,0.1,2.5821545110232527,135000,-10.001109996001059,50.0,2690.5,7.9076364657878875,-14.088035494804382,14.371162121772766,-3.787588835000992,0.007240102241543355,0.03478076721727848
140000,0,29.797070725467652,0.00039124488830566406,0.0009517669677734375,0.04090690612792969,139501.5,-8.593916791186366,50.0,0.15,2.6199747002131635,140000,-10.823236092592728,50.0,2790.5,6.720764684677124,-14.174647227287293,14.489310190200806,-0.16520155232120307,0.20730150885879994,0.053317634288221595
145000,0,30.04156594745227,0.0003902912139892578,0.0009636878967285156,0.036254167556762695,144501.5,-12.390599878760396,50.0,0.1,4.420059405054638,145000,-12.214222273442244,50.0,2890.5,7.7495898022651675,-14.307997410774231,14.587138145446778,-4.10012623667717,-0.004301150329207303,0.04253643109276891
150000,0,29.542420302119577,0.00037980079650878906,0.0018801689147949219,0.03986191749572754,149501.5,-12.13625775865581,50.0,0.05,2.8362091073667126,150000,-12.210369546615215,50.0,2990.5,7.878779570102692,-14.571570986747743,14.876021593093872,-3.5206580171585085,0.01963756494547124,0.039376061905175445
155000,0,29.638763647179132,0.0003669261932373047,0.0009500980377197266,0.03489804267883301,154501.5,-11.824645004380818,50.0,0.0,3.633067261766755,155000,-12.085334443539546,50.0,3090.5,8.170690307140351,-14.839016048431397,15.126512100219726,-4.059822834968567,-0.0024635672929580322,0.042175888065248725
160000,0,29.76322269450272,0.0003840923309326172,0.001032114028930664,0.03501081466674805,159501.5,-12.70641483075866,50.0,0.05,3.781941207402253,160000,-10.93370584387058,50.0,3190.5,8.806227517604828,-15.047077939987183,15.335764240264892,-4.1169732854366305,-0.005006123205355834,0.041692667588591574
165000,0,30.093543743180252,0.00039196014404296875,0.0009348392486572266,0.0363011360168457,164501.5,-10.550148153449204,50.0,0.05,2.3413636244773555,165000,-11.512557461666042,50.0,3290.5,8.10615047597885,-15.223045238494873,15.515660734176636,-3.968895275592804,0.0011019458157243208,0.034908401429653166
170000,0,29.704183147109134,0.00038504600524902344,0.0009589195251464844,0.03533792495727539,169501.5,-9.836866701720961,50.0,0.05,2.867087148925306,170000,-10.766648834603675,50.0,3390.5,8.649579511642456,-15.32704081439972,15.634027874946595,-3.9763697245121,0.0008902311291894876,0.037146256238222125
175000,0,29.66065521621121,0.0003898143768310547,0.0010290145874023438,0.03585529327392578,174501.5,-17.797893085548672,50.0,0.1,5.427636046199475,175000,-19.443220110321317,50.0,3490.5,9.2617314286232,-15.406588859558106,15.708753295898438,-4.352248935937881,-0.012995126514346339,0.03572321739420295
180000,0,29.48467773590087,0.0004038810729980469,0.0011708736419677734,0.03838300704956055,179501.5,-12.088710465341354,50.0,0.0,4.273483423674714,180000,-9.26393704771478,50.0,3590.5,8.526424807786942,-15.546384872436523,15.84769891166687,-4.346049790382385,-0.010837982206459856,0.03011891640909016
185000,0,29.574011182213255,0.0004138946533203125,0.0009770393371582031,0.03528189659118652,184501.5,-13.939793547839193,50.0,0.0,5.024771320738719,185000,-13.625303354725242,50.0,3690.5,8.272526741504668,-15.329281126976014,15.635620697975158,-4.011343078136444,-0.0006143646214040927,0.05557787695154548
190000,0,29.92703092862904,0.00041103363037109375,0.0009388923645019531,0.04024505615234375,189501.5,-12.859583215886996,50.0,0.05,4.491384932353523,190000,-13.463925977939098,50.0,3790.5,8.411623102188111,-15.175571097373963,15.46806955909729,-3.9373876185417176,0.003129256793356035,0.05018370946496725
195000,0,29.451516290662056,0.0003719329833984375,0.0009899139404296875,0.034635066986083984,194501.5,-11.81974115019344,50.0,0.15,5.370593110069931,195000,-12.770872179114672,50.0,3890.5,8.252146484851837,-15.063010347366333,15.345145648956299,-4.046933632135391,-0.0021467247960390524,0.04736605793610215
200000,0,29.414185389909576,0.0003960132598876953,0.0009827613830566406,0.03504824638366699,199501.5,-12.122980912077798,50.0,0.0,4.202988162109401,200000,-13.124732209988014,50.0,3990.5,8.02943714761734,-14.961959272384643,15.247256871223449,-4.032053241729736,-0.001280173030681908,0.04115782963484526
205000,0,29.187282518227594,0.0003960132598876953,0.0009500980377197266,0.034947872161865234,204501.5,-15.83786849913162,50.0,0.0,5.088150084249303,205000,-13.495814462399204,50.0,4090.5,8.071056307315827,-14.913454261779785,15.191822359085084,-3.9922188866138457,0.00032914083229843526,0.038867600064724686
210000,0,29.29965883669896,0.00037407875061035156,0.0009701251983642578,0.03612089157104492,209501.5,-13.06264564311499,50.0,0.0,3.680958850099353,210000,-12.691812856297265,50.0,4190.5,7.766772398471832,-14.950478328704834,15.254320559501648,-3.974601376056671,0.0011507500403677114,0.042563657861202954
215000,0,29.269123271160378,0.00037097930908203125,0.0010170936584472656,0.0349729061126709,214501.5,-14.070392538317652,50.0,0.0,4.052129809122592,215000,-14.42979377030512,50.0,4290.5,8.001527821540833,-15.02549596118927,15.331288481712342,-4.023973352670669,-0.0008722374844364822,0.03654569121822715
220000,0,29.253724073011167,0.00039696693420410156,0.0010559558868408203,0.03488898277282715,219501.5,-15.21248523244364,50.0,0.0,4.870625678857579,220000,-14.825787561548305,50.0,4390.5,8.154347662448883,-15.176409770011903,15.469958542823791,-3.9116109845638274,0.0037516206537839027,0.04209183046221733
225000,0,29.496516055694443,0.00037789344787597656,0.002521038055419922,0.0329737663269043,224501.5,-12.652653544014278,50.0,0.0,3.8992444153909376,225000,-13.858741055725327,50.0,4490.5,8.383528564929962,-15.239201210021973,15.53232723903656,-3.883047569513321,0.004707938349281903,0.039000884849578143
230000,0,29.440744796576354,0.0003867149353027344,0.0010039806365966797,0.03573203086853027,229501.5,-15.228189654745227,50.0,0.0,4.474111952579269,230000,-13.930870457196104,50.0,4590.5,8.700601586341858,-15.29497977924347,15.57896273803711,-4.0730890622138975,-0.002985073091520462,0.041046830587089064
235000,0,29.464895030805653,0.00039124488830566406,0.0010340213775634766,0.03627276420593262,234501.5,-14.546111533911482,50.0,0.05,4.994390029769207,235000,-15.728408289069971,50.0,4690.5,8.583449582338334,-15.314300669670105,15.60250865650177,-3.9589190475940703,0.0017165930597111583,0.04098474546894431
240000,0,29.59236431794311,0.0003018379211425781,0.0009632110595703125,0.03379082679748535,239501.5,-15.30931031840108,50.0,0.0,3.9361497513409742,240000,-13.860223282829102,50.0,4790.5,8.734968571662902,-15.319200380325317,15.601503741264343,-4.0859882829189305,-0.003366903678601375,0.04002363004162907
245000,0,29.676046459584807,0.0003972053527832031,0.000982046127319336,0.03562474250793457,244501.5,-11.63116151996029,50.0,0.05,5.870880344950169,245000,-13.840218220912751,50.0,4890.5,8.68385351228714,-15.342017290115356,15.629064496994019,-3.872632984161377,0.004746940682816785,0.036689159501343965
250000,0,29.525358995022305,0.0003750324249267578,0.0009539127349853516,0.0357060432434082,249501.5,-11.980640397646484,50.0,0.05,4.923033290536578,250000,-13.34572999590226,50.0,4990.5,8.449816608905792,-15.344865614891052,15.629902320861817,-3.893363273382187,0.0037490003494604026,0.0348673233948648
255000,0,29.673895078080196,0.00037407875061035156,0.0009610652923583984,0.03559589385986328,254501.5,-12.9198381825946,50.0,0.0,2.3381873949475884,255000,-13.832450769313684,50.0,5090.5,8.55635842704773,-15.336290668487548,15.623125515937804,-4.005456950426102,-0.000194742506952025,0.0455273571126163
260000,0,30.326302621476906,0.0004220008850097656,0.0010218620300292969,0.03669619560241699,259501.5,-15.658357068943587,50.0,0.0,2.8512076819279755,260000,-14.130330225434895,50.0,5190.5,8.453991799354553,-15.429698371887207,15.747108746528626,-3.9312399203777315,0.003411361748701893,0.04959566784650087
265000,0,29.613362732832574,0.0003948211669921875,0.00096893310546875,0.04310894012451172,264501.5,-15.549516772668095,50.0,0.0,1.9866726998844624,265000,-15.42773019166022,50.0,5290.5,8.833079732179641,-15.558415185928345,15.858835057258606,-4.130587802171707,-0.00649749595002504,0.05047527818754315
270000,0,29.197134761616198,0.0003809928894042969,0.0009610652923583984,0.03588294982910156,269501.5,-13.000277724971776,50.0,0.0,2.9673828408165654,270000,-14.712336679077907,50.0,5390.5,8.892655419826507,-15.630996468544007,15.939827244758606,-3.968208765029907,0.0015667606048518792,0.04860492204129696
275000,0,29.629207245577906,0.0004019737243652344,0.0010159015655517578,0.049458980560302734,274501.5,-12.283450116127828,50.0,0.0,2.644830571097345,275000,-12.884157481085296,50.0,5490.5,8.76226442837715,-15.609236562728881,15.895499700546265,-4.043385402679443,-0.0019250215522188228,0.044936602700501684
280000,0,29.56234311825776,0.0003998279571533203,0.0009660720825195312,0.035527944564819336,279501.5,-13.563099820235095,50.0,0.0,2.8955515545128074,280000,-13.404482366414339,50.0,5590.5,8.777034687995911,-15.55197689151764,15.835652102470398,-3.8983355643749236,0.004472381186380517,0.044628542277961966
285000,0,29.93637660629602,0.00045108795166015625,0.0008838176727294922,0.034899234771728516,284501.5,-14.720919695154095,50.0,0.0,2.7586933823601183,285000,-14.627197652195548,50.0,5690.5,8.811219088554383,-15.601614596366883,15.888463582992554,-3.9139020586013795,0.0039435240321327005,0.045553045950829985
290000,0,29.662232618668195,0.0003871917724609375,0.000965118408203125,0.03518390655517578,289501.5,-15.522378713550316,50.0,0.0,3.5303812592766106,290000,-15.808865547814644,50.0,5790.5,8.877085988044739,-15.56223703289032,15.851784489631653,-3.9265389399528505,0.0033991710894624703,0.046787369318306446
295000,0,29.70732718772427,0.0003619194030761719,0.0010159015655517578,0.035585880279541016,294501.5,-16.281513817677816,50.0,0.0,3.873722288915707,295000,-15.43981740655587,50.0,5890.5,8.703745405673981,-15.53407182788849,15.811095611572267,-3.983786592245102,0.0007785848443745636,0.047257144808769226
300000,0,30.367314117632347,0.0003781318664550781,0.0009348392486572266,0.035176992416381836,299501.5,-15.493608530455287,50.0,0.0,2.5173405332741075,300000,-15.388668767473893,50.0,5990.5,8.712351449012756,-15.532902874946593,15.813162261009216,-3.9963614373207093,0.0002147713441227097,0.048036052826792
305000,0,29.81391501652672,0.0003592967987060547,0.0009629726409912109,0.033866167068481445,304501.5,-14.921303574100438,50.0,0.0,3.363059606112895,305000,-15.323402528588776,50.0,6090.5,8.917108944177627,-15.555418537139893,15.830507972717285,-4.018436621189117,-0.0008510382729582488,0.045482928346842526
310000,0,29.442159391189822,0.0003840923309326172,0.0010156631469726562,0.03452420234680176,309501.5,-14.602420913424671,50.0,0.0,2.267809531568226,310000,-14.473410948156097,50.0,6190.5,8.870363461494446,-15.577425079345703,15.850420886039734,-4.035304310560226,-0.001779501846700441,0.05027466925233603
315000,0,29.495165717203072,0.0003960132598876953,0.00096893310546875,0.03538393974304199,314501.5,-13.303430209678321,50.0,0.0,3.802663290039838,315000,-15.204905031918646,50.0,6290.5,8.757566405296325,-15.642062890052795,15.927537579536438,-4.071165911912918,-0.0037424530388670972,0.054583491295576096
320000,0,29.63037584297661,0.00039386749267578125,0.0026292800903320312,0.03473782539367676,319501.5,-16.044154331652322,50.0,0.0,2.630725202969691,320000,-15.364683816385432,50.0,6390.5,9.09805002784729,-15.706544135093688,16.000506748199463,-4.01768969297409,-0.0008636775761842728,0.053661036666482684
325000,0,30.361242925543255,0.00034618377685546875,0.0009469985961914062,0.03484368324279785,324501.5,-14.15676903523745,50.0,0.0,3.3489379864762574,325000,-15.963954328216285,50.0,6490.5,9.2188097076416,-15.760880714416503,16.04435126209259,-3.9694492976665496,0.0015855249868473038,0.050445307936519385
330000,0,27.144708013715537,0.00032401084899902344,0.0008909702301025391,0.0330810546875,329501.5,-13.596059388498379,50.0,0.0,1.8352303399254115,330000,-14.297813794675648,50.0,6590.5,8.847785578250885,-15.799139993667602,16.082171323776244,-3.928623870372772,0.003600372568005696,0.04966360944509506
335000,0,29.584850798977836,0.00038814544677734375,0.0009438991546630859,0.03493189811706543,334501.5,-14.002175536413768,50.0,0.0,2.6000251429329815,335000,-15.06560500591246,50.0,6690.5,9.041821603298187,-15.843516717910767,16.127391018867492,-3.9687779295444487,0.0015208365012076683,0.04704851634055376
340000,0,29.75631479328852,0.00036525726318359375,0.0009310245513916016,0.0402827262878418,339501.5,-16.89259523684821,50.0,0.0,4.077037387549025,340000,-15.214746879750596,50.0,6790.5,9.22417598247528,-15.931731243133544,16.232432176589967,-3.9468080699443817,0.0028323024839046413,0.05223836919665337
345000,0,29.26683953923294,0.00039196014404296875,0.0010058879852294922,0.03563499450683594,344501.5,-16.556820724762748,50.0,0.0,4.8120694549244085,345000,-17.764931702799366,50.0,6890.5,9.131238770484924,-16.121200764656066,16.423086767196654,-3.958395042181015,0.0020400100566621403,0.050273262970149515
350000,0,29.407773798729906,0.00043201446533203125,0.0009701251983642578,0.0358889102935791,349501.5,-17.397160053364473,50.0,0.0,3.810957870168839,350000,-15.9368613468116,50.0,6990.5,9.391220119953156,-16.249229444503783,16.551493650436402,-3.9445532097816467,0.00282432669645641,0.04961297097429633
355000,0,29.356367625445387,0.0003650188446044922,0.00096893310546875,0.03516817092895508,354501.5,-14.411733574963502,50.0,0.0,4.071323606895882,355000,-16.586464640772824,50.0,7090.5,9.440399874687195,-16.353224960327147,16.6556661567688,-3.9679392051696776,0.0016226915190927684,0.05079027627408504
360000,0,29.85623818249535,0.00037288665771484375,0.0009591579437255859,0.035936832427978516,359501.5,-14.414252322137923,50.0,0.0,3.041941306318715,360000,-14.010715789439464,50.0,7190.5,9.733519647836685,-16.417935207366945,16.725549398422242,-3.90499875831604,0.004601231794455088,0.04926486437395215
365000,0,29.62361629193519,0.00035691261291503906,0.0010371208190917969,0.03608989715576172,364501.5,-14.529396109552232,50.0,0.0,4.000655507331058,365000,-14.538249809794717,50.0,7290.5,9.812804872989654,-16.402463916778565,16.698694484710693,-3.9415403900146484,0.002873577547783498,0.04791668662056327
370000,0,29.301012825710963,0.00039196014404296875,0.0009438991546630859,0.03589010238647461,369501.5,-14.931645077119247,50.0,0.0,2.5800422737851756,370000,-13.89727989101429,50.0,7390.5,9.715636373996734,-16.368927698135376,16.664580869674683,-4.0120723166465755,-0.0005317924239789136,0.045789891440421344
375000,0,29.209505242931616,0.0003941059112548828,0.0010390281677246094,0.035247087478637695,374501.5,-14.513175866377832,50.0,0.0,3.5438065150321587,375000,-14.80193282419025,50.0,7490.5,9.733619751930236,-16.322989974975584,16.611237350463867,-3.966476846933365,0.00157377426099265,0.04738533102720976
380000,0,29.352313474878954,0.0003871917724609375,0.0009369850158691406,0.03971099853515625,379501.5,-13.721481790813641,50.0,0.0,3.3632335585153617,380000,-14.317544792817284,50.0,7590.5,9.95025912618637,-16.319948598861693,16.61464307975769,-4.064774069309235,-0.0030431654064450413,0.04780548718199134
385000,0,14.623191214200693,0.001811981201171875,0.0030770301818847656,0.11796307563781738,384501.5,-13.73746281357434,50.0,0.0,3.363254994976804,385000,-15.005591788902791,50.0,7690.5,9.86955708360672,-16.335073596954345,16.629500841140747,-4.021313676834106,-0.0008762712154421024,0.04496837586164475
390000,0,7.820846441741367,0.0008151531219482422,0.00327301025390625,0.06969904899597168,389501.5,-13.512280279859391,50.0,0.0,2.497242774668584,390000,-13.605267230406048,50.0,7790.5,9.566410041332245,-16.329322973251344,16.618519115448,-4.004371536016464,-0.0001639487142674625,0.04174223008006811
395000,0,6.482055066689036,0.0019428730010986328,0.0050199031829833984,0.12447595596313477,394501.5,-14.619934414181909,50.0,0.0,3.403728484147707,395000,-14.059464781990005,50.0,7890.5,9.63807833814621,-16.273555901527406,16.564028577804564,-4.01275541472435,-0.0005456779519736301,0.04357524262741208
400000,0,8.84103405502448,0.0017201900482177734,0.0018928050994873047,0.1059713363647461,399501.5,-12.749807701604405,50.0,0.0,2.0840263178278677,400000,-14.975643452341881,50.0,7990.5,9.738676970481873,-16.242231760978697,16.533800779342652,-3.990403118610382,0.00042483854736201463,0.042346717230975627
405000,0,29.71208764467406,0.00038814544677734375,0.0009379386901855469,0.040291786193847656,404501.5,-16.671626126001094,50.0,0.0,5.2974767469242705,405000,-19.16307975053489,50.0,8090.5,9.607204535007476,-16.23091209220886,16.518184747695923,-4.013195416212082,-0.0005356162849057,0.04257492716982961
410000,0,30.18179442487963,0.00036025047302246094,0.0009810924530029297,0.034276723861694336,409501.5,-16.874209487413925,50.0,0.0,5.198769587357965,410000,-16.318600810235203,50.0,8190.5,9.489483036518097,-16.22025630283356,16.51051515388489,-4.041552536964416,-0.0018126184865250251,0.04485222982242704
415000,0,29.6107891635953,0.0003800392150878906,0.0009641647338867188,0.03515481948852539,414501.5,-16.994074462625672,50.0,0.0,5.359189093423142,415000,-16.314115856564893,50.0,8290.5,9.896833970069885,-16.330220849990845,16.636760187149047,-3.990118012666702,0.00046151186886709183,0.043640468303114174
420000,0,29.65026784961671,0.00041294097900390625,0.0010747909545898438,0.035891056060791016,419501.5,-13.529305419662261,50.0,0.0,3.171264639517513,420000,-14.662349836475167,50.0,8390.5,10.049414922952652,-16.51316132736206,16.816962562561034,-4.056605065822601,-0.0024575229681358906,0.042969497691839935
425000,0,29.679325465141236,0.0003712177276611328,0.0009646415710449219,0.034638166427612305,424501.5,-14.808398042057442,50.0,0.0,4.857960867416174,425000,-15.672216669473135,50.0,8490.5,10.346592974185944,-16.64610691833496,16.951701982498168,-4.023896180868149,-0.0009775089650065638,0.044704292885959146
430000,0,29.422287554826166,0.00036215782165527344,0.00095367431640625,0.035356998443603516,429501.5,-13.094350363590934,50.0,0.0,3.7267051000710665,430000,-12.51197193626581,50.0,8590.5,10.270243395805359,-16.62193998336792,16.917671102523805,-4.106836109876633,-0.0046156223368889185,0.0422162001915276
435000,0,29.671727425866383,0.00041604042053222656,0.0022068023681640625,0.03508114814758301,434501.5,-13.791306217698345,50.0,0.0,2.4757621672237615,435000,-14.090942245203678,50.0,8690.5,10.158477713108063,-16.5546276473999,16.849014085769653,-4.035443723678589,-0.00146382626061677,0.042501327205449344
440000,0,29.581652094938683,0.0003619194030761719,0.0009522438049316406,0.03711676597595215,439501.5,-13.680988631256497,50.0,0.0,2.6259308649213673,440000,-13.12103095993308,50.0,8790.5,10.044274351596833,-16.492237550735474,16.781209049224852,-3.868990939617157,0.005407225079106865,0.03957496197149157
445000,0,29.38192421655002,0.00037598609924316406,0.0010099411010742188,0.037457942962646484,444501.5,-13.816047121506955,50.0,0.0,2.4126578228700617,445000,-13.863661468328928,50.0,8890.5,10.14148840379715,-16.42223334312439,16.705120544433594,-3.895144191265106,0.004436746278952341,0.041734786797314884
450000,0,29.93909790985066,0.0003771781921386719,0.0009799003601074219,0.03771710395812988,449501.5,-13.146172331240669,50.0,0.0,3.134320578939827,450000,-13.778581931988773,50.0,8990.5,9.767382024765014,-16.326940704345702,16.61120931816101,-3.9996759393215178,2.920485258800909e-05,0.03974266458675265
455000,0,29.73472240522489,0.0004220008850097656,0.0009670257568359375,0.03548288345336914,454501.5,-13.822952754709458,50.0,0.0,2.059216220538715,455000,-13.884523469038962,50.0,9090.5,9.557059198141099,-16.268907922744752,16.54709757041931,-4.029756906509399,-0.001187917184928665,0.04059738734737039
460000,0,28.921367914098372,0.0004069805145263672,0.001087188720703125,0.036682844161987305,459501.5,-12.224320505957603,50.0,0.0,3.059735758253351,460000,-14.48529746764448,50.0,9190.5,9.526087281227111,-16.261460894584655,16.546539625167846,-3.90265984916687,0.0037793309233384205,0.038571608573198315
465000,0,29.4604801763601,0.0003731250762939453,0.0010178089141845703,0.03544116020202637,464501.5,-15.301329901753766,50.0,0.0,2.499059977834581,465000,-15.734311025794995,50.0,9290.5,9.92569982290268,-16.163320511817933,16.43221856498718,-4.129137792110443,-0.005247041227121372,0.04199893986806273
470000,0,29.261672129635578,0.0003807544708251953,0.001020193099975586,0.03550910949707031,469501.5,-15.828242719955194,50.0,0.0,2.9234406659850114,470000,-15.125629525116343,50.0,9390.5,9.413086653470993,-16.18164903831482,16.46653957748413,-3.936829068183899,0.002711935594386887,0.04140704221278429
475000,0,29.27232849010978,0.00036597251892089844,0.0009639263153076172,0.03502202033996582,474501.5,-16.313866182808376,50.0,0.0,3.318727520021639,475000,-15.482462405621746,50.0,9490.5,9.751439418792724,-16.14953793811798,16.431018543243407,-4.085766547679901,-0.0037389446935849266,0.043120165463536975
480000,0,29.360839295692777,0.00037598609924316406,0.0009639263153076172,0.03730511665344238,479501.5,-16.487409190052325,50.0,0.0,2.902365431207096,480000,-15.435231398271744,50.0,9590.5,9.591199263572692,-16.12530341243744,16.4037645816803,-4.005203794002533,-0.00018832621938781813,0.04133284573256969
485000,0,29.373901657478406,0.00037598609924316406,0.0009629726409912109,0.03533315658569336,484501.5,-13.89272508145827,50.0,0.0,3.3808327643521636,485000,-14.548340120514101,50.0,9690.5,9.54637105512619,-16.07865114688873,16.353290571212767,-4.079884745836258,-0.0030668002279126087,0.040013093415647745
490000,0,30.21682008395993,0.00037288665771484375,0.0009882450103759766,0.03513193130493164,489501.5,-17.59205685817683,50.0,0.0,4.519746338239667,490000,-15.126802750252475,50.0,9790.5,9.33411052274704,-16.105209550857545,16.3852882270813,-3.9438296301364897,0.002273663482803386,0.03994949933886528
495000,0,29.8047500453452,0.0004191398620605469,0.0009860992431640625,0.035594940185546875,494501.5,-13.957643829382542,50.0,0.0,3.304954496021823,495000,-14.394956871784185,50.0,9890.5,9.719290299892425,-16.09543645954132,16.375142250061035,-3.983644821166992,0.0006985450149513781,0.04145564294978976
500000,0,29.308531327088726,0.0003688335418701172,0.0010180473327636719,0.034767866134643555,499501.5,-14.864402597978085,50.0,0.0,4.0081200487964725,500000,-13.639104931497087,50.0,9990.5,9.53709833097458,-16.06410228919983,16.34065471458435,-4.054591635942459,-0.0020174171586404555,0.03856973785161972
505000,0,29.521237259261166,0.00038909912109375,0.0009319782257080078,0.03553605079650879,504501.5,-16.4869964829166,50.0,0.0,3.94783958573469,505000,-15.6981459289243,50.0,10090.5,9.214363740682602,-16.07052954387665,16.345803438186646,-4.043823288679123,-0.0016484939932415728,0.03857740538194775
510000,0,29.10034647161532,0.00036406517028808594,0.0009510517120361328,0.03571891784667969,509501.5,-16.162031257457365,50.0,0.0,4.228285648298409,510000,-17.001344390215593,50.0,10190.5,9.57127296590805,-16.047650255203248,16.317330629348756,-4.005336667060852,-0.00019102478941204027,0.03876913108676672
515000,0,29.23485413583051,0.000392913818359375,0.0009720325469970703,0.03499913215637207,514501.5,-16.19808489128831,50.0,0.0,3.5939688499285545,515000,-14.033617232746858,50.0,10290.5,9.518475378513337,-16.031772352218628,16.302037296295165,-4.006263213634491,-0.0002189022196107544,0.03806305017322302
520000,0,29.951072606277968,0.00037598609924316406,0.0007870197296142578,0.028142929077148438,519501.5,-14.989888933312823,50.0,0.0,6.177197805026995,520000,-15.319751224741125,50.0,10390.5,9.30782612657547,-16.005342712402342,16.274238334655763,-3.977994815826416,0.0008437051622313447,0.03692332979291677
525000,0,29.977614334510605,0.0004069805145263672,0.004473209381103516,0.03596067428588867,524501.5,-12.62914230870316,50.0,0.0,2.373833673055076,525000,-15.669964477269948,50.0,10490.5,9.666190103054047,-15.983708901405334,16.258617260932922,-4.064745040416717,-0.0023554510648536964,0.037358447317034006
530000,0,29.870242502724413,0.0004611015319824219,0.0011408329010009766,0.035604000091552734,529501.5,-14.773475423246959,50.0,0.0,2.9047674343940533,530000,-15.741412170802636,50.0,10590.5,9.480987676620483,-15.967168739318847,16.235877338409423,-4.005498427629471,-0.0001703332091565244,0.03509667143970728
535000,0,29.717035540245455,0.0004119873046875,0.001046895980834961,0.0407719612121582,534501.5,-15.57040383479407,50.0,0.0,4.940589548260946,535000,-15.572772868549311,50.0,10690.5,9.414925308704376,-16.006144916534424,16.273430234909057,-4.100626779794693,-0.003657685915968614,0.036560267716646194
540000,0,29.865974369346155,0.0004038810729980469,0.0009238719940185547,0.040199995040893555,539501.5,-14.173558298762108,50.0,0.0,3.3605589961652056,540000,-13.58021046165133,50.0,10790.5,9.503152905225754,-15.991735467910766,16.274587131500244,-4.004235950708389,-0.0001344411740428768,0.03604806239530444
545000,0,29.810113814355898,0.0004878044128417969,0.0022630691528320312,0.036550045013427734,544501.5,-12.847152581092928,50.0,0.0,3.6107752680115035,545000,-16.027329720501406,50.0,10890.5,9.51553537273407,-16.056321539878844,16.33174894142151,-4.045834321498871,-0.0016152246817946435,0.03571972193568945
550000,0,29.831664380745757,0.0004169940948486328,0.001004934310913086,0.03638815879821777,549501.5,-15.908722466093877,50.0,0.0,3.5918808341687125,550000,-15.189879745328307,50.0,10990.5,9.54657900571823,-16.0649352645874,16.335896913528444,-4.055459369421005,-0.0018111772529664449,0.0327434955239296
555000,0,29.78050532477171,0.0004398822784423828,0.0016379356384277344,0.03614997863769531,554501.5,-14.824227559747703,50.0,0.0,3.168281753674457,555000,-15.56477827380824,50.0,11090.5,9.686084016799926,-16.09924269294739,16.380982210159303,-3.999808613061905,2.3459181305952372e-05,0.03456588561460376
560000,0,29.581129684795776,0.0003840923309326172,0.0009479522705078125,0.03635406494140625,559501.5,-15.504031853005406,50.0,0.0,3.175317982344716,560000,-16.010934551368447,50.0,11190.5,9.83433205461502,-16.112133644104002,16.394251554489134,-4.051911808490753,-0.0017427202543476596,0.03431429036334157
565000,0,29.557700716243794,0.0003972053527832031,0.001010894775390625,0.03520393371582031,564501.5,-14.13181263169341,50.0,0.0,2.6427485703001903,565000,-14.556391149573619,50.0,11290.5,9.581737473011017,-16.171954459190367,16.45829560852051,-3.955318524360657,0.0015660251564986538,0.03425235607847572
570000,0,30.021723229522937,0.0004208087921142578,0.0009801387786865234,0.03713512420654297,569501.5,-15.549491440397935,50.0,0.0,4.166443350177742,570000,-14.991586830477342,50.0,11390.5,9.718097374439239,-16.22076834201813,16.507462329864502,-3.973800507545471,0.001024935689056292,0.03778187976032495
575000,0,29.702483908655918,0.0003840923309326172,0.0010089874267578125,0.03569197654724121,574501.5,-15.819581954875456,50.0,0.0,3.428097940108488,575000,-14.732141725658106,50.0,11490.5,9.710214775085449,-16.231799005508424,16.518339763641357,-3.999693106174469,4.10977557185106e-05,0.03474190229177475
580000,0,29.788051923842342,0.0003948211669921875,0.000990152359008789,0.035205841064453125,579501.5,-14.764807407151533,50.0,0.0,3.1383017044658867,580000,-13.59036964285762,50.0,11590.5,9.756390277385712,-16.228296055793763,16.50689489555359,-3.9449238018989563,0.0019358456998306791,0.03453857463225722
585000,0,29.354472508617544,0.00039505958557128906,0.0009729862213134766,0.03601789474487305,584501.5,-13.858305637011615,50.0,0.0,3.1576899194790187,585000,-13.869348151214547,50.0,11690.5,9.58936216688156,-16.26420608329773,16.54145664024353,-4.042048616647721,-0.0014753131002071315,0.03540600598603487
590000,0,29.558042117692764,0.00039315223693847656,0.000926971435546875,0.03518390655517578,589501.5,-15.061143159926804,50.0,0.0,2.8477949263492603,590000,-14.169819577258803,50.0,11790.5,9.756888738632203,-16.28953496170044,16.571588230133056,-4.015748491764069,-0.0005321449243347161,0.03526074358075857
595000,0,29.91288628125368,0.0003879070281982422,0.0009970664978027344,0.037199974060058594,594501.5,-13.928719580282916,50.0,0.0,4.216251507376817,595000,-12.89562175037993,50.0,11890.5,9.829792059898377,-16.319506549835204,16.602706214904785,-3.997716304063797,0.00010344285261817276,0.033875943951308725
600000,0,29.874426316724072,0.0004069805145263672,0.0009558200836181641,0.0357050895690918,599501.5,-13.715528487934085,50.0,0.0,2.9676190623559022,600000,-14.182885346670005,50.0,11990.5,9.703912234783173,-16.32776678276062,16.61030006980896,-4.005227405309677,-0.0001530815217993222,0.03387739207968116
605000,0,29.82832765904872,0.0004019737243652344,0.000982046127319336,0.03587198257446289,604501.5,-15.144015806955588,50.0,0.0,3.7708010161883054,605000,-16.604565784126375,50.0,12090.5,9.68875400352478,-16.319227781295776,16.60155463218689,-4.063066943645477,-0.002083821804219042,0.03227244447730482
610000,0,30.096049884124614,0.00039887428283691406,0.0009729862213134766,0.03608417510986328,609501.5,-14.475973011107882,50.0,0.0,3.223252158730457,610000,-14.693614170440707,50.0,12190.5,9.836067110538483,-16.374586656570436,16.663355125427245,-3.847737981557846,0.005458705654134974,0.034967007592320444
615000,0,29.327138898575715,0.00038814544677734375,0.0009338855743408203,0.0363612174987793,614501.5,-14.289514574219533,50.0,0.0,2.2927130938839335,615000,-14.14608507787151,50.0,12290.5,9.85194306564331,-16.388723098754884,16.671102155685425,-3.9699959704875947,0.00105274210657808,0.033969104673713446
620000,0,30.2761763129277,0.00034928321838378906,0.0008788108825683594,0.03549480438232422,619501.5,-14.9319323079467,50.0,0.0,4.18049970034112,620000,-14.938445190959209,50.0,12390.5,9.988872153759003,-16.395306564331054,16.675937311172486,-4.022529440164566,-0.000788695260474924,0.03460930040106178
625000,0,29.99579989116762,0.0004029273986816406,0.0009438991546630859,0.03479337692260742,624501.5,-18.942303834713798,50.0,0.0,4.889457061160835,625000,-16.948456146329036,50.0,12490.5,9.800752407550812,-16.424900276184083,16.708864767074584,-3.990670906543732,0.00033501805530977436,0.03417292504012585
630000,0,30.246688723418817,0.0003540515899658203,0.0009958744049072266,0.03453207015991211,629501.5,-17.42970065007274,50.0,0.0,5.67019057567159,630000,-17.58344083616079,50.0,12590.5,9.77551279258728,-16.47486752319336,16.761876979827882,-3.9850682141780855,0.0005409692943212577,0.03425968413800001
635000,0,29.80579210204468,0.00040912628173828125,0.0010259151458740234,0.03510904312133789,634501.5,-21.07259695343425,50.0,0.0,7.307548568245988,635000,-15.790435586345117,50.0,12690.5,10.075240158557891,-16.566079193115236,16.85992400741577,-3.9813885533809663,0.0006878394866071175,0.03604047043249011
640000,0,29.801523944019856,0.0003960132598876953,0.0009407997131347656,0.03526711463928223,639501.5,-17.531446666026994,50.0,0.0,4.086576379395867,640000,-16.762132810497,50.0,12790.5,10.00593151473999,-16.65657155227661,16.945509397506715,-4.050887008905411,-0.001724486585066188,0.03381544624269009
645000,0,29.44989008698954,0.0004031658172607422,0.002374887466430664,0.040992021560668945,644501.5,-14.46597509167953,50.0,0.0,4.3915654445999035,645000,-15.446990226449733,50.0,12890.5,10.196374552249909,-16.723984119415285,17.024379360198974,-4.04294535779953,-0.0014504007034702227,0.03556718438118696
650000,0,29.819329148986036,0.0003921985626220703,0.0010089874267578125,0.03636789321899414,649501.5,-13.33954358630588,50.0,0.0,4.832306348719553,650000,-14.568976348485487,50.0,12990.5,10.387495677471161,-16.783620975494383,17.087345357894897,-3.960274815559387,0.0013937656991474796,0.03456164467334747
655000,0,29.91070170412179,0.00040793418884277344,0.0009410381317138672,0.03522896766662598,654501.5,-15.68739356593504,50.0,0.0,2.966385438286031,655000,-15.781387698183696,50.0,13090.5,10.316200380325318,-16.8394088306427,17.142532369613647,-4.051055464029312,-0.0018061867140640971,0.035196758683770896
660000,0,30.124065164992462,0.00037217140197753906,0.0010578632354736328,0.03812289237976074,659501.5,-14.7964884217246,50.0,0.0,4.789837901476989,660000,-15.57172935518698,50.0,13190.5,10.26983452486992,-16.892300827026368,17.18102569770813,-4.07609011888504,-0.0026122830716776664,0.03527959908545017
665000,0,29.93676591362814,0.0003249645233154297,0.00096893310546875,0.03206896781921387,664501.5,-14.869069771948702,50.0,0.0,3.2595523428942057,665000,-15.708475107470653,50.0,13290.5,10.512523644447327,-16.9081794757843,17.204445833206176,-4.104725411891938,-0.003490508245129604,0.03389059254527092
670000,0,30.088567248471907,0.000415802001953125,0.0009911060333251953,0.03561997413635254,669501.5,-14.824395096333841,50.0,0.0,3.5995617504238764,670000,-14.008055089941584,50.0,13390.5,10.365373845100402,-16.908684509277343,17.21097094154358,-3.949811565876007,0.0017178928863431794,0.0337176274061203
675000,0,29.9687381694941,0.0004131793975830078,0.0011899471282958984,0.03712606430053711,674501.5,-14.294478895873965,50.0,0.0,1.8255802913036085,675000,-15.046340230515403,50.0,13490.5,10.498672460079193,-16.949657941818238,17.250605630874634,-3.993853012561798,0.00023402036749757825,0.035913017362356185
680000,0,30.0892290455026,0.0004086494445800781,0.0009610652923583984,0.03509020805358887,679501.5,-14.300950514504398,50.0,0.0,2.6843031703433744,680000,-15.932055310125117,50.0,13590.5,10.53751227092743,-16.947415285110473,17.24852145385742,-3.971945048570633,0.0010553507903241553,0.0366656032949686
685000,0,30.150925354616646,0.0003838539123535156,0.0010530948638916016,0.035247087478637695,684501.5,-13.907396578798167,50.0,0.0,3.069817134450532,685000,-13.864279888574448,50.0,13690.5,10.558191946029662,-16.929854511260988,17.224973009109497,-3.9899552648067473,0.0003836809435451869,0.03538876745849848
690000,0,30.270409991935043,0.0004069805145263672,0.000982046127319336,0.03432512283325195,689501.5,-13.07272951191877,50.0,0.0,4.248982543798287,690000,-14.541413513170545,50.0,13790.5,10.542717804908753,-16.935222183227538,17.22443019104004,-4.003511424541474,-8.860701651428826e-05,0.03536966802179813
695000,0,29.795755804894,0.0003719329833984375,0.001004934310913086,0.03547501564025879,694501.5,-14.4009623400291,50.0,0.0,2.6575049264660016,695000,-14.101810458915452,50.0,13890.5,10.389418236732483,-16.9174682636261,17.21549196434021,-4.074862135648727,-0.002577313878253335,0.033452824130654334
700000,0,30.333332289510338,0.0003998279571533203,0.0009410381317138672,0.035006046295166016,699501.5,-14.187220695341662,50.0,0.0,2.8729924037103656,700000,-14.633938995343218,50.0,13990.5,10.600156411170959,-16.89310654449463,17.184052743911742,-4.022456650733948,-0.0007924885616521351,0.0356866254247725
705000,0,29.98349340313019,0.00041294097900390625,0.0011889934539794922,0.038661956787109375,704501.5,-13.504525420706917,50.0,0.0,3.3525810613813762,705000,-13.324341096532677,50.0,14090.5,10.415096807003021,-16.866024482727052,17.161547777175905,-3.9633189771175386,0.001295512999407947,0.03561356887221336
710000,0,30.03215749824168,0.00038695335388183594,0.0009648799896240234,0.03559398651123047,709501.5,-14.726150634164355,50.0,0.0,2.527082260845428,710000,-14.108958639868499,50.0,14190.5,10.223290079116822,-16.84982039451599,17.144472595214843,-3.943168966293335,0.0019736720217042605,0.033641656819731
715000,0,30.363655592426152,0.00039505958557128906,0.0009641647338867188,0.0350956916809082,714501.5,-15.698554377635375,50.0,0.0,2.510105670618579,715000,-14.340183596988094,50.0,14290.5,10.477522175312043,-16.848702127456665,17.140387176513673,-3.99818617272377,7.694356091087684e-05,0.03382024872675538
720000,0,30.037945473808087,0.0003800392150878906,0.0009999275207519531,0.0364680290222168,719501.5,-15.29499198084585,50.0,0.0,3.9783951221913187,720000,-12.784708081912857,50.0,14390.5,10.527381128311157,-16.84391784095764,17.141074186325074,-3.9575290956497193,0.0015418684905744158,0.035827051792293785
725000,0,30.74176736284467,0.0004038810729980469,0.000982046127319336,0.03574395179748535,724501.5,-14.072958322414447,50.0,0.0,3.22596838688379,725000,-14.986708062254731,50.0,14490.5,10.39924424791336,-16.83656702232361,17.128740076065064,-4.065595126152038,-0.00228964485618053,0.03436613005772233
730000,0,30.18140914326939,0.0003879070281982422,0.0009851455688476562,0.034802913665771484,729501.5,-15.540217867252546,50.0,0.0,3.81768899221673,730000,-13.871554851173318,50.0,14590.5,10.36996714258194,-16.842414205551147,17.13290160751343,-4.006143704891205,-0.00019668956697569228,0.03341092487424612
735000,0,29.843751180695882,0.0003960132598876953,0.0009810924530029297,0.03577685356140137,734501.5,-14.834004117019997,50.0,0.0,4.52897825237159,735000,-13.955218278405976,50.0,14690.5,10.326905296325684,-16.820453411102296,17.12036756324768,-4.013231948375702,-0.00044668782164808364,0.0341869850307703
740000,0,30.91122547419203,0.0004191398620605469,0.001416921615600586,0.040405988693237305,739501.5,-14.873381113937237,50.0,0.0,3.269230142864261,740000,-14.490245167510224,50.0,14790.5,10.527359652042389,-16.784546365737913,17.070402530670165,-4.053877390146256,-0.0019580029450298755,0.03612692299857736
745000,0,30.29636502546693,0.00036978721618652344,0.0009601116180419922,0.03389787673950195,744501.5,-15.096235183792837,50.0,0.0,2.9111900684106624,745000,-17.370298005515245,50.0,14890.5,10.246873183250427,-16.819389696121217,17.117742614746092,-3.9836299970149995,0.0005845785870333203,0.034964853055775166
750000,0,29.703414700390965,0.0003838539123535156,0.0010161399841308594,0.03507208824157715,749501.5,-14.10247766003692,50.0,0.0,3.024987162846303,750000,-14.071866199075151,50.0,14990.5,10.300846546173096,-16.83949883079529,17.13236760139465,-4.00681569981575,-0.00019844285567523911,0.0338868443146348
755000,0,30.240427790432758,0.00041174888610839844,0.0016808509826660156,0.03574228286743164,754501.5,-13.58885598805936,50.0,0.0,3.2114744551628394,755000,-14.580173752946598,50.0,15090.5,10.286638628005981,-16.813391939163207,17.10544671821594,-4.028706224918365,-0.0009820208624005317,0.03402459067851305
760000,0,29.883003553689406,0.0003879070281982422,0.0009770393371582031,0.03656506538391113,759501.5,-14.505676149027636,50.0,0.0,3.0962318557429462,760000,-14.500065873728971,50.0,15190.5,10.225718275070191,-16.81905987930298,17.111493324279785,-3.994191915512085,0.00020338072326558175,0.033500677183270454
765000,0,29.790752039731988,0.0004172325134277344,0.0009639263153076172,0.03539109230041504,764501.5,-13.968074537882814,50.0,0.0,4.169025227587672,765000,-14.971093361333534,50.0,15290.5,10.1572789478302,-16.846861166000366,17.138957832336427,-4.030635030984879,-0.0010375550159078557,0.034182425759732724
770000,0,30.097739162719915,0.0003871917724609375,0.000997781753540039,0.035720109939575195,769501.5,-15.145587305719715,50.0,0.0,3.162583627293059,770000,-14.915906716538226,50.0,15390.5,10.215296893119811,-16.83609713935852,17.131821334838868,-3.918713100671768,0.0027919878169195725,0.03464066287130117
775000,0,29.955440191427815,0.00039696693420410156,0.001230001449584961,0.040001869201660156,774501.5,-16.167782311554497,50.0,0.0,3.13792264866241,775000,-15.312229110003136,50.0,15490.5,10.046958746910095,-16.84071849822998,17.138758026123046,-3.9797272250652314,0.0006892074879142455,0.03336055639013648
780000,0,30.258391687253003,0.0003879070281982422,0.0010020732879638672,0.04212784767150879,779501.5,-16.67812112139425,50.0,0.0,4.132120670942276,780000,-17.69371224614045,50.0,15590.5,10.261612991333008,-16.836226877212525,17.129402225494385,-4.061631947755814,-0.002151263188541634,0.03438175043091178
785000,0,29.84999613736024,0.00039505958557128906,0.0009467601776123047,0.035813093185424805,784501.5,-14.083915337022011,50.0,0.0,2.9221365839329074,785000,-16.181516342421325,50.0,15690.5,10.286892572402953,-16.88234597969055,17.179724685668944,-3.88232146191597,0.003958251281786943,0.03344234295375645
790000,0,30.014722535469136,0.0003941059112548828,0.0009779930114746094,0.03895688056945801,789501.5,-16.13680525349052,50.0,0.0,2.8537770702519767,790000,-14.490316471399009,50.0,15790.5,10.254759620666503,-16.88375093650818,17.17402833747864,-3.955031874895096,0.001489385947730625,0.031175088873133062
795000,0,30.260298124868303,0.0003809928894042969,0.0010128021240234375,0.036332130432128906,794501.5,-14.6478423821352,50.0,0.0,3.229973277170996,795000,-14.07443863713446,50.0,15890.5,10.170480806827545,-16.887528675079345,17.175236976623534,-3.9778129527568815,0.0007400786611397052,0.03313965145871043
800000,0,29.971156103570493,0.00039196014404296875,0.001009225845336914,0.035125017166137695,799501.5,-16.676193404882923,50.0,0.0,3.820335074023895,800000,-13.709171684769666,50.0,15990.5,10.226116318702697,-16.86281872177124,17.152390562057494,-3.9464461812973024,0.001746862823725678,0.03136704860627651
805000,0,30.091882785674454,0.0009000301361083984,0.0011630058288574219,0.03531193733215332,804501.5,-15.476268500591676,50.0,0.0,2.5298433843619965,805000,-15.132415700437903,50.0,16090.5,10.153468058109283,-16.84866053009033,17.13780220413208,-4.01787716460228,-0.000583453725441359,0.03166517322696746
810000,0,29.63940035938525,0.0004298686981201172,0.0009970664978027344,0.037554025650024414,809501.5,-13.607459813053373,50.0,0.0,3.5537272884531466,810000,-13.671398197789353,50.0,16190.5,10.04746283531189,-16.827426935195923,17.11942915725708,-3.998658012151718,5.163768157945015e-05,0.03163795254193246
815000,0,30.17826123548085,0.00043082237243652344,0.0009520053863525391,0.04019308090209961,814501.5,-15.696572498872001,50.0,0.0,2.427289734875953,815000,-14.460221551911477,50.0,16290.5,10.167400837421416,-16.838481540679933,17.122483606338502,-4.038321479320526,-0.001180793828330934,0.030642273031175137
820000,0,29.97270823266037,0.00040602684020996094,0.0009810924530029297,0.03587508201599121,819501.5,-14.720909843048304,50.0,0.0,3.3101907313788943,820000,-15.390933031406282,50.0,16390.5,10.339545444965363,-16.813507125854493,17.109633295059204,-4.04472713470459,-0.0013955911060038488,0.03284765202924609
825000,0,30.27334051179573,0.00038504600524902344,0.00096893310546875,0.035505056381225586,824501.5,-14.703572604197978,50.0,0.0,4.0162280210411945,825000,-15.080799218317107,50.0,16490.5,10.112038744449615,-16.837403326034547,17.12273668861389,-3.9698066873550415,0.0010090787560329772,0.032263749577105046
830000,0,29.9354832889426,0.0004029273986816406,0.001001119613647461,0.03627896308898926,829501.5,-15.098523461754684,50.0,0.0,2.753767438412429,830000,-15.137833992030647,50.0,16590.5,10.25948730802536,-16.85465661621094,17.14864194869995,-4.040688534021378,-0.001247708465438336,0.03275111911445856
835000,0,30.144065324253866,0.00031304359436035156,0.0009298324584960938,0.04228711128234863,834501.5,-15.136736101185923,50.0,0.0,3.077011984783513,835000,-16.26115053406184,50.0,16690.5,10.11742171573639,-16.84261597633362,17.12965203666687,-4.071898414850235,-0.0021932808020792434,0.0308113997541368
840000,0,30.006018868411676,0.0003859996795654297,0.0009789466857910156,0.03491687774658203,839501.5,-15.340602721768724,50.0,0.0,2.20419769147828,840000,-14.441953342561982,50.0,16790.5,10.173043528079987,-16.825908502578734,17.11714327430725,-3.974326759815216,0.0008519317819736898,0.03310852770134807
845000,0,29.90971649833093,0.0003840923309326172,0.0009589195251464844,0.035333871841430664,844501.5,-15.07304711213761,50.0,0.0,2.8968055685793344,845000,-15.946548056903016,50.0,16890.5,10.100823920249939,-16.828602054595947,17.119486951828,-3.9698903470039366,0.0009984604245983064,0.03269676879793405
850000,0,30.302645641757557,0.00038504600524902344,0.0009679794311523438,0.03586006164550781,849501.5,-13.636581279992512,50.0,0.0,3.3342249575703122,850000,-15.756473093770328,50.0,16990.5,10.21646590089798,-16.817107250213624,17.105738414764403,-4.0055884828567505,-0.0001663575514103286,0.03251358542591334
855000,0,29.99591937741338,0.0003981590270996094,0.0009469985961914062,0.035871028900146484,854501.5,-17.17147903829248,50.0,0.0,3.0093478603776633,855000,-17.42699517821446,50.0,17090.5,10.089758528709412,-16.800599216461183,17.083149394989015,-4.067888202905655,-0.002226667336944956,0.03330744858458638
860000,0,30.43765883501897,0.00039577484130859375,0.0009400844573974609,0.039870262145996094,859501.5,-16.195541758685845,50.0,0.0,3.750534179938564,860000,-16.246217889629545,50.0,17190.5,10.076639336824417,-16.803805673599243,17.088883464813232,-3.9621357703208924,0.0012379016687045804,0.03245171893388033
865000,0,30.048959991964598,0.00044798851013183594,0.0010061264038085938,0.03509402275085449,864501.5,-13.770484303089216,50.0,0.0,3.2098690725741057,865000,-16.989745990009276,50.0,17290.5,10.102983555793763,-16.771288799285887,17.057818298339843,-3.96916837477684,0.0010581425226409919,0.03340677994117141
870000,0,29.36530718859416,0.0003921985626220703,0.0010747909545898438,0.037944793701171875,869501.5,-16.182782037918315,50.0,0.0,3.7761392676252865,870000,-15.80251862061084,50.0,17390.5,10.156943374156953,-16.76187901687622,17.04125862312317,-4.009597769260407,-0.000275699102669023,0.032073663782328364
875000,0,30.427064108855415,0.0003809928894042969,0.0009660720825195312,0.03543710708618164,874501.5,-15.940733061688103,50.0,0.0,2.5285680252728704,875000,-16.562074478530544,50.0,17490.5,9.973910429000854,-16.74996711921692,17.033367168426512,-4.012734630584717,-0.00041258032593759707,0.03357864813506603
880000,0,30.107369641505432,0.0004019737243652344,0.0012969970703125,0.044226884841918945,879501.5,-16.450833737241133,50.0,0.0,4.35776680833432,880000,-15.767989529717852,50.0,17590.5,10.078702314853668,-16.810473999023436,17.097222402572633,-3.9825194478034973,0.0006149160588392987,0.03436139306426048
885000,0,29.498271058209994,0.0004069805145263672,0.0009539127349853516,0.035256147384643555,884501.5,-15.42933919690436,50.0,0.0,3.3740442063132954,885000,-18.31261339647061,50.0,17690.5,10.179562551498414,-16.80861979293823,17.089621381759642,-4.026468053817749,-0.000839165709563531,0.03286464023962617
890000,0,29.745593471433185,0.0004119873046875,0.0009100437164306641,0.03774070739746094,889501.5,-16.291803724714477,50.0,0.0,2.895174386846039,890000,-15.730768650572333,50.0,17790.5,10.18870716047287,-16.852303321838377,17.138914024353028,-4.08148718214035,-0.002837456541194115,0.03562528679519892
895000,0,30.596383886261247,0.0004029273986816406,0.0009632110595703125,0.03676581382751465,894501.5,-21.72178753146586,50.0,0.0,4.788701784452292,895000,-18.09485272942132,50.0,17890.5,10.102383139133453,-16.881992763519285,17.172042333602906,-4.007850563049316,-0.00023856375087052584,0.03353101702779532
900000,0,29.969525759412683,0.0003819465637207031,0.0009677410125732422,0.03494715690612793,899501.5,-18.44665423295934,50.0,0.0,3.541791673753352,900000,-18.60321023771119,50.0,17990.5,9.99174990081787,-16.91144122505188,17.197196628570556,-4.030027968168259,-0.0009106818951258902,0.030217996494844555
905000,0,30.444888953093866,0.0003981590270996094,0.0010089874267578125,0.03578519821166992,904501.5,-19.06512203168085,50.0,0.0,4.27825061054794,905000,-16.910164325233293,50.0,18090.5,10.30584718465805,-16.9542973613739,17.24636487007141,-4.000587411403656,-5.470846925163642e-06,0.035137952480465175
910000,0,28.870981397669976,0.0002970695495605469,0.0009310245513916016,0.041603803634643555,909501.5,-18.406235598433675,50.0,0.0,3.6783062719881605,910000,-17.521301157942993,50.0,18190.5,10.244672295570373,-16.963051935195924,17.249261793136597,-4.0581268262863155,-0.0018243994296644815,0.031082507822662593
915000,0,29.494406180206816,0.00038123130798339844,0.0009679794311523438,0.03579592704772949,914501.5,-16.411153654644032,50.0,0.0,4.118028938658381,915000,-15.280224053706082,50.0,18290.5,10.21845057630539,-16.977974119186403,17.268900074005128,-3.906436646938324,0.0031908234345901293,0.0320548458956182
920000,0,29.36211775327167,0.00039124488830566406,0.0008668899536132812,0.026977062225341797,919501.5,-16.919683945582758,50.0,0.0,2.5342962577698174,920000,-15.698237911181986,50.0,18390.5,10.289401124954223,-17.053668926239013,17.343721670150757,-4.013571696281433,-0.0004185902267636266,0.03205505364015698
925000,0,29.30212497105804,0.0004029273986816406,0.0012710094451904297,0.038535356521606445,924501.5,-14.84692485224445,50.0,0.0,3.413046376928867,925000,-16.08207820676137,50.0,18490.5,10.235600418567657,-17.101103012084963,17.40073729515076,-3.9018850436210633,0.0033928642646060326,0.03442247324809432
930000,0,29.257160408173792,0.0004069805145263672,0.0009431838989257812,0.03573107719421387,929501.5,-13.075701017597723,50.0,0.0,4.17876517503081,930000,-14.60838810621566,50.0,18590.5,10.652248213291168,-17.11294560623169,17.403456480026247,-4.019749616622925,-0.0006584803139267024,0.03396853080764413
935000,0,29.146638144224486,0.00040912628173828125,0.0013508796691894531,0.03868699073791504,934501.5,-14.266418263457854,50.0,0.0,3.9424465921765486,935000,-17.181535152094867,50.0,18690.5,10.592063791751862,-17.145698291778565,17.440819957733154,-4.016266371965409,-0.000548797186667798,0.03402621300891042
940000,0,29.765256929247343,0.0004088878631591797,0.0010111331939697266,0.03619217872619629,939501.5,-15.36492726985631,50.0,0.0,4.18619784163116,940000,-15.292055811384975,50.0,18790.5,10.334471083641052,-17.182523864746095,17.48088174057007,-4.013438059329987,-0.00043042277710628695,0.033254680428653954
945000,0,29.715363251814782,0.0005171298980712891,0.0016357898712158203,0.03523111343383789,944501.5,-15.662293489909638,50.0,0.0,2.7360492728749257,945000,-15.348135049772017,50.0,18890.5,10.473375076293946,-17.208479862213135,17.497147327423097,-4.030805982112884,-0.0010206435903382953,0.0331511453948915
950000,0,29.375963259875054,0.0005519390106201172,0.001065969467163086,0.037155866622924805,949501.5,-14.75124418602025,50.0,0.0,3.343229784567657,950000,-16.86155797057839,50.0,18990.5,10.379686614513398,-17.212146257400512,17.503661739349365,-3.9910289425849914,0.0003139097043604124,0.0317578643951565
955000,0,29.95974955807572,0.00039386749267578125,0.0010371208190917969,0.038336992263793945,954501.5,-14.608903246803909,50.0,0.0,3.6611729304245313,955000,-16.377254501995516,50.0,19090.5,10.528028468608856,-17.246161293029786,17.538251913070678,-3.9349363977909086,0.00213000564291724,0.0332682200204581
960000,0,28.997990510241568,0.00038909912109375,0.0009522438049316406,0.03603076934814453,959501.5,-15.602423727715466,50.0,0.0,3.121877514178806,960000,-17.315718755044493,50.0,19190.5,10.593299057960511,-17.26274006652832,17.554421106338502,-3.984560149431229,0.000535509388835635,0.03326238191127777
965000,0,28.371529214158027,0.0004439353942871094,0.0009379386901855469,0.03541707992553711,964501.5,-17.034561902164434,50.0,0.0,2.3409750502211515,965000,-15.911261670963643,50.0,19290.5,10.613711789131164,-17.297007745742796,17.591595376968385,-4.0679688644409175,-0.002193539040337782,0.03255143768154085
970000,0,24.789598315034706,0.0005559921264648438,0.001577138900756836,0.046740055084228516,969501.5,-14.0009970338177,50.0,0.0,3.00212683853482,970000,-14.946676802579798,50.0,19390.5,10.750671984195709,-17.335046577453614,17.62527643585205,-4.055054508686066,-0.001831559893937083,0.033798152286559344
975000,0,24.36469367266419,0.0004019737243652344,0.0009860992431640625,0.03782796859741211,974501.5,-14.283482236452684,50.0,0.0,3.8651127658677247,975000,-14.589738155740486,50.0,19490.5,10.67957680273056,-17.317349903106688,17.610619066238403,-3.976259732246399,0.0007777935950143729,0.031993114275857805
980000,0,22.912760813020437,0.0004451274871826172,0.0012350082397460938,0.0504908561706543,979501.5,-15.142429472996529,50.0,0.0,3.28310646883789,980000,-15.673909492465251,50.0,19590.5,10.822179388046264,-17.334017721176146,17.622412452697755,-3.9584990541934966,0.001391464253567392,0.03207006216421723
985000,0,23.778580069366853,0.00041294097900390625,0.0010080337524414062,0.03976297378540039,984501.5,-13.69238416427674,50.0,0.0,4.584695429678492,985000,-15.245856245563932,50.0,19690.5,10.73256659078598,-17.327083345413207,17.61846622276306,-3.9768727123737335,0.0007557037096994464,0.032359384808689357
990000,0,26.275775613572574,0.00042700767517089844,0.0009672641754150391,0.03667402267456055,989501.5,-13.493112552220444,50.0,0.0,3.553273633919254,990000,-15.047893563127522,50.0,19790.5,10.760850477695465,-17.306810693740843,17.602814813613893,-3.9783422174453738,0.0007221199057239573,0.03258249022066593
995000,0,29.523371756593967,0.000408172607421875,0.0009248256683349609,0.03595089912414551,994501.5,-15.66878610818,50.0,0.0,3.050516560001344,995000,-15.316795145594881,50.0,19890.5,10.721501485824586,-17.30702417755127,17.59731897354126,-3.973024635314941,0.0008957588558841963,0.0325981565117836
1000000,0,26.25770404139442,0.0007090568542480469,0.0011060237884521484,0.03439688682556152,999501.5,-13.914658881771246,50.0,0.0,2.842582354582722,1000000,-16.51456286871979,50.0,19990.5,10.735127931594848,-17.330171310424806,17.620557254791258,-4.035689113378525,-0.0010694244237092788,0.031188550708815457
