rachanatexeira/mscdissertation-few-shot-pref-learning/results/fetchreach_run - 8/log.csv
time/steps,time/epochs,time/steps_per_second,time/dataset,time/preprocess,time/train_step,train/env_steps,eval/success,eval/reward,eval/length,eval/is_success,eval/reward_std,step,train/reward,train/length,train/num_ep,train/q_loss,train/target_q,train/actor_loss,train/entropy,train/alpha_loss,train/alpha
10000,0,346.94361028135967,0.0003447532653808594,0.0017151832580566406,0.038327932357788086,9501.5,0.0,-16.290097701921493,50.0,0.0,4.847116182066852,10000,-15.796111530725454,50.0,190.5,0.37213313579559326,-0.3903227895498276,0.09905704110860825,-0.7370238602161407,0.3262474536895752,0.0999549999833107
15000,0,34.74362944398475,0.00031375885009765625,0.0009391307830810547,0.03510904312133789,14501.5,0.015,-7.707512158939247,50.0,0.05,1.9563202926993661,15000,-9.521507380142463,50.0,290.5,0.19451260593533515,-2.2551861416101455,2.2923237525224684,1.7536022256612778,0.1903944314867258,0.03305770939216018
20000,0,34.305235001022986,0.0003237724304199219,0.0023353099822998047,0.03638100624084473,19501.5,0.0,-28.417868211641206,50.0,0.0,5.808072162628539,20000,-18.231907476272784,50.0,390.5,0.8468248282372951,-4.83450161743164,4.934968053340912,-4.343096188187599,-0.004988727720272436,0.014517035209573806
25000,0,34.963997153900166,0.00034308433532714844,0.0009567737579345703,0.03661489486694336,24501.5,0.0,-29.277056542437787,50.0,0.0,6.4613634683096235,25000,-19.372816285162443,50.0,490.5,1.5937327774763108,-7.100033025741578,7.283622886657715,-1.1338767538056709,0.07496758158376907,0.0259172200858593
30000,0,34.76512122810751,0.0003070831298828125,0.0009469985961914062,0.03486800193786621,29501.5,0.009,-10.564377398652985,50.0,0.1,1.394390604544217,30000,-12.141807943064148,50.0,590.5,4.048849203824997,-7.077065565109253,7.260552733898163,-3.1746988943815233,0.060536016214406116,0.07609413518756628
35000,0,34.73205712901643,0.0003662109375,0.0008876323699951172,0.035175323486328125,34501.5,0.022,-12.845938984015202,50.0,0.1,3.8384634369484845,35000,-11.230793515478478,50.0,690.5,3.994771514892578,-8.309037432670593,8.410459714889527,-3.5746425523757934,0.018884947695187292,0.04358735597878695
40000,0,35.220118476963044,0.00029206275939941406,0.0009660720825195312,0.04061293601989746,39501.5,0.012,-14.312488156695627,50.0,0.1,3.9091093933588437,40000,-13.496980034620183,50.0,790.5,4.378005985498429,-9.947369598388672,10.126606817245483,-4.424573807001114,-0.010827777638100087,0.024522935319691897
45000,0,35.15936651068462,0.0003619194030761719,0.0009663105010986328,0.03512382507324219,44501.5,0.0,-13.736635046781004,50.0,0.0,4.368733117100723,45000,-12.198987867661497,50.0,890.5,6.8473042211532595,-12.332753031730652,12.554878293037415,-4.447258135005832,-0.022020365112111903,0.051969235949218276
50000,0,34.40723090774577,0.0003447532653808594,0.0009500980377197266,0.03551197052001953,49501.5,0.0,-15.025780771783094,50.0,0.0,5.010905556720951,50000,-12.31653548352296,50.0,990.5,7.844091078281402,-13.703296685218811,13.93383609008789,-3.0997150851488113,0.04179098037746735,0.046285119120031595
55000,0,31.3890014669216,0.00039005279541015625,0.0010259151458740234,0.036605119705200195,54501.5,0.0,-12.898979428006822,50.0,0.0,3.1507607859162308,55000,-14.329823867540416,50.0,1090.5,9.229846505641937,-14.329483567237855,14.60140446949005,-3.653982970952988,0.013882488738803659,0.04113930377364158
60000,0,31.064995584853847,0.0005509853363037109,0.0014619827270507812,0.03711104393005371,59501.5,0.0,-18.34035756956072,50.0,0.0,3.362645723905889,60000,-21.118802005065977,50.0,1190.5,8.477838082551957,-15.134059237480164,15.45893649673462,-4.052486831009388,-0.0021437034436094108,0.04493652644008398
65000,0,31.272849698002144,0.00044083595275878906,0.0009751319885253906,0.0361638069152832,64501.5,0.0,-14.998833818444805,50.0,0.0,6.7733968866096,65000,-18.882620634823187,50.0,1290.5,8.577480486631394,-15.779481598854066,16.066203198432923,-3.5519580256938936,0.014575174172816332,0.03249159480072558
70000,0,30.950100395320874,0.0004069805145263672,0.0014889240264892578,0.038372039794921875,69501.5,0.001,-21.319650965014628,50.0,0.05,3.1947700351183,70000,-20.27434713348472,50.0,1390.5,15.492532287597657,-15.555519119262696,15.89117600250244,-6.249649488925934,-0.12863056881376542,0.05926241072267294
75000,0,31.193100098490614,0.00048089027404785156,0.0009679794311523438,0.037902116775512695,74501.5,0.043,-12.09869591927183,50.0,0.1,4.781444588145537,75000,-14.084841638849307,50.0,1490.5,10.119153948783875,-16.117981969833373,16.3763885307312,-3.866906032204628,0.005278156855900306,0.03858640784025192
80000,0,31.192399059985455,0.0004138946533203125,0.0009500980377197266,0.034765005111694336,79501.5,0.006,-14.4238811200614,50.0,0.05,4.716171916712411,80000,-15.881313522756523,50.0,1590.5,9.266904009819031,-16.802131660461427,17.207078311920167,-3.9241054443717003,0.005323926128912717,0.0736263791769743
85000,0,31.726458057152623,0.0003762245178222656,0.0009467601776123047,0.035836219787597656,84501.5,0.0,-17.93895081689054,50.0,0.0,6.127506520099074,85000,-17.102810288044164,50.0,1690.5,13.405759532928467,-16.931977754592896,17.263319442749022,-4.4112444794178005,-0.027889360387809575,0.06903299695253372
90000,0,28.876579710330514,0.0004031658172607422,0.0009570121765136719,0.03806900978088379,89501.5,0.016,-13.85763835040404,50.0,0.05,3.9346561668823186,90000,-12.246622060764897,50.0,1790.5,11.699849915027619,-17.526415784835816,17.847562459945678,-3.7278386125564573,0.014218913030112162,0.05285412790626288
95000,0,29.19147060048043,0.00042128562927246094,0.0009448528289794922,0.03767895698547363,94501.5,0.0,-9.65876225507652,50.0,0.0,3.493213621220339,95000,-10.853587630957112,50.0,1890.5,11.550003697872162,-17.563612295150758,17.84639644432068,-3.912135311603546,0.0036062794450263027,0.04001695887744427
100000,0,31.899843758375575,0.0003819465637207031,0.0009808540344238281,0.035378217697143555,99501.5,0.0,-10.658253880299384,50.0,0.0,3.9719609426442277,100000,-11.260044615237401,50.0,1990.5,12.069289730548858,-17.30140099143982,17.583335081100465,-3.8831583049297334,0.005113174659258221,0.04399356750026345
105000,0,30.771027844888785,0.00036787986755371094,0.0011372566223144531,0.03306913375854492,104501.5,0.039,-9.125736979308796,50.0,0.1,3.2512038924940296,105000,-10.424129540829966,50.0,2090.5,11.18760357761383,-17.151971466064452,17.447697895050048,-4.103714282035828,-0.004760914614773355,0.04737483861669898
110000,0,30.369892894078166,0.0003809928894042969,0.0009720325469970703,0.0385737419128418,109501.5,0.073,-10.883909288149853,50.0,0.15,4.20582956703971,110000,-11.71810473290245,50.0,2190.5,11.18404822587967,-17.00232571411133,17.323158981323243,-3.909341769695282,0.005189945282647386,0.057200585633516314
115000,0,33.15155992234972,0.00036907196044921875,0.0010089874267578125,0.031928062438964844,114501.5,0.0,-9.92789756644838,50.0,0.0,2.7160856066136128,115000,-9.386434770309704,50.0,2290.5,11.398861226081848,-16.895018745422362,17.17644078063965,-4.145790721178055,-0.007189522718603257,0.04866437908634543
120000,0,32.02981706381741,0.0005741119384765625,0.001561880111694336,0.033802032470703125,119501.5,0.0,-11.702611930159385,50.0,0.0,3.8418070439255754,120000,-12.5998273927174,50.0,2390.5,11.312991035461426,-17.045977779388426,17.394383249282836,-3.951236697912216,0.0026136233901197558,0.05252246117591858
125000,0,31.499105772609102,0.0003981590270996094,0.0040280818939208984,0.03919482231140137,124501.5,0.004,-9.890692789580484,50.0,0.05,2.5624387159100954,125000,-13.298699222152573,50.0,2490.5,16.854709897994994,-17.246796369552612,17.65434346008301,-3.054921137571335,0.08014598272705917,0.0886511645168066
130000,0,31.367440826403506,0.0003209114074707031,0.0008609294891357422,0.02735114097595215,129501.5,0.019,-12.747649987895908,50.0,0.05,3.008030387558872,130000,-10.970212858711488,50.0,2590.5,13.23088710784912,-17.591788063049318,17.9335797290802,-3.869218320846558,0.006497722617350519,0.04832317877560854
135000,0,30.680462501441564,0.0003879070281982422,0.0009450912475585938,0.03489208221435547,134501.5,0.0,-12.188252088402274,50.0,0.0,3.2177520534679025,135000,-13.727619464258359,50.0,2690.5,13.116938455104828,-17.785556324005128,18.111711820602416,-4.0377599792480465,-0.0022533869949402287,0.06227777569368482
140000,0,31.69426778622495,0.00043582916259765625,0.0012660026550292969,0.0370941162109375,139501.5,0.0,-12.245151618509304,50.0,0.0,2.508109610495341,140000,-13.960593644523266,50.0,2790.5,13.035410039901734,-17.43473387145996,17.734877698898316,-3.7536558166742324,0.01701309526024852,0.06972393926978111
145000,0,30.967461544674233,0.0004627704620361328,0.001028299331665039,0.03710579872131348,144501.5,0.0,-14.753955248612325,50.0,0.0,2.123914935099773,145000,-13.891370352618182,50.0,2890.5,11.537807041168213,-17.195642881393432,17.481703147888183,-3.8504815422296526,0.007790664803003893,0.05260643962398171
150000,0,31.17376350544062,0.0004699230194091797,0.0017781257629394531,0.0392611026763916,149501.5,0.007,-11.421695848617505,50.0,0.05,2.7466484899476944,150000,-14.70987775218362,50.0,2990.5,11.527640967845917,-17.076439233779908,17.365963886260985,-3.9401088910102846,0.0033193892853450964,0.055156571045517924
155000,0,31.359734526563752,0.0004076957702636719,0.0009741783142089844,0.036309003829956055,154501.5,0.0,-14.242904663589243,50.0,0.0,2.0766024289891023,155000,-15.902642662962634,50.0,3090.5,11.227263503074646,-16.85448666572571,17.127566036224366,-4.116820735216141,-0.006754449219093658,0.056278549775481225
160000,0,31.259710890394263,0.0004227161407470703,0.001074075698852539,0.03647303581237793,159501.5,0.0,-12.982255254649719,50.0,0.0,3.365220505632077,160000,-11.724460810149598,50.0,3190.5,12.157845009803772,-16.212197761535645,16.46472591018677,-3.610643143415451,0.031694374010898176,0.08396059437841177
165000,0,31.60037693488555,0.00040793418884277344,0.0009469985961914062,0.03704404830932617,164501.5,0.0,-10.919967805935377,50.0,0.0,2.816174744495053,165000,-11.236890056014884,50.0,3290.5,10.678065916061401,-15.900934032440185,16.143478293418884,-3.9441282324790956,0.003890174480038695,0.06925055161863565
170000,0,30.99413174489354,0.0004649162292480469,0.00145721435546875,0.03695178031921387,169501.5,0.0,-12.387396926919997,50.0,0.0,2.630253499649817,170000,-13.469189950213984,50.0,3390.5,10.353565761089325,-15.641112610816956,15.889968809127808,-3.8759793832302094,0.008612704462546389,0.06801762283593417
175000,0,31.313464615684346,0.00043010711669921875,0.000997781753540039,0.0356600284576416,174501.5,0.0,-11.707347898350221,50.0,0.0,2.079735535102237,175000,-12.801603501610924,50.0,3490.5,9.381795286655427,-15.477068783760071,15.728796398162842,-3.8837497029304506,0.007431934223626741,0.06509471787512303
180000,0,30.044342134582035,0.0004642009735107422,0.0008928775787353516,0.03713107109069824,179501.5,0.0,-13.53403691898271,50.0,0.0,2.582312770606446,180000,-12.56355796988888,50.0,3590.5,9.126262070655823,-15.323298864364624,15.56853817462921,-3.968756483078003,0.0017840156288584693,0.05209687157347798
185000,0,30.5618100268829,0.0003921985626220703,0.001010894775390625,0.04081416130065918,184501.5,0.004,-10.50835170321964,50.0,0.1,3.9811258151692823,185000,-11.58426166667831,50.0,3690.5,9.205730510234833,-15.422921312332154,15.687399034500123,-4.315550999879837,-0.020055933166877368,0.059839101139456036
190000,0,32.232314049396244,0.0003857612609863281,0.0009760856628417969,0.03294110298156738,189501.5,0.007,-11.076407357704891,50.0,0.05,3.2187041497829942,190000,-13.00613885303694,50.0,3790.5,9.529714022636414,-15.607561122894287,15.88274585056305,-3.972270184278488,0.0014052549242624082,0.0483121074102819
195000,0,32.56935062485719,0.0003428459167480469,0.0008909702301025391,0.031844139099121094,194501.5,0.0,-13.301838781452137,50.0,0.0,1.8811836804427247,195000,-11.614494984973478,50.0,3890.5,9.455637176990509,-15.70795815372467,15.987439304351806,-4.000249017238617,1.7998223891481756e-05,0.037239129465073344
200000,0,32.267956089156684,0.00045228004455566406,0.0009598731994628906,0.034960031509399414,199501.5,0.0,-17.789304716074085,50.0,0.0,5.631658441408817,200000,-18.223889911067364,50.0,3990.5,12.03836162853241,-15.84480261516571,16.205334664344786,-3.3864972150325774,0.041273246338707395,0.06948014396429061
205000,0,33.43830957854743,0.00038909912109375,0.000972747802734375,0.03271603584289551,204501.5,0.0,-15.358407160869046,50.0,0.0,4.393422735443407,205000,-15.055673278805681,50.0,4090.5,11.658953955173493,-16.158125685691832,16.450846632957457,-3.6086068605184556,0.02479081195651088,0.0643813394010067
210000,0,32.99643639141504,0.0003859996795654297,0.001010894775390625,0.03493618965148926,209501.5,0.0,-17.78556916084851,50.0,0.0,5.647268424726572,210000,-18.251647592119596,50.0,4190.5,11.751655202865601,-16.039645259857178,16.314301938056946,-4.233280111551284,-0.01377842007682193,0.0637161637879908
215000,0,35.056181315415024,0.0003898143768310547,0.0009319782257080078,0.03162407875061035,214501.5,0.0,-17.124295642000416,50.0,0.0,4.7318441792527866,215000,-14.821398948025953,50.0,4290.5,10.21891900587082,-15.726220336914063,15.969002634048461,-3.981431997537613,0.0009404683408210985,0.04785280890390277
220000,0,33.88490141355559,0.0004012584686279297,0.0010309219360351562,0.03422403335571289,219501.5,0.0,-11.791874375709385,50.0,0.0,3.0454225118918705,220000,-13.806604260301407,50.0,4390.5,9.87761518239975,-15.612309065818787,15.840958770751953,-3.939778827428818,0.0033175438129110263,0.054368561740964653
225000,0,33.497424742675925,0.000370025634765625,0.0012359619140625,0.034027099609375,224501.5,0.009,-13.470700580316969,50.0,0.05,4.5602551138470995,225000,-15.766863313944285,50.0,4490.5,9.243906020641328,-15.430668478965758,15.67603717327118,-4.011047884702682,-0.0005573476060526445,0.05359479708597064
230000,0,18.28031186444673,0.0004968643188476562,0.0041010379791259766,0.056574106216430664,229501.5,0.0,-14.94380251271713,50.0,0.0,4.177571782335053,230000,-15.748156045079856,50.0,4590.5,9.290708286285401,-15.351764518737793,15.592655196189881,-4.0328648915290835,-0.002171407297893893,0.0690297338962555
235000,0,32.036460195952536,0.0003571510314941406,0.0008158683776855469,0.028708934783935547,234501.5,0.0,-17.050267366569642,50.0,0.0,3.652151885438581,235000,-15.010047317222853,50.0,4690.5,8.885960253238679,-15.35851315498352,15.599920372009278,-3.9788442726135256,0.0014997352991485968,0.06672422625869513
240000,0,31.996806226990756,0.0004019737243652344,0.000926971435546875,0.036705970764160156,239501.5,0.0,-16.85160056630088,50.0,0.0,3.1071038200141947,240000,-15.840954430435954,50.0,4790.5,9.26791402721405,-15.406025374412536,15.646545115470886,-4.0617290549278255,-0.004243798994808458,0.06862099920213223
245000,0,31.77106926903818,0.0004489421844482422,0.0011551380157470703,0.03710007667541504,244501.5,0.0,-23.85081963372948,50.0,0.0,3.7715725436558394,245000,-17.72666502149436,50.0,4890.5,9.555166932106019,-15.46287486743927,15.712513650894165,-4.010531031608582,-0.0006795763723785057,0.07116909397393464
250000,0,32.05197147749414,0.00035500526428222656,0.0008399486541748047,0.027224063873291016,249501.5,0.0,-21.54518840260917,50.0,0.0,6.646958822138927,250000,-18.75694478383796,50.0,4990.5,9.865763622760772,-15.553390733718873,15.813653437614441,-3.9312674877643583,0.004762099086365197,0.06989820553362369
255000,0,30.943435552612396,0.0003724098205566406,0.0009086132049560547,0.03320908546447754,254501.5,0.0,-16.418139085256037,50.0,0.0,3.7073821432147733,255000,-19.18700697336506,50.0,5090.5,9.826177851676942,-15.624365956306457,15.87612168598175,-4.149345960140228,-0.010420280866965186,0.07146125485002995
260000,0,33.15231169830168,0.00039196014404296875,0.0010149478912353516,0.03224992752075195,259501.5,0.0,-15.045203542331247,50.0,0.0,5.123902699605479,260000,-15.864823435002268,50.0,5190.5,10.221321615695953,-15.658707847595215,15.923356280326843,-3.9275981965065,0.004905092966509983,0.0673123554289341
265000,0,32.90204860104024,0.00038504600524902344,0.0009047985076904297,0.03227424621582031,264501.5,0.0,-14.209181200459255,50.0,0.0,4.647304098752533,265000,-14.156654693092676,50.0,5290.5,9.98171593427658,-15.722744622230529,15.96698350906372,-3.9550696816444395,0.0030996336771640927,0.06559090568125248
270000,0,32.861336207267016,0.00045800209045410156,0.001093149185180664,0.03384876251220703,269501.5,0.0,-17.938952550044238,50.0,0.0,3.1644240980067493,270000,-13.665914322930934,50.0,5390.5,10.181065392494201,-15.746596022605896,16.003778595924377,-3.925465973138809,0.004969411863596179,0.0648748086169362
275000,0,32.67651036610916,0.000370025634765625,0.0009789466857910156,0.03217792510986328,274501.5,0.0,-15.394705819183011,50.0,0.0,4.6898321634238656,275000,-16.26580247271585,50.0,5490.5,9.796108273029327,-15.756928566932679,15.994667729377747,-3.9783388023376465,0.001362272888305597,0.058760597679764034
280000,0,30.917278884300014,0.00030112266540527344,0.0009479522705078125,0.029800891876220703,279501.5,0.004,-13.325760056135413,50.0,0.05,5.469329464080081,280000,-14.626304246066933,50.0,5590.5,9.872572373390197,-15.650867212295532,15.896017332077026,-3.8910367639064787,0.006565015886852052,0.060241518098860976
285000,0,33.19873937835077,0.0007028579711914062,0.0010838508605957031,0.03310823440551758,284501.5,0.035,-12.194621459626358,50.0,0.05,4.668481490164554,285000,-15.1490738313636,50.0,5690.5,9.698104116439819,-15.594790212631226,15.831046455383301,-3.9358193871974945,0.0036368580375565215,0.057300227262079714
290000,0,30.63898770394744,0.00038623809814453125,0.0010406970977783203,0.0340731143951416,289501.5,0.0,-13.6059656967247,50.0,0.0,3.3278753800810046,290000,-14.40740445532524,50.0,5790.5,9.679455509185791,-15.433702313423156,15.673445818901062,-4.022432919979096,-0.0012867126388591715,0.058173385135829446
295000,0,27.071282045526143,0.00047206878662109375,0.0011069774627685547,0.03676295280456543,294501.5,0.0,-12.771456391745636,50.0,0.0,4.0493957152061215,295000,-13.020612087406224,50.0,5890.5,9.610076074838638,-15.259078700065613,15.474081304550172,-4.048871037244797,-0.0026174474880099295,0.05499920681491494
300000,0,26.693259389157134,0.0005328655242919922,0.0011892318725585938,0.037097930908203125,299501.5,0.0,-15.883795825884047,50.0,0.0,3.1695048813329567,300000,-13.942370634221708,50.0,5990.5,9.405261125564575,-15.115209424972534,15.334532022476196,-3.929823932170868,0.003694358375389129,0.05234597540274263
305000,0,26.588982258434037,0.0005869865417480469,0.0016222000122070312,0.044499874114990234,304501.5,0.0,-14.311487518267219,50.0,0.0,3.278672292842186,305000,-14.969542562516605,50.0,6090.5,9.050772133350373,-14.979726683616638,15.207887701034545,-3.950784994125366,0.002596697302884422,0.053355933751910924
310000,0,27.75325172046937,0.0006561279296875,0.001302957534790039,0.04375100135803223,309501.5,0.0,-14.078719009046821,50.0,0.0,4.1356449588115165,310000,-16.109856860175885,50.0,6190.5,8.924651312828065,-14.911688734054566,15.124477410316468,-4.093991652488708,-0.0046669245583761945,0.04869748482853174
315000,0,27.497322647191076,0.0005640983581542969,0.0010387897491455078,0.03491091728210449,314501.5,0.0,-15.512048824517143,50.0,0.0,7.158449195893852,315000,-14.999450090328414,50.0,6290.5,9.478803265094758,-14.763441645622253,14.98672200012207,-3.9823251354694365,0.000976783046789933,0.05282315376028419
320000,0,25.805689172317717,0.0005118846893310547,0.0010230541229248047,0.035524845123291016,319501.5,0.0,-13.479411774871746,50.0,0.0,4.066574073338307,320000,-15.423441598032634,50.0,6390.5,8.78701437330246,-14.729640773773193,14.944207374572754,-3.995829531669617,0.0002410897264489904,0.04924531503766775
325000,0,26.108760203084042,0.0004248619079589844,0.0008933544158935547,0.04230785369873047,324501.5,0.0,-13.514231997249803,50.0,0.0,3.5862273049206315,325000,-13.231925710186777,50.0,6490.5,8.987944370269775,-14.670916668891907,14.888334841728211,-3.9368655734062195,0.0031390666899387726,0.04877091356739402
330000,0,27.03807333305373,0.0004010200500488281,0.0012021064758300781,0.03951287269592285,329501.5,0.0,-15.051262294369073,50.0,0.0,3.687719493944759,330000,-12.401927230537208,50.0,6590.5,9.049210459709167,-14.609761068344117,14.818513892173767,-3.99755135846138,0.00013967762293759734,0.04485576272383332
335000,0,33.04592943327132,0.000392913818359375,0.0009779930114746094,0.03328394889831543,334501.5,0.0,-12.315753420786356,50.0,0.0,3.211843491552977,335000,-13.821796124241533,50.0,6690.5,8.789956987857819,-14.570347159385681,14.790667539596557,-4.0075487041473385,-0.0002908554310561158,0.042488561116158965
340000,0,30.71771199542171,0.0004909038543701172,0.0012059211730957031,0.03464484214782715,339501.5,0.0,-13.118498235077913,50.0,0.0,2.8389147580473337,340000,-12.648225549648203,50.0,6790.5,8.656184060573578,-14.521029124259949,14.737202041625977,-3.9694922349452972,0.001260443081439007,0.04024173954129219
345000,0,25.681574109324206,0.0005550384521484375,0.0014629364013671875,0.043267250061035156,344501.5,0.0,-12.5958450244157,50.0,0.0,3.293133141855711,345000,-11.995175288875972,50.0,6890.5,8.678693164348603,-14.48265762233734,14.703709389686585,-4.001578099489212,-4.041629968560301e-05,0.04079058832302689
350000,0,30.42356771542537,0.0003199577331542969,0.0009551048278808594,0.03386187553405762,349501.5,0.0,-14.736823107832194,50.0,0.0,3.4281600311250098,350000,-13.536441756498869,50.0,6990.5,8.536316672086716,-14.49974890422821,14.720052962303162,-3.9938433527946473,0.0002616350055905059,0.03740190034732223
355000,0,30.786735510624272,0.000347137451171875,0.0009829998016357422,0.03338289260864258,354501.5,0.006,-12.642839155090812,50.0,0.05,3.7429494312600697,355000,-13.924712987631775,50.0,7090.5,8.43605359196663,-14.529205232620239,14.747477716445923,-4.061392619609832,-0.002464663828141056,0.03998956597223878
360000,0,30.32448914856004,0.0004329681396484375,0.0009951591491699219,0.033603668212890625,359501.5,0.0,-11.660062770883048,50.0,0.0,3.6532645072508076,360000,-12.875795886114346,50.0,7190.5,8.778113721609115,-14.524046594619751,14.737387948036194,-4.110955600976944,-0.004134066421713214,0.03804935009032488
365000,0,30.864142023514006,0.00037980079650878906,0.0009729862213134766,0.032315969467163086,364501.5,0.0,-13.4100063531744,50.0,0.0,3.1739508295588306,365000,-11.738267335864133,50.0,7290.5,8.452819003105164,-14.520526306152345,14.749465132713318,-4.006023369073867,-0.00021912833483656868,0.04095139501988888
370000,0,30.951850366605253,0.0004048347473144531,0.001363992691040039,0.03215193748474121,369501.5,0.0,-13.383311686029973,50.0,0.0,2.465736053030207,370000,-12.940903717773441,50.0,7390.5,8.545704170703887,-14.51050006389618,14.728753069877625,-4.07669622206688,-0.0029131149013410323,0.03841161722317338
375000,0,30.475217930696385,0.0004222393035888672,0.0009758472442626953,0.0345151424407959,374501.5,0.0,-13.148712034049296,50.0,0.0,3.013537052464666,375000,-12.178290753532504,50.0,7490.5,8.421690459489822,-14.539136271476746,14.762702687263488,-3.980417704105377,0.0007605428914539516,0.03878187542408705
380000,0,30.232388115421198,0.0003859996795654297,0.0009961128234863281,0.034360647201538086,379501.5,0.0,-13.868940625768866,50.0,0.0,2.5289636750365516,380000,-14.655380188757002,50.0,7590.5,8.687932808876038,-14.540241630554199,14.776670785903931,-3.976403647661209,0.0009014703118300531,0.037976366695016625
385000,0,32.73621185952612,0.0005190372467041016,0.0013799667358398438,0.03322720527648926,384501.5,0.0,-12.869020949841953,50.0,0.0,3.1140899884341557,385000,-12.932753021103418,50.0,7690.5,8.622944264411926,-14.609664171218872,14.839566591262818,-4.05998382806778,-0.0021712177214212717,0.03870990797504783
390000,0,30.9669016166017,0.00041985511779785156,0.001007080078125,0.034004926681518555,389501.5,0.0,-13.602663729569167,50.0,0.0,4.1588090695981235,390000,-13.260335387247988,50.0,7790.5,9.048428678512574,-14.690769241333008,14.925291921615601,-4.101594826936722,-0.004336307884659618,0.042268773067742585
395000,0,32.37845081098667,0.00039505958557128906,0.0009279251098632812,0.03214001655578613,394501.5,0.0,-11.242237841891974,50.0,0.0,3.703255845025038,395000,-13.349760425999738,50.0,7890.5,9.468264694690705,-14.894597752571105,15.139885964393615,-3.8279560062885283,0.007994471553480252,0.04400896666198969
400000,0,30.96187734550687,0.0005710124969482422,0.0009980201721191406,0.03351593017578125,399501.5,0.0,-13.24358872294103,50.0,0.0,2.691138892065767,400000,-13.451727457411627,50.0,7990.5,9.313887521743775,-15.031232107162475,15.280983666419983,-4.015565696954727,-0.0005696971200814005,0.04197513484582305
405000,0,30.83130439609818,0.0003819465637207031,0.0012600421905517578,0.034745216369628906,404501.5,0.0,-12.445389540682703,50.0,0.0,2.270632263468465,405000,-13.10092623909386,50.0,8090.5,9.275416219234467,-15.128218413352966,15.363453342437744,-4.000896626234055,-1.3605258776806294e-05,0.03690760444477201
410000,0,30.631842738198866,0.0004551410675048828,0.001016855239868164,0.034226179122924805,409501.5,0.0,-12.002565852143734,50.0,0.0,2.6713241008486843,410000,-13.203626378076663,50.0,8190.5,9.465190482616425,-15.127728858947753,15.379397681236266,-3.9391317594051363,0.0022944751234317664,0.03644381641224027
415000,0,30.689088759999343,0.00036716461181640625,0.0009942054748535156,0.03377485275268555,414501.5,0.012,-11.681789148087113,50.0,0.05,2.9856230053577932,415000,-12.415466404631585,50.0,8290.5,9.693053478240968,-15.198478757858277,15.440540785789489,-4.119183428287506,-0.00453875703952508,0.037801618319004776
420000,0,30.644787620894114,0.00038695335388183594,0.0010058879852294922,0.032943010330200195,419501.5,0.0,-12.345594785292995,50.0,0.0,3.267811443747247,420000,-12.584633523705152,50.0,8390.5,9.457307291030883,-15.224918237686158,15.466040660858154,-3.910553606033325,0.003266798320284579,0.03476727206632495
425000,0,30.835263736531548,0.00036907196044921875,0.0009827613830566406,0.03303027153015137,424501.5,0.0,-11.80335099030433,50.0,0.0,3.5848834797572455,425000,-13.135322667939084,50.0,8490.5,9.661443158626556,-15.18571864414215,15.428755724906921,-3.9110611629486085,0.0033888246787828393,0.03627008960023522
430000,0,30.832073155722345,0.0003581047058105469,0.0009739398956298828,0.0328221321105957,429501.5,0.0,-11.868862093551854,50.0,0.0,2.3808545588073127,430000,-12.713497896243759,50.0,8590.5,9.488741611003876,-15.247171635627746,15.497788178443908,-4.07552515912056,-0.002737371286493726,0.03764916314557195
435000,0,30.965747986257462,0.0003910064697265625,0.0009891986846923828,0.03327798843383789,434501.5,0.0,-10.650658658310277,50.0,0.0,3.6907509605976903,435000,-13.590464220927933,50.0,8690.5,9.928369489192963,-15.27334101676941,15.534903077125549,-3.9874815135002137,0.000534333189309109,0.04052490356191993
440000,0,30.37665480657977,0.00040984153747558594,0.0010139942169189453,0.03345203399658203,439501.5,0.0,-13.021788008456138,50.0,0.0,2.898369109276163,440000,-11.848047953612081,50.0,8790.5,9.719053291797637,-15.310922361373901,15.557789002418518,-4.035939888000488,-0.0012678460346651264,0.03619426902756095
445000,0,30.12390073597037,0.0003809928894042969,0.0010008811950683594,0.03480696678161621,444501.5,0.0,-11.695955696921569,50.0,0.0,3.4947760924102123,445000,-11.667577880303204,50.0,8890.5,9.39334337425232,-15.343855849266053,15.594140590667724,-4.060849791288375,-0.002021140644530533,0.0337776889167726
450000,0,30.821967662456867,0.0003809928894042969,0.0010292530059814453,0.03397870063781738,449501.5,0.0,-12.00749559589721,50.0,0.0,2.501209781444155,450000,-11.44715270436346,50.0,8990.5,9.027208045005798,-15.290955851554871,15.544810634613038,-3.9565783209800722,0.0014940325637289788,0.03359527951851487
455000,0,30.95554966502973,0.00036525726318359375,0.0009698867797851562,0.0319669246673584,454501.5,0.0,-11.610250553417691,50.0,0.0,3.421980296819206,455000,-13.100288022049076,50.0,9090.5,9.081259345054626,-15.269851521492004,15.521092060089112,-4.036295901298523,-0.0011423810815031174,0.030836557246744632
460000,0,31.009492157447927,0.00035691261291503906,0.0009791851043701172,0.03244304656982422,459501.5,0.0,-12.318317529207965,50.0,0.0,3.3617744983022666,460000,-12.04153364486245,50.0,9190.5,9.345015645980835,-15.270590924263,15.51477193069458,-4.1004362809658055,-0.003347510828782106,0.032365389116108416
465000,0,32.36605231776033,0.0003819465637207031,0.0013539791107177734,0.03254103660583496,464501.5,0.016,-12.369663041265174,50.0,0.05,3.459132419049223,465000,-11.344298312547098,50.0,9290.5,9.021938744544983,-15.295971972465516,15.55176394367218,-3.882205867767334,0.003698629309394164,0.03179460614919662
470000,0,33.01039507312827,0.000392913818359375,0.0009970664978027344,0.0357358455657959,469501.5,0.0,-10.604614192779625,50.0,0.0,2.7447256039889605,470000,-12.676656222960528,50.0,9390.5,9.40161467075348,-15.307319964408874,15.558059149742126,-3.9259509916305544,0.002442093531542923,0.032433855682611465
475000,0,32.50870221002307,0.00041174888610839844,0.0009930133819580078,0.039566993713378906,474501.5,0.0,-12.11997911951645,50.0,0.0,2.941418824043973,475000,-10.025987569551656,50.0,9490.5,9.537118941783906,-15.325494663238526,15.582475558280946,-3.9801259672641756,0.0006136495124083012,0.03072887708991766
480000,0,32.912952758065614,0.0003647804260253906,0.0009660720825195312,0.03273916244506836,479501.5,0.016,-11.283156651991721,50.0,0.05,3.2082210780875737,480000,-10.68491777700639,50.0,9590.5,9.31537011909485,-15.336327215194702,15.597315613746643,-3.9881633775234224,0.00037958897807402535,0.030665398444980382
485000,0,17.890586408357493,0.0006048679351806641,0.0015048980712890625,0.06403422355651855,484501.5,0.0,-12.730839940729881,50.0,0.0,3.019830963855521,485000,-12.073263345591357,50.0,9690.5,9.032059827804565,-15.349001539230347,15.600575558662415,-3.9978600902557373,7.379209151258692e-05,0.029783564534038305
490000,0,17.216316782225313,0.0006151199340820312,0.0018618106842041016,0.05948019027709961,489501.5,0.0,-13.709871447175933,50.0,0.0,2.279345499753187,490000,-13.186740145414666,50.0,9790.5,9.413764075756074,-15.331635617256165,15.596955310821533,-4.003773357152939,-9.747005850658751e-05,0.030183182530105115
495000,0,32.31397402271143,0.0004229545593261719,0.0009438991546630859,0.034512996673583984,494501.5,0.0,-16.570957187376358,50.0,0.0,4.519196168199678,495000,-15.792575604981531,50.0,9890.5,9.069108797550202,-15.39623650932312,15.67110008430481,-4.049266568183899,-0.0017258746077422984,0.040806767717003825
500000,0,31.491884384777947,0.0003840923309326172,0.0010089874267578125,0.03362417221069336,499501.5,0.0,-16.33776920162817,50.0,0.0,4.343370510312678,500000,-14.266655413533845,50.0,9990.5,9.247546275138856,-15.628467352867126,15.915932534217834,-3.9899785284996034,0.0004469651838298887,0.04131356615945697
505000,0,31.733830175150782,0.00037097930908203125,0.0009419918060302734,0.035221099853515625,504501.5,0.0,-13.272574950590828,50.0,0.0,3.6406156525828326,505000,-12.694707706506843,50.0,10090.5,9.323464143753052,-15.754076972961427,16.02768252658844,-4.018030211925507,-0.0006643111226148904,0.03843319607153535
510000,0,33.123104522812945,0.0003910064697265625,0.0009891986846923828,0.03314566612243652,509501.5,0.0,-15.002710737487693,50.0,0.0,5.445068544492148,510000,-14.057014854282707,50.0,10190.5,9.495769931793212,-15.890888124465942,16.171155119895936,-4.047385800600052,-0.001726684938534163,0.03850706465169788
515000,0,31.19199148855005,0.0004978179931640625,0.0009870529174804688,0.035676002502441406,514501.5,0.0,-11.922084537349772,50.0,0.0,4.26685931290329,515000,-13.638992559189248,50.0,10290.5,9.777198335170747,-15.968025588035584,16.25271905708313,-3.8620597794055938,0.004756698089884594,0.03371873688697815
520000,0,31.356229845887153,0.00040602684020996094,0.0009479522705078125,0.03284287452697754,519501.5,0.0,-13.5420500140249,50.0,0.0,4.074639990638514,520000,-13.82017234137587,50.0,10390.5,9.47649079322815,-16.123553522109987,16.408590099334717,-4.019060816764831,-0.0006282429080456495,0.03477628510072827
525000,0,33.11376906121208,0.0003941059112548828,0.0009908676147460938,0.038001298904418945,524501.5,0.0,-14.77536980388104,50.0,0.0,4.521309750910968,525000,-16.466286597187903,50.0,10490.5,10.152645376205445,-16.244879995346068,16.53512843132019,-3.833096628189087,0.005562679174850928,0.03452490988373756
