rachanatexeira/mscdissertation-few-shot-pref-learning/results/example 4.csv
time/steps,time/epochs,time/steps_per_second,time/dataset,time/preprocess,time/train_step,train/env_steps,eval/success,eval/reward,eval/length,eval/is_success,eval/reward_std,step,train/reward,train/length,train/num_ep,train/q_loss,train/target_q,train/actor_loss,train/entropy,train/alpha_loss,train/alpha
10000,0,14.684743234692762,0.00032210350036621094,0.001653909683227539,0.08382296562194824,9501.5,0.0,-16.100699846677493,50.0,0.0,4.080863176417188,10000,-18.13982220892608,50.0,190.5,0.34765422344207764,-0.3820433020591736,0.09284627810120583,-0.656952828168869,0.33425359427928925,0.0999550111591816
15000,0,8.807850608697956,0.0005240440368652344,0.0016961097717285156,0.12979888916015625,14501.5,0.018,-8.324614010697095,50.0,0.05,1.3888070681840732,15000,-9.7302573705411,50.0,290.5,0.196295662894845,-2.3282310266494752,2.3720936880111694,1.3646512379422784,0.17877115280926228,0.033245113134384156
20000,0,15.806323992536987,0.0003578662872314453,0.0010838508605957031,0.06125617027282715,19501.5,0.0,-17.424810136514672,50.0,0.0,14.104525871017163,20000,-14.79049278753725,50.0,390.5,0.8499243287444115,-4.9378357253074645,5.069816066265107,-2.963306879967451,0.01645533743992564,0.01584946250356734
25000,0,15.938408058136485,0.0003578662872314453,0.0009741783142089844,0.06389284133911133,24501.5,0.017,-10.022794417478757,50.0,0.05,3.1199399054089003,25000,-12.5464174506936,50.0,490.5,1.816830270767212,-6.741672404766083,6.964423665523529,-2.1564894421957432,0.07179005453223362,0.04048630375415087
30000,0,15.738426822681483,0.00035262107849121094,0.0009131431579589844,0.06487512588500977,29501.5,0.0,-14.082804216700964,50.0,0.0,2.7526674735038643,30000,-11.417590737025423,50.0,590.5,3.322656030893326,-9.110378004074096,9.321617774009704,-3.9259284996986388,0.003588646253629122,0.047947872869670394
35000,0,12.135266554320104,0.0004961490631103516,0.0013980865478515625,0.091552734375,34501.5,0.015,-8.740391291839881,50.0,0.05,2.6736546036179,35000,-11.648415216660073,50.0,690.5,4.0723902604579925,-10.952004514694213,11.170289479255676,-4.023396802306175,-0.0009224767052219249,0.04494158009812236
40000,0,15.603353671367628,0.0003628730773925781,0.0008630752563476562,0.05928492546081543,39501.5,0.0,-12.694650430679392,50.0,0.0,2.491507209653934,40000,-11.932317590806564,50.0,790.5,4.91128367972374,-12.355679026603699,12.5893876953125,-3.6082933239340784,0.019230216617812403,0.04929827555641532
45000,0,15.326763897520683,0.0003719329833984375,0.0009021759033203125,0.06418585777282715,44501.5,0.0,-12.583339518393828,50.0,0.0,3.538154673858939,45000,-12.695736569916873,50.0,890.5,5.432484724998474,-13.140868640899658,13.352268117904663,-3.8914028694629668,0.004400669173104689,0.03953763633966446
50000,0,15.453339927508603,0.00039315223693847656,0.0015227794647216797,0.05769014358520508,49501.5,0.0,-12.390947211884633,50.0,0.0,3.220758552690564,50000,-13.62790671410139,50.0,990.5,5.809089154481888,-13.744946854591369,13.978289957046508,-3.7033074527978895,0.009929274486668874,0.032006108669564125
55000,0,13.01632013417519,0.0005559921264648438,0.0015060901641845703,0.09235215187072754,54501.5,0.0,-11.947256376880185,50.0,0.0,4.118895224713389,55000,-12.496208392617838,50.0,1090.5,6.352347244977951,-14.394346833229065,14.65558749961853,-3.9417277858257296,0.0019540702372323722,0.032925231784582135
60000,0,15.479255075906883,0.00037384033203125,0.0009672641754150391,0.06410789489746094,59501.5,0.017,-10.761002489342905,50.0,0.1,3.001770656906144,60000,-13.17536918315617,50.0,1190.5,6.759875261068344,-14.98614012336731,15.255494818687438,-4.3495836944580075,-0.01114232910136343,0.03221430492959917
65000,0,15.409845092756171,0.00040078163146972656,0.0008599758148193359,0.06264710426330566,64501.5,0.003,-13.778325836380905,50.0,0.05,6.464995221827235,65000,-17.47666193841498,50.0,1290.5,6.947078963041306,-15.332077481269836,15.623153277397156,-3.4498568816184996,0.01764059405284934,0.031232796166092158
70000,0,15.35686597709011,0.0003559589385986328,0.0010800361633300781,0.060633182525634766,69501.5,0.0,-19.252198431251106,50.0,0.0,9.953476668368186,70000,-13.331413122907701,50.0,1390.5,7.994756269693375,-16.12617380619049,16.463673791885377,-4.190815788269043,-0.007184717948810431,0.038092826407402754
75000,0,15.50016697687974,0.0004038810729980469,0.0009589195251464844,0.06696295738220215,74501.5,0.0,-15.522879186955148,50.0,0.0,4.225267773537961,75000,-14.88945638759551,50.0,1490.5,8.683125154018402,-16.675666988372804,17.001067193984987,-3.877351695537567,0.004861663547519129,0.03879543967172504
80000,0,15.40610313977133,0.00037932395935058594,0.000888824462890625,0.058365821838378906,79501.5,0.0,-13.797753583513693,50.0,0.0,3.227127668684616,80000,-12.349026695189371,50.0,1590.5,12.16402947950363,-17.239482641220093,17.559641555786133,-3.838713824748993,0.008997764927567915,0.054032743394374846
85000,0,15.460969776875856,0.000438690185546875,0.002456188201904297,0.06739997863769531,84501.5,0.008,-12.98774638317246,50.0,0.05,3.96479130746484,85000,-15.103030918029713,50.0,1690.5,11.495076865673065,-17.50525371837616,17.947292889595033,-0.47694477579649536,0.17850582381011917,0.053302959613502024
90000,0,12.042440387148858,0.0005040168762207031,0.0012581348419189453,0.07609176635742188,89501.5,0.004,-13.74244588486886,50.0,0.05,2.0918683293874287,90000,-15.471544466406183,50.0,1790.5,9.805208962917328,-17.88984084892273,18.22752543258667,-4.124272262096405,-0.0033523464119061827,0.026943582875654102
95000,0,10.292630572371454,0.0007250308990478516,0.0014791488647460938,0.09345102310180664,94501.5,0.0,-13.946471506797536,50.0,0.0,6.420885572772421,95000,-16.754335661998503,50.0,1890.5,11.384006855010986,-17.964323225021364,18.26211879348755,-4.106960668325424,-0.005619081240845844,0.05360764170438051
100000,0,10.282705511954907,0.0005440711975097656,0.0016510486602783203,0.09055209159851074,99501.5,0.0,-16.449156356931592,50.0,0.0,3.2890108389558588,100000,-19.337682223879803,50.0,1990.5,14.734750729084015,-18.683459213256835,19.130346212387085,-3.7922457643300294,0.018534289309638553,0.08687105195224284
105000,0,10.11704153779811,0.0004799365997314453,0.0014641284942626953,0.08104515075683594,104501.5,0.0,-12.69949093755242,50.0,0.0,3.1412315176846484,105000,-13.28604094546203,50.0,2090.5,14.730337019920348,-19.503961261749268,19.891191642761232,-3.9693606357574462,0.0017514201148296706,0.055186565704643725
110000,0,10.5596949715064,0.0004849433898925781,0.001428842544555664,0.1117861270904541,109501.5,0.0,-11.978395225389765,50.0,0.0,3.3271725704399784,110000,-12.914814725328498,50.0,2190.5,14.336065074443818,-19.71596679878235,20.113416147232055,-3.6038513004779817,0.018557090927439276,0.04572885542362928
115000,0,10.132982739181095,0.0005676746368408203,0.0017771720886230469,0.09535479545593262,114501.5,0.0,-13.978611981870941,50.0,0.0,3.034063374038746,115000,-12.263434049804246,50.0,2290.5,14.318469696044922,-19.857350063323974,20.238098693847657,-4.043451246500015,-0.001649538927944377,0.03935178191587329
120000,0,10.313687190653459,0.0007021427154541016,0.0016541481018066406,0.11082768440246582,119501.5,0.0,-11.29407050094319,50.0,0.0,4.226888698747367,120000,-13.859431957272076,50.0,2390.5,14.255425736904144,-19.843695571899413,20.214048391342164,-3.9795029287338255,0.000842856805480551,0.039528676100075245
125000,0,10.176549709463337,0.0005500316619873047,0.0011179447174072266,0.07987117767333984,124501.5,0.0,-21.06705851370563,50.0,0.0,2.7477294002762886,125000,-21.229462473127747,50.0,2490.5,12.947347812652588,-19.30822573661804,19.689913478851317,-3.9153909265995024,0.005637327760166954,0.06527877826988697
130000,0,15.426415274878098,0.0006859302520751953,0.0026798248291015625,0.06662917137145996,129501.5,0.0,-22.928118522426516,50.0,0.0,3.7374807488634776,130000,-21.047713017222367,50.0,2590.5,11.85810762643814,-18.74040307044983,19.058448070526122,-4.039873756408691,-0.0024004533406696282,0.06113019793108106
135000,0,15.431141934465504,0.00043010711669921875,0.0022020339965820312,0.07521486282348633,134501.5,0.0,-18.19354734449177,50.0,0.0,3.7990572198479757,135000,-19.01112540900511,50.0,2690.5,11.579642161369323,-18.662434741973875,18.988581407547,-4.067918495893478,-0.004480401954497211,0.0639319203570485
140000,0,15.408168092707923,0.00040984153747558594,0.0009069442749023438,0.06355810165405273,139501.5,0.0,-17.083430139564683,50.0,0.0,4.978104306616067,140000,-18.12472619137055,50.0,2790.5,11.489467779159545,-18.58950090789795,18.91203730201721,-3.9961315531730652,0.0002978104070352856,0.07113508204370737
145000,0,15.365963501924032,0.0003688335418701172,0.0008511543273925781,0.05802202224731445,144501.5,0.0,-17.24322014288752,50.0,0.0,4.579291152286556,145000,-17.7299043034999,50.0,2890.5,11.562765640258789,-18.589098001480103,18.921459997177124,-3.9795367600917815,0.0014408545073238202,0.06902264750003814
150000,0,15.471934250476613,0.0005488395690917969,0.0010819435119628906,0.06470990180969238,149501.5,0.0,-15.00169196550271,50.0,0.0,4.838546318478908,150000,-17.67424627852997,50.0,2990.5,11.551974566936494,-18.473971143722533,18.784494667053224,-3.9661829862594606,0.0020341660036356187,0.060486240312457085
155000,0,15.366332290714961,0.0003981590270996094,0.0009367465972900391,0.06661510467529297,154501.5,0.0,-17.43047658581818,50.0,0.0,6.1244567656584445,155000,-16.092124085566297,50.0,3090.5,10.89492721271515,-18.14821183395386,18.421418218612672,-3.980544356584549,0.0012983930440968834,0.06567657844722272
160000,0,15.266861373835091,0.00045800209045410156,0.0011670589447021484,0.06338787078857422,159501.5,0.0,-13.713703332985114,50.0,0.0,3.777891662973476,160000,-15.152455045850584,50.0,3190.5,10.81066455745697,-17.915392234802248,18.243474782943725,-3.979992791414261,0.0013448130570468493,0.06523616626113653
165000,0,15.327173598469297,0.00039505958557128906,0.002611875534057617,0.0659341812133789,164501.5,0.0,-13.284883956231567,50.0,0.0,3.0426565769301757,165000,-14.406732707719348,50.0,3290.5,11.251997961044312,-18.101009880065916,18.436359376907347,-3.9873100640773775,0.0008138934510061517,0.05830071481689811
170000,0,12.06431620829399,0.0004761219024658203,0.0013518333435058594,0.08260202407836914,169501.5,0.0,-15.285013240865656,50.0,0.0,3.791341114387439,170000,-18.616056095054315,50.0,3390.5,11.359921369075774,-18.198547538757325,18.528581268310546,-4.013338792324066,-0.0007217651971732266,0.05674411450698972
175000,0,15.354368665335983,0.0003871917724609375,0.0008418560028076172,0.06372714042663574,174501.5,0.0,-12.942343789016823,50.0,0.0,3.918927706698207,175000,-15.52034034509597,50.0,3490.5,11.48983982038498,-18.280277082443238,18.59992614555359,-4.06126980638504,-0.003296409574482823,0.053521989174187184
180000,0,9.841787186130135,0.000720977783203125,0.005745887756347656,0.11820316314697266,179501.5,0.0,-11.433801921412499,50.0,0.0,5.427384013799862,180000,-14.011672161168415,50.0,3590.5,11.57905877017975,-18.311116844177246,18.619381713867188,-3.9938020236492155,0.00041835200652712957,0.06404849608242512
185000,0,15.44324914193821,0.00037288665771484375,0.0008320808410644531,0.07583785057067871,184501.5,0.0,-17.045673313547958,50.0,0.0,6.965945477866243,185000,-15.51430767289376,50.0,3690.5,11.798099361896515,-18.299150194168092,18.61515079307556,-3.9708337011337282,0.001960417269205209,0.06451709960028529
190000,0,15.353616685133415,0.00037407875061035156,0.0009129047393798828,0.06658315658569336,189501.5,0.0,-15.213155441336166,50.0,0.0,7.304506430559022,190000,-18.0106796836071,50.0,3790.5,11.715500155925751,-18.31975378417969,18.627824451446532,-4.043161716699601,-0.0026555069454188922,0.06205295486375689
195000,0,15.45302456699556,0.000408172607421875,0.0008866786956787109,0.05697917938232422,194501.5,0.0,-17.780548465067753,50.0,0.0,8.75872651783416,195000,-16.0230775290318,50.0,3890.5,11.819125502109527,-18.35177277183533,18.65590668106079,-4.040555387973785,-0.002282057637698017,0.05653060358762741
200000,0,13.154134692502927,0.0006997585296630859,0.0017709732055664062,0.11599206924438477,199501.5,0.016,-10.490445656981963,50.0,0.1,2.960502048090806,200000,-11.565990306129612,50.0,3990.5,11.789517711639403,-18.321742527008055,18.636118072509767,-3.9331645851135253,0.003829842500621453,0.05716462148725986
205000,0,15.356298386018809,0.0007190704345703125,0.0015399456024169922,0.07199382781982422,204501.5,0.0,-11.577023621955782,50.0,0.0,4.230838362160451,205000,-17.196132575232248,50.0,4090.5,11.726115366458894,-18.3811711730957,18.707726234436034,-3.981093932390213,0.001044616339262575,0.05429441286996007
210000,0,15.778375649018297,0.00039005279541015625,0.0008311271667480469,0.05999469757080078,209501.5,0.0,-11.977143317979865,50.0,0.0,2.5251744722170124,210000,-13.08205878393359,50.0,4190.5,11.859762639045716,-18.470518589019775,18.80480613708496,-4.009313309907913,-0.000477112072519958,0.054587502650916574
215000,0,15.74424591303238,0.0003859996795654297,0.0008718967437744141,0.05798196792602539,214501.5,0.0,-11.985391649418276,50.0,0.0,3.9226252014663188,215000,-11.061057930984251,50.0,4290.5,12.141068251132966,-18.63682677078247,18.979184827804566,-3.996208920478821,0.00023068922030506655,0.053345619194209576
220000,0,15.800717560519812,0.0003628730773925781,0.0007891654968261719,0.059793710708618164,219501.5,0.0,-11.142755821884101,50.0,0.0,2.7681087382824265,220000,-11.666922419596835,50.0,4390.5,12.361284368515015,-18.734632627487183,19.058713218688965,-4.085060630559921,-0.004830074317287654,0.05501221687719226
225000,0,15.801323837965997,0.0003650188446044922,0.0008580684661865234,0.0616300106048584,224501.5,0.0,-12.06609937158882,50.0,0.0,2.7177227366934584,225000,-10.877466964194372,50.0,4490.5,12.329944873809815,-18.707988025665284,19.044447372436522,-3.9880933866500854,0.0006622446365072392,0.05206094693019986
230000,0,15.783653806966779,0.0003819465637207031,0.0009288787841796875,0.06405091285705566,229501.5,0.0,-12.58738810216268,50.0,0.0,2.960831508299153,230000,-12.360060462854376,50.0,4590.5,12.3733356924057,-18.734226222991943,19.078054849624635,-3.950725814819336,0.002787682073423639,0.05516488282009959
235000,0,15.78009763598313,0.00037360191345214844,0.0009720325469970703,0.06287908554077148,234501.5,0.0,-11.625170663195629,50.0,0.0,2.184780187040465,235000,-11.616820032996348,50.0,4690.5,12.597480924129487,-18.847746364593505,19.192936012268067,-4.028142669200897,-0.001468305876594968,0.051853513203561304
240000,0,12.475217526489944,0.0005450248718261719,0.0015759468078613281,0.07833290100097656,239501.5,0.0,-10.64039981429779,50.0,0.0,2.777361949119477,240000,-12.984096807186393,50.0,4790.5,12.765071720123291,-19.010084882736205,19.368473442077637,-3.9398745107650757,0.003205994994204957,0.052383748594671486
245000,0,10.970622744139568,0.0004222393035888672,0.0011210441589355469,0.07525992393493652,244501.5,0.0,-12.625561835715638,50.0,0.0,3.0520323885706357,245000,-12.085752656706523,50.0,4890.5,13.040802504062652,-19.115976932525633,19.472543787002564,-3.9300669264793395,0.0036262573088752105,0.05013658362999558
250000,0,10.81055170182853,0.000408172607421875,0.001049041748046875,0.07050395011901855,249501.5,0.0,-12.023808610784116,50.0,0.0,3.125324884271053,250000,-12.03192349787181,50.0,4990.5,13.2034639210701,-19.197325632095335,19.560900718688966,-3.9396416730880737,0.00293467318196781,0.04765916519239545
255000,0,10.75586879882558,0.0005230903625488281,0.0015668869018554688,0.08900189399719238,254501.5,0.0,-11.265047952371606,50.0,0.0,3.146938291651096,255000,-13.424251155364061,50.0,5090.5,13.16885631942749,-19.335739345550536,19.700019943237304,-3.9469823684692384,0.002401442960370332,0.045470668595284224
260000,0,10.776066559611781,0.0006661415100097656,0.0016889572143554688,0.08788013458251953,259501.5,0.012,-14.00866251866097,50.0,0.05,5.688238980720988,260000,-13.256940086430172,50.0,5190.5,13.363503812789917,-19.602977920532226,19.97405071258545,-1.5267466008421033,0.18795418390503618,0.0719005661830306
265000,0,15.76795771792881,0.000560760498046875,0.0014002323150634766,0.06656789779663086,264501.5,0.0,-13.608924906339325,50.0,0.0,5.303409876529926,265000,-15.444045967526247,50.0,5290.5,14.120454524040222,-20.06793217086792,20.43409576034546,-3.8619018099308016,0.008236157658160664,0.05843269531801343
270000,0,15.77515535267383,0.0003859996795654297,0.0008611679077148438,0.06134986877441406,269501.5,0.0,-15.940376605325454,50.0,0.0,4.37091918144543,270000,-14.638011256329055,50.0,5390.5,15.176042838573455,-20.257336767196655,20.642602767944336,-4.166771054029465,-0.008590597057540436,0.04928837313503027
275000,0,15.753179199834959,0.00036597251892089844,0.0007610321044921875,0.0585789680480957,274501.5,0.0,-13.414967644431737,50.0,0.0,4.411272751122355,275000,-13.59371212652683,50.0,5490.5,15.206477232933045,-20.505680152893067,20.870308555603028,-4.198926816701889,-0.008427838110830635,0.04208655059710145
280000,0,15.79203310969045,0.00046181678771972656,0.0008370876312255859,0.06621384620666504,279501.5,0.009,-12.811572997022742,50.0,0.1,4.7864232591901175,280000,-11.504620588510958,50.0,5590.5,14.145961421489716,-20.415522821426393,20.768211124420166,-4.120052404880524,-0.0043949462431191934,0.03632635352015495
285000,0,15.856647004778338,0.0003962516784667969,0.0009357929229736328,0.06024599075317383,284501.5,0.0,-11.868618328863551,50.0,0.0,3.4162415163493858,285000,-11.231444417044582,50.0,5690.5,13.701970025062561,-20.236006105422973,20.599016576766967,-3.946797628879547,0.0018541572696703951,0.03411301371082664
290000,0,15.502556662736767,0.00039505958557128906,0.001004934310913086,0.06330084800720215,289501.5,0.011,-10.845142230110023,50.0,0.05,3.897308312127376,290000,-12.444551427975929,50.0,5790.5,13.679018513679505,-19.98597554397583,20.34967495918274,-4.019139998197556,-0.0008094808600144461,0.04279167865589261
295000,0,6.372605100658767,0.0006730556488037109,0.0018019676208496094,0.16350269317626953,294501.5,0.022,-11.05421468537478,50.0,0.1,3.4947704449840202,295000,-13.054029567457789,50.0,5890.5,14.739539323806763,-20.00046884918213,20.433979068756102,-3.4616342569589613,0.06620944471168332,0.11777611909061671
300000,0,15.386504851106167,0.000408172607421875,0.0009341239929199219,0.0662837028503418,299501.5,0.021,-10.796659349674252,50.0,0.1,3.121464470896018,300000,-11.918818986808404,50.0,5990.5,13.173796622753143,-20.467606527328492,20.873562635421752,1.174898388683796,0.335807992964983,0.06477407068759203
305000,0,15.447482096886944,0.0003750324249267578,0.0009808540344238281,0.0830678939819336,304501.5,0.022,-13.264900592895282,50.0,0.05,5.421976116743136,305000,-11.738182926445967,50.0,6090.5,13.211822533130645,-20.475335025787352,20.853043731689453,-4.478272857189179,-0.01757098438666435,0.03652045973017812
310000,0,15.424066643613147,0.0005369186401367188,0.002444028854370117,0.06930899620056152,309501.5,0.0,-14.598526960530743,50.0,0.0,3.179248184600187,310000,-13.809346512864895,50.0,6190.5,13.757955167770385,-20.623921199798584,21.03614386177063,-4.041955187320709,-0.0015838292247790378,0.03860116726905107
315000,0,15.459326531518723,0.00039076805114746094,0.0009200572967529297,0.06502723693847656,314501.5,0.023,-12.337374919145514,50.0,0.1,4.1567829386893935,315000,-13.279299338428586,50.0,6290.5,13.843200026988983,-20.556185838699342,20.939310953140257,-3.9754641466140748,0.0010984704630100169,0.04221180758997798
320000,0,15.503482669262704,0.00039005279541015625,0.0009329319000244141,0.062113046646118164,319501.5,0.0,-12.326495073899085,50.0,0.0,3.742567659267539,320000,-14.252809486974405,50.0,6390.5,13.60526720046997,-20.398125562667847,20.781608207702636,-3.9189998908042907,0.0037903784617665222,0.04631523472443223
325000,0,15.524739794664184,0.00038886070251464844,0.0009000301361083984,0.05779910087585449,324501.5,0.005,-11.989723245090723,50.0,0.05,3.167205888162016,325000,-14.10818975168425,50.0,6490.5,13.67856187915802,-20.357899379730224,20.73901859664917,-4.088196061134338,-0.0041941584588203115,0.0463723986260593
330000,0,15.496414872018903,0.0004200935363769531,0.0008490085601806641,0.05996894836425781,329501.5,0.0,-12.344471839335148,50.0,0.0,3.5292483963010595,330000,-12.919571283145734,50.0,6590.5,13.291151082992554,-20.280859451293946,20.669085355758668,-4.006525134563446,-0.0002422835222678259,0.0417197460308671
335000,0,15.386875134591007,0.00037217140197753906,0.0008101463317871094,0.06821560859680176,334501.5,0.0,-13.899493380929172,50.0,0.0,4.26411882481085,335000,-13.169662411237283,50.0,6690.5,13.241781612873078,-20.242786319732666,20.633542161941527,-4.056490077018738,-0.0024617763109563385,0.04367134522646666
340000,0,15.386541314207031,0.000408172607421875,0.0009450912475585938,0.07222700119018555,339501.5,0.005,-12.362565441077589,50.0,0.05,3.447736510798917,340000,-12.093363827303644,50.0,6790.5,13.119527088165283,-20.209541187286376,20.594582948684693,-4.036816381216049,-0.001543443107686471,0.04331497935205698
345000,0,15.39768329239813,0.0003840923309326172,0.0008609294891357422,0.06294798851013184,344501.5,0.003,-13.019992777127865,50.0,0.05,2.722654459538284,345000,-12.341441424698191,50.0,6890.5,13.087840856552123,-20.19895442008972,20.577369258880616,-4.046435968875885,-0.0019565099554602057,0.04223319014534354
350000,0,11.297836725860032,0.00040912628173828125,0.0011320114135742188,0.07276082038879395,349501.5,0.017,-12.063638566321918,50.0,0.1,3.303512799947132,350000,-12.039286246309112,50.0,6990.5,13.157572759628296,-20.23222746658325,20.621974802017213,-3.9854271965026857,0.0006038403144630138,0.040505816143006086
355000,0,12.223706621715131,0.0005419254302978516,0.0014231204986572266,0.0772390365600586,354501.5,0.017,-9.689057839980283,50.0,0.05,3.1248704458709997,355000,-12.559212971440642,50.0,7090.5,13.007337850570678,-20.19090156364441,20.568508485794066,-4.046383467674255,-0.0018593121108715423,0.040166883748024705
360000,0,13.186147276841702,0.0007450580596923828,0.0009710788726806641,0.06890487670898438,359501.5,0.008,-12.64293895289081,50.0,0.05,3.804897277455682,360000,-11.14308671037479,50.0,7190.5,13.006367889404297,-20.159609394073485,20.544174196243286,-3.9669536457061767,0.0013708268663322088,0.04171323611214757
365000,0,13.430728839773684,0.0006401538848876953,0.0016810894012451172,0.07014894485473633,364501.5,0.002,-11.06524257009429,50.0,0.05,3.2774078068166967,365000,-11.661193932992287,50.0,7290.5,12.82811037826538,-20.088902868270875,20.480128988265992,-3.9981671669483183,0.00010268515290226787,0.04111512412130833
370000,0,12.648088383622285,0.00038504600524902344,0.0012099742889404297,0.06130099296569824,369501.5,0.0,-11.786154142141166,50.0,0.0,2.5958148321461345,370000,-12.641702002648668,50.0,7390.5,12.79488459968567,-20.030415435791017,20.41744069671631,-3.9923411474227906,0.0003191784385126084,0.039304915122687814
375000,0,13.362724012984899,0.0003552436828613281,0.0009038448333740234,0.07282304763793945,374501.5,0.02,-10.59530539642799,50.0,0.05,3.683879326175813,375000,-10.91674189137638,50.0,7490.5,12.810287954807281,-19.948401386260986,20.330451326370238,-3.995132074832916,0.00021890190939302556,0.04167748339101672
380000,0,15.436664956599046,0.00039505958557128906,0.0009407997131347656,0.0654911994934082,379501.5,0.0,-12.39117174514711,50.0,0.0,3.4312179589839915,380000,-12.173998981445685,50.0,7590.5,13.225822212696075,-19.908650382995607,20.29019981575012,-3.9579966077804567,0.0017789164396235719,0.04030577091500163
385000,0,15.527854860013282,0.0004069805145263672,0.0008869171142578125,0.06336808204650879,384501.5,0.0,-9.460171275626283,50.0,0.0,2.653608355694956,385000,-11.531059321813293,50.0,7690.5,14.101536923885346,-19.920367290496827,20.30870321273804,-3.9956089375019075,0.0002258929612580687,0.04762856450304389
390000,0,15.568668871989047,0.0003452301025390625,0.0008718967437744141,0.06336092948913574,389501.5,0.0,-12.64876209520926,50.0,0.0,2.222319590178726,390000,-10.642813699089384,50.0,7790.5,14.338540326595306,-19.948335109710694,20.340634670257568,-3.876241643667221,0.005780696391069796,0.04564314437285066
395000,0,15.509400949913386,0.0004341602325439453,0.0008919239044189453,0.06553506851196289,394501.5,0.001,-10.191658894658328,50.0,0.05,2.893986503393825,395000,-11.288073237899969,50.0,7890.5,14.088225167751313,-19.938592933654785,20.3305782623291,-3.9209033007621765,0.0035355582002084703,0.043720575992017986
400000,0,15.408195092551667,0.0003981590270996094,0.0009641647338867188,0.0659787654876709,399501.5,0.0,-11.208132952995843,50.0,0.0,2.997458413218834,400000,-10.519490669033143,50.0,7990.5,13.981311383247375,-19.88027121734619,20.251256399154663,-4.1348320336341855,-0.0053888667770661414,0.039434307027608154
405000,0,15.477267774027101,0.0003809928894042969,0.0008718967437744141,0.05762004852294922,404501.5,0.0,-11.542160513525392,50.0,0.0,2.5081816911691526,405000,-10.889687648877313,50.0,8090.5,14.03321660900116,-19.84682737159729,20.223709701538088,-3.779157119035721,0.009324766160687432,0.04176096422225237
410000,0,15.4182508745345,0.000392913818359375,0.0009629726409912109,0.056864023208618164,409501.5,0.0,-11.704404335286872,50.0,0.0,3.6418473385562806,410000,-14.31602008337517,50.0,8190.5,13.359537119865417,-19.78992402458191,20.155463399887086,-4.008067257881165,-0.00029855500941630453,0.03909640888124705
415000,0,15.448328590817981,0.00040030479431152344,0.0008666515350341797,0.0639801025390625,414501.5,0.0,-13.208477762099037,50.0,0.0,2.388531235881069,415000,-12.272786297564299,50.0,8290.5,13.721063070774079,-19.758329261779785,20.15017554092407,-4.05754638338089,-0.0022518427679897287,0.03970463616773486
420000,0,15.462331662609524,0.00039076805114746094,0.001470327377319336,0.05883979797363281,419501.5,0.0,-14.15797121419725,50.0,0.0,3.5056238579240846,420000,-13.546918122894194,50.0,8390.5,13.352111503124236,-19.854850009918213,20.245536657333375,-4.052203738451004,-0.002098469100135844,0.03862278563529253
425000,0,15.542164143224335,0.0004029273986816406,0.0009291172027587891,0.06257390975952148,424501.5,0.0,-15.623365937469634,50.0,0.0,2.7348560549878966,425000,-17.386788065178045,50.0,8490.5,13.25264863538742,-19.83737760734558,20.26316271018982,-3.790218334913254,0.01609813843178563,0.07821051778644324
430000,0,15.485696693069047,0.00048613548278808594,0.0008556842803955078,0.05585622787475586,429501.5,0.0,-18.21726070782641,50.0,0.0,3.078817308133551,430000,-15.243637409042242,50.0,8590.5,13.654695210933685,-20.198180778503417,20.61203896713257,-3.9078634214401244,0.00645776944688987,0.06937219991534949
435000,0,15.366236418563263,0.0003178119659423828,0.0008580684661865234,0.060018062591552734,434501.5,0.0,-16.151490755918882,50.0,0.0,2.362743898918606,435000,-15.317413074218468,50.0,8690.5,13.762502020359038,-20.309235200881957,20.678969379425048,-4.206102769374848,-0.01491398837172892,0.0720826999694109
440000,0,15.372747351577381,0.00040411949157714844,0.0008437633514404297,0.06440019607543945,439501.5,0.0,-15.086781950456665,50.0,0.0,3.3597755214480634,440000,-16.43018940394943,50.0,8790.5,13.744139227390288,-20.314698108673095,20.715177822113038,-4.116997297525406,-0.007221155011910014,0.062480537787079814
445000,0,15.381566037100377,0.00039315223693847656,0.0008788108825683594,0.06427502632141113,444501.5,0.0,-14.894192129372598,50.0,0.0,2.117473028643385,445000,-14.446530003290158,50.0,8890.5,14.498204363822937,-20.725147813796998,21.211892456054688,-3.5692039573192598,0.030602264409186317,0.07508783223479987
450000,0,15.38384661481461,0.0004050731658935547,0.0008740425109863281,0.059370994567871094,449501.5,0.0,-13.12473172178439,50.0,0.0,3.2512373055045414,450000,-13.611104986923781,50.0,8990.5,15.05390983581543,-21.134345623016358,21.605452405929565,-3.9128139023780824,0.005455125938286074,0.06326763851568103
455000,0,15.284418290345918,0.0003902912139892578,0.0009038448333740234,0.06798481941223145,454501.5,0.0,-14.687849706389546,50.0,0.0,2.8047111596935106,455000,-13.502646091526387,50.0,9090.5,15.432032095909118,-21.368734382629395,21.857560564041137,-4.108133834838867,-0.0070532520924462,0.06667525143921375
460000,0,15.373200929355164,0.0003669261932373047,0.0009739398956298828,0.06475496292114258,459501.5,0.0,-14.213577759219657,50.0,0.0,2.8635110056944657,460000,-15.276837395619435,50.0,9190.5,15.594324151992797,-21.510636611938477,21.969832036972047,-3.9928050158023836,0.0005134097867412492,0.06337384727597237
465000,0,15.40037328548191,0.00040411949157714844,0.0008590221405029297,0.06475210189819336,464501.5,0.0,-12.711525686338751,50.0,0.0,3.1122197773466898,465000,-15.573171065410994,50.0,9290.5,15.646529363632203,-21.471258178710936,21.924775371551515,-4.166895833969116,-0.01013961977523286,0.06175955969840288
470000,0,15.533044371506397,0.0004379749298095703,0.0009250640869140625,0.06352090835571289,469501.5,0.0,-15.86309587229465,50.0,0.0,1.854311392696764,470000,-13.806004353181672,50.0,9390.5,15.48899458837509,-21.327741666793823,21.76466683578491,-3.976874443054199,0.0014337157084373757,0.06116668053343892
475000,0,15.357424725595727,0.00039505958557128906,0.0009629726409912109,0.06368803977966309,474501.5,0.0,-13.626796617423434,50.0,0.0,3.183524136185292,475000,-14.305585657383379,50.0,9490.5,15.218009877681732,-21.113109910964965,21.541634813308715,-3.936330194234848,0.004172636945266276,0.06662841502204538
480000,0,15.392477846411241,0.00038909912109375,0.000843048095703125,0.06167197227478027,479501.5,0.0,-14.895495033742549,50.0,0.0,3.531564401720312,480000,-15.251660974055415,50.0,9590.5,14.627201805114746,-20.97316213989258,21.388162857055665,-4.002842269182205,-0.00011280309839639812,0.059148178279399874
485000,0,15.487484628520926,0.0003757476806640625,0.0009021759033203125,0.06418895721435547,484501.5,0.0,-13.899088808685274,50.0,0.0,2.779790074223319,485000,-14.473855668315958,50.0,9690.5,14.699686992645264,-20.846913389205934,21.25326516532898,-4.014048608064652,-0.0008080731870722957,0.059669955912977454
490000,0,15.476364597711191,0.0003879070281982422,0.0009360313415527344,0.06735110282897949,489501.5,0.0,-15.144860121868309,50.0,0.0,3.2859732236287154,490000,-15.980596974817411,50.0,9790.5,14.30367881345749,-20.568979051589967,20.958238548278807,-4.098708619117737,-0.0056548086163238625,0.05931071259453893
495000,0,15.455550659155042,0.0003731250762939453,0.0008890628814697266,0.06356596946716309,494501.5,0.0,-13.931811028608,50.0,0.0,3.20009269145403,495000,-16.601216545731347,50.0,9890.5,13.801359001159668,-20.362031311035157,20.757648725509643,-4.021943186759949,-0.0012749795886920765,0.05781285687163472
500000,0,15.324392095120295,0.0003840923309326172,0.0009279251098632812,0.06335115432739258,499501.5,0.0,-15.216289451659728,50.0,0.0,3.5315642963677005,500000,-15.880986493807631,50.0,9990.5,14.15896776819229,-20.459394596099852,20.87582575416565,-4.160780441761017,-0.00879231004731264,0.05358757668361068
505000,0,15.286503064271614,0.0003941059112548828,0.0008919239044189453,0.06943702697753906,504501.5,0.0,-16.101150059381133,50.0,0.0,3.1366396004578534,505000,-14.174648983930684,50.0,10090.5,13.562969913005828,-20.236018230438233,20.624038089752197,-4.058195942640305,-0.003075635686778696,0.05213177000358701
510000,0,15.408921633311072,0.0004229545593261719,0.0008599758148193359,0.06479096412658691,509501.5,0.0,-15.932700791842738,50.0,0.0,2.538550901455789,510000,-13.8544163055922,50.0,10190.5,13.366270169734955,-19.94801240539551,20.323756254196166,-4.005241840600967,-0.0002198970808822196,0.048690861444920304
515000,0,15.36099612084586,0.0003998279571533203,0.0009160041809082031,0.056702375411987305,514501.5,0.0,-16.281781705749445,50.0,0.0,2.7130208922802854,515000,-14.697328664676695,50.0,10290.5,13.083847475528717,-19.71131932449341,20.077178342819213,-3.944387344121933,0.002848786464543082,0.052227271735668185
520000,0,15.550163138640185,0.0003910064697265625,0.0009369850158691406,0.06778502464294434,519501.5,0.0,-14.90263815447219,50.0,0.0,2.508590243578768,520000,-15.317357771249585,50.0,10390.5,12.799415700912476,-19.505740097045898,19.880843685150147,-3.820248454809189,0.008613743629131932,0.047384466100484135
525000,0,15.217091762538553,0.0004258155822753906,0.0008502006530761719,0.05965399742126465,524501.5,0.0,-15.341969441584009,50.0,0.0,2.351110992553188,525000,-15.549244690715554,50.0,10490.5,12.912413908958435,-19.363727392196655,19.73070154953003,-4.102669569253922,-0.004966588057402987,0.04918056046590209
530000,0,15.466927103859069,0.0004551410675048828,0.0009658336639404297,0.0669713020324707,529501.5,0.0,-13.9830589183157,50.0,0.0,2.6630814219603853,530000,-14.791309321924055,50.0,10590.5,12.834337780475616,-19.207891946792603,19.5691065158844,-4.1779015552997585,-0.007682305464346427,0.04263936884701252
535000,0,9.929053814295898,0.00044989585876464844,0.0011851787567138672,0.0792078971862793,534501.5,0.0,-16.047690198815793,50.0,0.0,3.009193582687786,535000,-14.022349295319383,50.0,10690.5,13.025710964202881,-19.110009519577027,19.464009824752807,-4.0562848620414735,-0.002569775710842805,0.04792883333563805
540000,0,9.883100909811345,0.0006079673767089844,0.0016493797302246094,0.10667967796325684,539501.5,0.0,-16.24243253073951,50.0,0.0,2.546615640756395,540000,-15.207950091310227,50.0,10790.5,13.098580245494842,-18.98980555534363,19.337226615905763,-4.1050322005748745,-0.005192523965670262,0.047431467067450286
545000,0,10.058526452676292,0.0007090568542480469,0.0015418529510498047,0.09363508224487305,544501.5,0.0,-15.328795081563737,50.0,0.0,2.8471062908439015,545000,-15.163228670228545,50.0,10890.5,12.556469032287598,-18.82240116882324,19.141441223144533,-4.099050827980042,-0.004996708218473941,0.050100986160337924
550000,0,9.948141846814856,0.0005090236663818359,0.0017387866973876953,0.07977032661437988,549501.5,0.0,-42.00559440630943,50.0,0.0,4.641860809028251,550000,-39.695810185259504,50.0,10990.5,2.4762898465721383e+26,6883404152056.512,-7104080752312.128,551346488329846.8,7104080752310.016,0.02004797432385385
555000,0,10.026422105867582,0.0005397796630859375,0.0017399787902832031,0.10817503929138184,554501.5,0.0,-39.64144463332549,50.0,0.0,6.55809821790822,555000,-38.699561464595995,50.0,11090.5,3.9620727005251234e+31,4364579968361955.5,-4505760367703491.0,4.849443383674787e+18,4505760367703491.0,0.0009553983538644388
560000,0,10.178546800045018,0.0006902217864990234,0.0016949176788330078,0.10403299331665039,559501.5,0.0,-37.96225924084873,50.0,0.0,7.203537403822805,560000,-42.93003676465227,50.0,11190.5,4.05403071550474e+32,1.4048082248410858e+16,-1.449965894317061e+16,9.898718955976634e+19,1.449965894317061e+16,0.00014837746528792195
565000,0,10.030275677785554,0.0006809234619140625,0.0015418529510498047,0.10832810401916504,564501.5,0.0,-41.854719678847566,50.0,0.0,5.962818373622205,565000,-40.16287114771384,50.0,11290.5,7.906428849939638e+32,1.963087824167528e+16,-2.0260779343602516e+16,6.978026188243274e+20,2.0260779343602516e+16,2.9278022700964355e-05
570000,0,10.024454933599277,0.0006277561187744141,0.0014159679412841797,0.09103512763977051,569501.5,0.0,-39.8928459755834,50.0,0.0,4.7710623925101245,570000,-40.83573779483915,50.0,11390.5,7.443731009743989e+32,1.90485701082942e+16,-1.9657512250853296e+16,3.0528396185481175e+21,1.9657512250853296e+16,6.4787541869009146e-06
575000,0,10.060790402457906,0.0006458759307861328,0.0017511844635009766,0.10785984992980957,574501.5,0.0,-39.439828697698225,50.0,0.0,7.313794524131046,575000,-36.912963206788774,50.0,11490.5,4.601615368053597e+32,1.4972706320103244e+16,-1.5456116565136638e+16,1.0109466739837671e+22,1.5456116565136638e+16,1.5363524083795709e-06
580000,0,10.025081274773903,0.0005979537963867188,0.0016889572143554688,0.11710023880004883,579501.5,0.0,-42.35810245868301,50.0,0.0,6.8608208043990455,580000,-41.437410052315826,50.0,11590.5,2.17592678402459e+32,1.0295757539173728e+16,-1.0625926442388554e+16,2.796611267630926e+22,1.0625926442388554e+16,3.8150153079641316e-07
585000,0,10.084600200958963,0.0006048679351806641,0.001692056655883789,0.09971904754638672,584501.5,0.0,-41.51034911176136,50.0,0.0,4.785166479765573,585000,-38.96207633224134,50.0,11690.5,8.45672485143208e+31,6417547283193135.0,-6623719266707309.0,6.7827131458946775e+22,6623719266707309.0,9.799415528988221e-08
590000,0,9.889318862053434,0.000553131103515625,0.0016298294067382812,0.1010282039642334,589501.5,0.0,-42.05614449185382,50.0,0.0,6.164417204926416,590000,-40.06553559652277,50.0,11790.5,2.8332705133968046e+31,3713850097457430.5,-3833887121198809.0,1.4884668149968715e+23,3833887121198809.0,2.583505883713144e-08
595000,0,10.108329336406248,0.0004169940948486328,0.0011532306671142578,0.07647895812988281,594501.5,0.0,-40.80222288379441,50.0,0.0,4.533606922981765,595000,-38.62857317549914,50.0,11890.5,8.45291071549596e+30,2028411787296112.8,-2093829937554260.0,3.0183714238239805e+23,2093829937554260.0,6.955453202728279e-09
600000,0,9.996697086614935,0.0005593299865722656,0.0016360282897949219,0.07897400856018066,599501.5,0.0,-43.437965555556374,50.0,0.0,6.250468488570637,600000,-39.75302652982701,50.0,11990.5,2.2940279575318902e+30,1056636029915627.5,-1090697386168156.1,5.738451872722619e+23,1090697386168156.1,1.9052199295988005e-09
605000,0,10.138852838688384,0.0007207393646240234,0.0015113353729248047,0.10954809188842773,604501.5,0.0,-40.36156581920688,50.0,0.0,6.680152942110576,605000,-38.585850800952464,50.0,12090.5,5.755719173431773e+29,529188980000817.1,-546319892530331.6,1.0351173903171455e+24,546319892530331.6,5.28928656484684e-10
610000,0,9.894325832353381,0.0007588863372802734,0.0017588138580322266,0.08821821212768555,609501.5,0.0,-39.007938917407,50.0,0.0,5.887701321546587,610000,-40.61332962246327,50.0,12190.5,1.3537857120163849e+29,256635699762036.75,-264928452698701.8,1.7857489694463654e+24,264928452698701.8,1.4864588154805957e-10
615000,0,9.987353127019828,0.000492095947265625,0.001194000244140625,0.08099603652954102,614501.5,0.0,-39.33444507602013,50.0,0.0,6.573400326671967,615000,-39.76811998509667,50.0,12290.5,3.0138901926722416e+28,121092681261645.83,-124988008502919.17,2.965902324635853e+24,124988008502919.17,4.2217048971254776e-11
620000,0,9.89843983386477,0.0007441043853759766,0.0019397735595703125,0.10986804962158203,619501.5,0.0,-41.86357672081955,50.0,0.0,6.767819608563412,620000,-40.024453322045765,50.0,12390.5,6.397192294661936e+27,55780910687059.97,-57584330645438.46,4.766887650404149e+24,57584330645438.46,1.2100088628980155e-11
625000,0,9.75455758319881,0.0005388259887695312,0.0017600059509277344,0.07901620864868164,624501.5,0.0,-40.344121078645,50.0,0.0,6.145060674088575,625000,-39.67629524419549,50.0,12490.5,1.3021484643989453e+27,25164920395923.457,-25979275679105.023,7.438977067358562e+24,25979275679105.023,3.4977418383527746e-12
630000,0,9.829598887690652,0.0005991458892822266,0.0018208026885986328,0.11364102363586426,629501.5,0.0,-43.17946960068245,50.0,0.0,4.259030457441693,630000,-39.81653519822476,50.0,12590.5,2.5512954961700027e+26,11138798656159.744,-11499202389475.328,1.1320598219806738e+25,11499194902642.688,1.0172236039607264e-12
635000,0,9.883928367695471,0.0007169246673583984,0.0018548965454101562,0.10457897186279297,634501.5,0.0,-41.26803246001977,50.0,0.0,5.016772347475347,635000,-41.293848250943554,50.0,12690.5,4.8280670080191945e+25,4844905628696.576,-5002680528273.408,1.6848702764884223e+25,5002636915376.128,2.973127578278969e-13
640000,0,9.826725725834075,0.0004780292510986328,0.0011229515075683594,0.07863402366638184,639501.5,0.0,-41.79015335634345,50.0,0.0,5.473834358994994,640000,-40.090139926683214,50.0,12790.5,8.920508358420863e+24,2082964078985.216,-2150041085673.472,2.457954772070547e+25,2149861464080.384,8.757544971323139e-14
645000,0,9.943227857287386,0.0004417896270751953,0.0016739368438720703,0.07986116409301758,644501.5,0.0,-41.93421674645224,50.0,0.0,5.933319155105798,645000,-38.38168160313537,50.0,12890.5,1.5966630452097666e+24,881565176496.128,-909964497846.272,3.5214713582867734e+25,909329732468.736,2.5853059429180703e-14
650000,0,9.826569587820652,0.0004928112030029297,0.0011839866638183594,0.08901405334472656,649501.5,0.0,-41.66059105799217,50.0,0.0,5.072231692838608,650000,-42.28318362164294,50.0,12990.5,2.80134820933845e+23,370229599469.568,-382354705055.744,4.964268562717679e+25,380303519711.232,7.669312502826294e-15
655000,0,9.906095065002502,0.0005068778991699219,0.0012421607971191406,0.08494997024536133,654501.5,0.0,-41.797770962159845,50.0,0.0,6.55849994409657,655000,-38.698145600920114,50.0,13090.5,4.95156324681346e+22,158538313646.08,-164180872708.096,6.8875870146809165e+25,157960064991.232,2.295790397108675e-15
660000,0,9.891016351886309,0.00045800209045410156,0.0011777877807617188,0.07863330841064453,659501.5,0.0,-38.2064688800925,50.0,0.0,5.758871936418571,660000,-40.73349394058095,50.0,13190.5,9.937194322937856e+21,78582268485.632,-82378669850.624,9.435075493852846e+25,65066197745.664,6.903111258042498e-16
665000,0,10.122483355694902,0.000492095947265625,0.0014529228210449219,0.0852060317993164,664501.5,0.0,-41.441587591306835,50.0,0.0,4.98637905036424,665000,-40.75935120281574,50.0,13290.5,3.571366737688766e+21,60391074467.84,-64031090864.128,1.2763173565016084e+26,26468692772.864,2.0757916115646779e-16
670000,0,9.996307687825611,0.0008089542388916016,0.0017490386962890625,0.11302876472473145,669501.5,0.0,-43.23684256797438,50.0,0.0,5.675514293280961,670000,-38.92040558252383,50.0,13390.5,2.568133440767586e+21,61696425476.096,-64633539330.048,1.7050126449776277e+26,10633111065.6,6.24198376605562e-17
675000,0,9.908351041238829,0.0007750988006591797,0.0017359256744384766,0.10581684112548828,674501.5,0.0,-42.01771720385604,50.0,0.0,7.190733223373551,675000,-41.11590243705352,50.0,13490.5,2.249500857383552e+21,64739572277.248,-67209944719.36,2.255075088620235e+26,4229321526.272,1.8770742306780822e-17
680000,0,10.046010819804167,0.0006418228149414062,0.0016360282897949219,0.08353781700134277,679501.5,0.0,-41.75687203818569,50.0,0.0,6.015715465476982,680000,-39.59553147200311,50.0,13590.5,2.1211533884555316e+21,66921323749.376,-69384949497.856,2.9544335651502543e+26,1674065465.984,5.670933307293753e-18
685000,0,9.850201668026482,0.0005731582641601562,0.0012309551239013672,0.10051894187927246,684501.5,0.0,-39.47933376152745,50.0,0.0,6.852397984644926,685000,-39.90634506344793,50.0,13690.5,2.0987444891752273e+21,68697842741.248,-71010222972.928,3.8366939103837804e+26,661726445.312,1.7260782224133323e-18
690000,0,9.864698647796482,0.0006039142608642578,0.00144195556640625,0.10802912712097168,689501.5,0.0,-39.4614625379223,50.0,0.0,5.542034740313765,690000,-41.041365202206165,50.0,13790.5,2.1018500355258484e+21,69801101979.648,-71972399415.296,4.941295666765164e+26,260837844.944,5.282680623477618e-19
695000,0,9.815395963350358,0.0005960464477539062,0.0018558502197265625,0.10870194435119629,694501.5,0.0,-39.82709648900493,50.0,0.0,6.337638310890397,695000,-39.6569394565372,50.0,13890.5,2.0939208892318212e+21,70459766685.696,-72693320859.648,6.316475063963738e+26,102196361.336,1.619110694147229e-19
700000,0,9.842913996333206,0.0003662109375,0.00090789794921875,0.08163785934448242,699501.5,0.0,-40.08338909423834,50.0,0.0,6.359905166273293,700000,-39.59339143260489,50.0,13990.5,2.0983396800264963e+21,71181037174.784,-73401264988.16,8.009999708533244e+26,39722105.408,4.9624818090109494e-20
705000,0,9.756483062599425,0.0006279945373535156,0.0014641284942626953,0.09944486618041992,704501.5,0.0,-37.76868866535723,50.0,0.0,6.865070915894106,705000,-42.24319235170647,50.0,14090.5,2.0982496755879434e+21,71784815067.136,-74046061699.072,1.0067595235099877e+27,15302736.138,1.5209723590384205e-20
710000,0,9.809679099140814,0.0007908344268798828,0.0017039775848388672,0.12151908874511719,709501.5,0.0,-42.49887802525742,50.0,0.0,4.720773705302077,710000,-42.39005278777653,50.0,14190.5,2.0814545741824889e+21,72111444779.008,-74523989745.664,1.2560240139697808e+27,5851558.4095,4.66169339860058e-21
715000,0,10.01825444936618,0.0008130073547363281,0.0018110275268554688,0.11070680618286133,714501.5,0.0,-42.24942001285807,50.0,0.0,6.6002083794693736,715000,-39.45390601384172,50.0,14290.5,2.094925729988143e+21,72542823571.456,-74772879040.512,1.557890375194376e+27,2224550.045625,1.4287824061503303e-21
720000,0,10.324205007496309,0.0005860328674316406,0.0014748573303222656,0.0948801040649414,719501.5,0.0,-40.614310358965405,50.0,0.0,7.043578097455502,720000,-41.43775042895043,50.0,14390.5,2.090790577446112e+21,73030129713.152,-75316540563.456,1.9212361406957514e+27,840900.9893125,4.379376168891094e-22
725000,0,14.249910183489188,0.0003609657287597656,0.0008640289306640625,0.06588912010192871,724501.5,0.0,-42.4206881092884,50.0,0.0,6.688959027206975,725000,-39.16109639000119,50.0,14490.5,2.0869446784417732e+21,73285126520.832,-75544369725.44,2.3570422124330937e+27,316922.0450625,1.345342901532136e-22
730000,0,9.738373910986416,0.0005419254302978516,0.0017859935760498047,0.09824419021606445,729501.5,0.0,-40.11684496600731,50.0,0.0,5.448004234895174,730000,-41.82313131831932,50.0,14590.5,2.0891824726235671e+21,73924380336.128,-76267199348.736,2.8770718162729977e+27,119312.7288515625,4.149280230256675e-23
735000,0,15.251187653789389,0.0003972053527832031,0.0008728504180908203,0.06814098358154297,734501.5,0.0,-39.206648026136314,50.0,0.0,5.66465340696267,735000,-39.74432000192965,50.0,14690.5,2.0914078230781158e+21,74423580917.76,-76747972845.568,3.494664236610038e+27,44883.61316796875,1.2850101135176545e-23
740000,0,15.20245327629591,0.0003592967987060547,0.0008687973022460938,0.06321001052856445,739501.5,0.0,-38.90527619360868,50.0,0.0,5.774511599325869,740000,-41.203457519822095,50.0,14790.5,2.0810536087153025e+21,74442126442.496,-76745826533.376,4.224855359936333e+27,16867.83880859375,3.994508585479576e-24
745000,0,15.203044764295562,0.00039887428283691406,0.0009610652923583984,0.07603096961975098,744501.5,0.0,-43.316601185306524,50.0,0.0,5.870360401325848,745000,-41.30292577353153,50.0,14890.5,2.0698502182654876e+21,74658659622.912,-76975601000.448,5.085683235184367e+27,6331.1061137695315,1.2454753710058164e-24
750000,0,15.166325742563743,0.0004029273986816406,0.0009222030639648438,0.06815004348754883,749501.5,0.0,-38.502676413528114,50.0,0.0,5.376253124339212,750000,-41.0847965125153,50.0,14990.5,2.087628183986982e+21,75549718454.272,-77914000572.416,6.097365577976081e+27,2370.8986479492187,3.890166823215837e-25
755000,0,15.278232993300845,0.00040411949157714844,0.0008969306945800781,0.06514883041381836,754501.5,0.0,-39.6946705504845,50.0,0.0,6.627919105628129,755000,-38.280033370485135,50.0,15090.5,2.0686152082430978e+21,75794789064.704,-78302090436.608,7.278996044942451e+27,884.1958276367187,1.215265852611627e-25
760000,0,15.208580719253971,0.0004012584686279297,0.0009150505065917969,0.0694267749786377,759501.5,0.0,-38.865689482693284,50.0,0.0,6.242856724547994,760000,-40.094261689638046,50.0,15190.5,2.0803365187017722e+21,76518841876.48,-78867144892.416,8.65857551146487e+27,328.5772910766602,3.796445684263601e-26
765000,0,15.259224945401929,0.0004031658172607422,0.0008959770202636719,0.06438088417053223,764501.5,0.0,-40.50994292711605,50.0,0.0,6.620911041833087,765000,-36.08906467928844,50.0,15290.5,2.076568242755448e+21,77108470751.232,-79550440964.096,1.025964089020373e+28,121.62750466156005,1.1859956282502862e-26
770000,0,10.308285470395411,0.0006868839263916016,0.004205942153930664,0.14797592163085938,769501.5,0.0,-39.569161865320346,50.0,0.0,4.672321540421384,770000,-41.5841631902583,50.0,15390.5,2.078068202640141e+21,77386187177.984,-79784885567.488,1.211345403772062e+28,44.862125377655026,3.705006645060828e-27
775000,0,15.427883270207738,0.0004119873046875,0.0008990764617919922,0.0642859935760498,774501.5,0.0,-43.34225077634592,50.0,0.0,6.9047760256737964,775000,-40.347913183834564,50.0,15490.5,2.0708795387597963e+21,77621572337.664,-80057733840.896,1.4255666894825968e+28,16.493503594398497,1.1574304033910408e-27
780000,0,15.199977009617292,0.0003807544708251953,0.0009763240814208984,0.05649089813232422,779501.5,0.0,-42.16958580720812,50.0,0.0,5.010103105985273,780000,-39.30510114542207,50.0,15590.5,2.0796800077327295e+21,78414249967.616,-80847591768.064,1.672306151244353e+28,6.044398965835572,3.6157698775234753e-28
785000,0,15.116059932873412,0.0004527568817138672,0.0008740425109863281,0.06285715103149414,784501.5,0.0,-40.58843843748368,50.0,0.0,7.928136877748825,785000,-39.65590424078711,50.0,15690.5,2.0751383038525993e+21,78806563086.336,-81241398206.464,1.9544122137943146e+28,2.2133146170377733,1.1328822138979872e-28
790000,0,15.366201684203414,0.0004279613494873047,0.0010540485382080078,0.06134915351867676,789501.5,0.0,-38.68644213166128,50.0,0.0,6.878384684816443,790000,-40.48246011655184,50.0,15790.5,2.0687409307302953e+21,79016023146.496,-81448434860.032,2.27838858506717e+28,0.8117760405540466,3.5642228636648485e-29
795000,0,15.222342822700694,0.0004379749298095703,0.0009579658508300781,0.06516313552856445,794501.5,0.0,-38.36668440760326,50.0,0.0,5.655367545173195,795000,-40.02938920378239,50.0,15890.5,2.0672682537928827e+21,79479413800.96,-81940115988.48,2.6476803728470483e+28,0.2976498677432537,1.1245712820074227e-29
800000,0,15.26616283657825,0.0004291534423828125,0.0023851394653320312,0.06063675880432129,799501.5,0.0,-39.93809251066179,50.0,0.0,4.569202554620482,800000,-42.19329735526993,50.0,15990.5,2.0597950630433923e+21,79936448053.248,-82421894873.088,3.06636339025455e+28,0.10908522124588489,3.558631309301286e-30
805000,0,15.182473351812837,0.0003960132598876953,0.000988006591796875,0.07273602485656738,804501.5,0.0,-40.31038282516788,50.0,0.0,7.134778940075576,805000,-39.640112932513325,50.0,16090.5,2.054406569280376e+21,80146265079.808,-82608136904.704,3.538065525685235e+28,0.03994854146242142,1.1294563427122763e-30
810000,0,15.375016860797865,0.0006198883056640625,0.0010519027709960938,0.06386208534240723,809501.5,0.0,-39.313367556644565,50.0,0.0,4.168969122144341,810000,-41.4902776516789,50.0,16190.5,2.0506491225208308e+21,80644061339.648,-83266033811.456,4.0698283210523585e+28,0.014616797839291394,3.592544755644162e-31
815000,0,15.334036193533493,0.0004169940948486328,0.0009279251098632812,0.06419992446899414,814501.5,0.0,-41.99910083095068,50.0,0.0,6.509621457841931,815000,-38.81665324592166,50.0,16290.5,2.052069829466656e+21,81237588328.448,-83782103719.936,4.6599916709201665e+28,0.0053285086099058385,1.1437746796043317e-31
820000,0,15.271127611115752,0.0003991127014160156,0.0008966922760009766,0.06910514831542969,819501.5,0.0,-40.829430400010686,50.0,0.0,5.527303830234586,820000,-39.76799470264747,50.0,16390.5,2.0528983651343527e+21,81679379890.176,-84284354330.624,5.296904158620639e+28,0.0019286224419483916,3.6419156388080944e-32
825000,0,15.285311623631854,0.0004010200500488281,0.0009191036224365234,0.06909489631652832,824501.5,0.0,-41.16518505012168,50.0,0.0,5.220369834406709,825000,-41.8675937288604,50.0,16490.5,2.0566203623723806e+21,82308314546.176,-84859043430.4,5.943038366946408e+28,0.0006890547074144706,1.1596295911409424e-32
830000,0,15.394263982251854,0.00040078163146972656,0.0008649826049804688,0.06246304512023926,829501.5,0.0,-39.54488157777646,50.0,0.0,6.181632871152391,830000,-40.20186611923279,50.0,16590.5,2.0517154986328735e+21,82704668123.136,-85265416495.104,6.534386186914525e+28,0.00024125397262105252,3.692399666104141e-33
835000,0,15.348069742297179,0.0003681182861328125,0.0009558200836181641,0.06508111953735352,834501.5,0.0,-38.75894107087461,50.0,0.0,7.384092047805343,835000,-40.585699788561826,50.0,16690.5,2.0554515058656548e+21,83536366682.112,-86152224751.616,7.020947650356947e+28,8.254531687271083e-05,1.175704299990816e-33
840000,0,15.17156832504378,0.0004451274871826172,0.0008528232574462891,0.06566810607910156,839501.5,0.0,-41.87378639594351,50.0,0.0,4.168074072340847,840000,-41.89130161603985,50.0,16790.5,2.0543494218380668e+21,83924852752.384,-86562341298.176,7.385655889630731e+28,2.7653627503241294e-05,3.7439779299958692e-34
845000,0,15.25879910691636,0.00043320655822753906,0.0009138584136962891,0.0652780532836914,844501.5,0.0,-37.909516382486444,50.0,0.0,4.740026048511043,845000,-41.36123928410832,50.0,16890.5,2.046760227510112e+21,83970750332.928,-86566180659.2,7.626294601809191e+28,9.225710051396163e-06,1.2095560724068222e-34
850000,0,15.315702751146805,0.000408172607421875,0.00102996826171875,0.05856585502624512,849501.5,0.0,-39.16184044207258,50.0,0.0,6.523474353247541,850000,-40.03765702832902,50.0,16990.5,2.0474123735059532e+21,84850221457.408,-87485293436.928,7.749954897597607e+28,3.082371360051184e-06,3.9765290256687484e-35
855000,0,15.22596756579048,0.0006060600280761719,0.0009582042694091797,0.05965375900268555,854501.5,0.0,-40.36901089435045,50.0,0.0,6.509486291890681,855000,-39.38075814064558,50.0,17090.5,2.049335379866068e+21,85394796765.184,-88021565440.0,7.801728119102335e+28,1.0264447124086473e-06,1.31538720420575e-35
860000,0,15.374516963492285,0.0003960132598876953,0.0009210109710693359,0.06827712059020996,859501.5,0.0,-40.2282811112188,50.0,0.0,5.797189496222957,860000,-41.49313023286699,50.0,17190.5,2.042208837794558e+21,85355017977.856,-88020627185.664,7.803362247272304e+28,3.396169285849737e-07,4.351209934921527e-36
865000,0,15.244349464807648,0.00040078163146972656,0.0012171268463134766,0.05761313438415527,864501.5,0.0,-39.631489679362176,50.0,0.0,5.019464774198228,865000,-38.052075827489624,50.0,17290.5,2.033409927770783e+21,85971120250.88,-88693216739.328,7.80367230510518e+28,1.1505246418153092e-07,1.4740162762886456e-36
870000,0,15.332454848078266,0.0003898143768310547,0.0009691715240478516,0.06511187553405762,869501.5,0.0,-39.83547161980216,50.0,0.0,5.480895172441916,870000,-39.672609234177344,50.0,17390.5,2.0396945012035452e+21,86620099149.824,-89310902132.736,7.804854744587902e+28,4.123895138974376e-08,5.282686699535147e-37
875000,0,15.261849058997631,0.000415802001953125,0.0009071826934814453,0.06475496292114258,874501.5,0.0,-39.05997536209493,50.0,0.0,5.399912354284594,875000,-40.84818240666539,50.0,17490.5,2.0256753637207814e+21,87126313254.912,-89988455546.88,7.8044254621129066e+28,1.672172462363619e-08,2.1422433407358855e-37
880000,0,15.233087683276782,0.0004127025604248047,0.0009679794311523438,0.06418013572692871,879501.5,0.0,-40.012064951374605,50.0,0.0,6.84087675358786,880000,-40.589843103181884,50.0,17590.5,2.026238309170603e+21,87715985555.456,-90530059231.232,7.803684915240399e+28,8.13015396516903e-09,1.0417078464503806e-37
885000,0,11.077102797314796,0.0006837844848632812,0.0015070438385009766,0.0882110595703125,884501.5,0.0,-41.206673737115196,50.0,0.0,6.6171851006236135,885000,-40.23999871451088,50.0,17690.5,2.0292696138221043e+21,88346338861.056,-91099273732.096,7.803833280189374e+28,4.7353121916948735e-09,6.067360117697558e-38
890000,0,10.02658214285663,0.0005290508270263672,0.0014500617980957031,0.1100459098815918,889501.5,0.0,-39.970038532071435,50.0,0.0,8.06222721417006,890000,-40.609661689078216,50.0,17790.5,2.024469475099482e+21,88793020186.624,-91634545426.432,7.8042261281902445e+28,3.1588855997632947e-09,4.047377465538556e-38
895000,0,10.306331382710308,0.0005638599395751953,0.0017552375793457031,0.10521388053894043,894501.5,0.0,-39.55131155594592,50.0,0.0,5.312435494998172,895000,-40.400623794316864,50.0,17890.5,2.0320609979291816e+21,89480760999.936,-92221988495.36,7.8042867761262745e+28,2.310328737431533e-09,2.960172062909342e-38
900000,0,10.0628246376761,0.0005707740783691406,0.0012950897216796875,0.11428403854370117,899501.5,0.0,-37.56240897672693,50.0,0.0,5.414011312059824,900000,-38.735235959993176,50.0,17990.5,2.027084671633737e+21,89678476591.104,-92446138130.432,7.8031405836397275e+28,1.8001261081757035e-09,2.3068158853056884e-38
905000,0,9.892093571743402,0.0005590915679931641,0.0017440319061279297,0.09757280349731445,904501.5,0.0,-43.32708141510206,50.0,0.0,5.543132043341921,905000,-38.606888663167794,50.0,18090.5,2.028931227842065e+21,90620899794.944,-93451789639.68,7.803510126289768e+28,1.464397535122508e-09,1.8765158454887556e-38
910000,0,9.964224517380682,0.0004680156707763672,0.0016329288482666016,0.07751083374023438,909501.5,0.0,-38.110910175254304,50.0,0.0,6.48359728956446,910000,-40.10963917702791,50.0,18190.5,2.0242718726289569e+21,90860872318.976,-93740078006.272,7.803396389037502e+28,1.227305602591322e-09,1.5727354662204714e-38
915000,0,9.939713654950797,0.0005309581756591797,0.0012798309326171875,0.09254932403564453,914501.5,0.0,-39.7232292226548,50.0,0.0,6.189889254000433,915000,-40.15186488793516,50.0,18290.5,2.0249629119926549e+21,91830884294.656,-94745394143.232,7.802559825592955e+28,1.0535085270824141e-09,1.3501673576690122e-38
920000,0,9.96127922434381,0.0007419586181640625,0.0017490386962890625,0.10463523864746094,919501.5,0.0,-37.248684404154325,50.0,0.0,5.469421728592694,920000,-40.986000619020615,50.0,18390.5,2.03138770640719e+21,92309952192.512,-95176110612.48,7.802849156014864e+28,7.041194486356873e-10,9.01198656808751e-39
925000,0,9.97509242511377,0.00049591064453125,0.0022652149200439453,0.08075785636901855,924501.5,0.0,-39.459847009285376,50.0,0.0,5.697924570479769,925000,-41.49471934065021,50.0,18490.5,2.013365454464383e+21,92986736721.92,-95952176521.216,7.803311940846635e+28,0.0,0.0
930000,0,10.071786969568457,0.0004658699035644531,0.0016388893127441406,0.10518026351928711,929501.5,0.0,-38.783814848146974,50.0,0.0,5.077444251698677,930000,-41.92737678258048,50.0,18590.5,2.0172375378191678e+21,93407815000.064,-96298333921.28,7.801953122392488e+28,0.0,0.0
935000,0,10.030954803927605,0.0007321834564208984,0.001703023910522461,0.10840702056884766,934501.5,0.0,-39.835750966688146,50.0,0.0,5.379682546502919,935000,-39.57777549162638,50.0,18690.5,2.01614055454037e+21,93782851641.344,-96692177510.4,7.802327658000611e+28,0.0,0.0
940000,0,10.061524642439416,0.0004527568817138672,0.0014262199401855469,0.10472393035888672,939501.5,0.0,-39.318285603952766,50.0,0.0,5.319317111571606,940000,-42.782280046021725,50.0,18790.5,2.0078419263182516e+21,93800985190.4,-96696141987.84,7.802867172787469e+28,0.0,0.0
945000,0,10.029999721361264,0.0004830360412597656,0.0011739730834960938,0.07569694519042969,944501.5,0.0,-42.52293836601787,50.0,0.0,5.996438742827875,945000,-40.37077579514481,50.0,18890.5,2.0040939300810496e+21,94230478569.472,-97149931847.68,7.8019860443704235e+28,0.0,0.0
950000,0,10.050164706043374,0.000659942626953125,0.0016179084777832031,0.10887789726257324,949501.5,0.0,-39.42744279780423,50.0,0.0,5.541210449016893,950000,-43.89456781728616,50.0,18990.5,2.0034277467873825e+21,95458079850.496,-98437355839.488,7.802208870649628e+28,0.0,0.0
955000,0,9.960446996545759,0.0005388259887695312,0.0017290115356445312,0.10972213745117188,954501.5,0.0,-42.646127203176505,50.0,0.0,5.306311177932728,955000,-42.44032789320208,50.0,19090.5,2.0097628372379023e+21,96102762651.648,-99072758390.784,7.8026715917294515e+28,0.0,0.0
960000,0,10.022304319139266,0.0005209445953369141,0.0021059513092041016,0.10053896903991699,959501.5,0.0,-39.18029687823097,50.0,0.0,6.38916461148406,960000,-39.095466941817634,50.0,19190.5,1.9953291597349876e+21,96129452851.2,-99072217677.824,7.802394269813272e+28,0.0,0.0
965000,0,10.19548775994127,0.0004439353942871094,0.0018339157104492188,0.07425308227539062,964501.5,0.0,-39.0405686949785,50.0,0.0,5.025786867040793,965000,-37.746211894003906,50.0,19290.5,1.9988010570267964e+21,97025834303.488,-100086487859.2,7.803316798272799e+28,0.0,0.0
970000,0,10.11611508113185,0.0005712509155273438,0.0014417171478271484,0.10343813896179199,969501.5,0.0,-40.87559080136354,50.0,0.0,4.951252226731401,970000,-38.23655607663244,50.0,19390.5,1.992731140492661e+21,97867546992.64,-100912142336.0,7.80318224435684e+28,0.0,0.0
975000,0,10.178827755107825,0.00044798851013183594,0.0010161399841308594,0.09633469581604004,974501.5,0.0,-38.05972656618587,50.0,0.0,5.2439006608235585,975000,-41.85995891997344,50.0,19490.5,1.9675994268021435e+21,98811263279.104,-102163727294.464,7.803304662735412e+28,0.0,0.0
980000,0,10.111880474721417,0.0006132125854492188,0.002176046371459961,0.1012887954711914,979501.5,0.0,-39.13736109293599,50.0,0.0,6.234196519493003,980000,-39.561503911682976,50.0,19590.5,1.9630781315466747e+21,100317981777.92,-103591973494.784,7.805213216594197e+28,0.0,0.0
985000,0,10.170494478213381,0.0005350112915039062,0.0015711784362792969,0.09918999671936035,984501.5,0.0,-39.59014069848736,50.0,0.0,4.679638227074825,985000,-42.78269512677858,50.0,19690.5,1.9735543679859045e+21,101584370884.608,-104768199712.768,7.808244024791589e+28,0.0,0.0
990000,0,10.321001746522073,0.0005681514739990234,0.001706838607788086,0.10692906379699707,989501.5,0.0,-40.92773745518015,50.0,0.0,5.029052238385605,990000,-39.35038255459546,50.0,19790.5,1.9552711560885893e+21,102449778343.936,-105727139627.008,7.813409744984863e+28,0.0,0.0
995000,0,10.251572989735681,0.0006010532379150391,0.0017590522766113281,0.11664891242980957,994501.5,0.0,-41.426954073268845,50.0,0.0,5.568366304311927,995000,-38.48346301425651,50.0,19890.5,1.9643074376193988e+21,103714110595.072,-106981517443.072,7.812475483805808e+28,0.0,0.0
1000000,0,10.12081285036763,0.0005509853363037109,0.001361846923828125,0.08130407333374023,999501.5,0.0,-39.7060917733716,50.0,0.0,6.307267813021322,1000000,-41.35777689555202,50.0,19990.5,1.9491528431691707e+21,104533278294.016,-107915225178.112,7.812160747996695e+28,0.0,0.0
