rachanatexeira/mscdissertation-few-shot-pref-learning/results/example - 1.csv
time/steps,time/epochs,time/steps_per_second,time/dataset,time/preprocess,time/train_step,train/env_steps,eval/success,eval/reward,eval/length,eval/is_success,eval/reward_std,step,train/reward,train/length,train/num_ep,train/q_loss,train/target_q,train/actor_loss,train/entropy,train/alpha_loss,train/alpha
20000,0,13.4935529314567,0.00039315223693847656,0.0017271041870117188,0.1013028621673584,19501.5,0.05,-1.7401812531415786,50.0,0.05,0.8493387420727408,20000,-1.5089854019788487,50.0,390.5,0.03907127305865288,-0.09174581617116928,0.09301763772964478,-0.44848909974098206,0.35509710013866425,0.0999550111591816
25000,0,7.933903412271886,0.0005888938903808594,0.0018160343170166016,0.11759495735168457,24501.5,0.0,-1.8256834725676971,50.0,0.0,0.7152180471116293,25000,-1.5122420308314863,50.0,490.5,0.03269738853164017,0.9034075071811676,-0.9616422467827797,2.6814255592823026,0.21590661044418813,0.03230365355871618
30000,0,13.906234826903349,0.00045108795166015625,0.0008788108825683594,0.0663762092590332,29501.5,0.0,-1.643297697677215,50.0,0.0,0.6395215789122577,30000,-1.4925335553840222,50.0,590.5,0.010580674169119448,0.5634259796142578,-0.57229549741745,2.4867902958393096,0.0686730879098177,0.01058465702459216
35000,0,15.294563576391308,0.00045800209045410156,0.0010030269622802734,0.06275486946105957,34501.5,0.0,-1.8417797063788524,50.0,0.0,0.6717592730854582,35000,-1.320639987762933,50.0,690.5,0.0014563069788273424,0.05854387830523774,-0.051317528018320444,2.5537334442138673,0.02265305406972766,0.0034555462177377192
40000,0,7.697707513377298,0.0008687973022460938,0.0018761157989501953,0.1526041030883789,39501.5,0.0,-1.7178848000506377,50.0,0.0,0.6922296295860446,40000,-1.7139788275621417,50.0,790.5,0.006426878138212487,-0.36650954699516297,0.377193174302578,-4.476313397392631,-0.0008611518523684936,0.0018078519330592827
45000,0,7.943848313161319,0.0005519390106201172,0.0017092227935791016,0.12453389167785645,44501.5,0.0,-1.5637736996259863,50.0,0.0,0.6924334890424448,45000,-1.1596079576008906,50.0,890.5,0.01605432405602187,-0.7278404456973075,0.748740234375,-3.5302281514108182,0.0008208580139471451,0.0016866745612351224
50000,0,8.207555835077523,0.0006110668182373047,0.0011639595031738281,0.10917997360229492,49501.5,0.0,-1.884537628967743,50.0,0.0,0.6276935035118889,50000,-1.164384894604191,50.0,990.5,0.028471350784413516,-1.0202616770267487,1.0436166301369667,-6.128188584566116,-0.006060601759083511,0.0028595785906072708
55000,0,7.615615737360496,0.0006129741668701172,0.0017158985137939453,0.11684417724609375,54501.5,0.0,-1.779738503035352,50.0,0.0,0.7829448935966502,55000,-1.3991796436971404,50.0,1090.5,0.050648771211504934,-1.2518372547626495,1.2824191685914994,-3.897249718666077,0.0006788943951687543,0.006731088767759502
60000,0,7.370027834563499,0.0006289482116699219,0.0018761157989501953,0.13917899131774902,59501.5,0.05,-1.672537729293697,50.0,0.05,0.7855638943596589,60000,-1.691012007130333,50.0,1190.5,0.06977283345535397,-1.483491863012314,1.5203659428358078,-3.962553508520126,0.00016422699432587252,0.0043578687962144615
65000,0,7.373430128730408,0.0006721019744873047,0.001708984375,0.14852213859558105,64501.5,0.0,-1.4837454342558152,50.0,0.0,0.6409079043688513,65000,-1.6910114330735937,50.0,1290.5,0.08846597351133824,-1.7135917764902115,1.7547407652139664,-3.3958765377998352,0.003310969712671067,0.005452170922886581
70000,0,7.49118307096759,0.0007338523864746094,0.001852273941040039,0.14618182182312012,69501.5,0.0,-1.720651655775502,50.0,0.0,0.630355306016637,70000,-1.684689989849856,50.0,1390.5,0.10862296717613935,-1.8551687979698182,1.8954786015748977,-4.175676203489304,-0.0007653828770853579,0.004353855195455253
75000,0,12.894347802785463,0.00047516822814941406,0.0010571479797363281,0.07004380226135254,74501.5,0.05,-1.4802372352126691,50.0,0.05,0.7954242117052605,75000,-1.8302114319977218,50.0,1490.5,0.1259544206187129,-1.9623891397714615,2.005581482410431,-3.8852259786128998,0.0006128907962702215,0.005423170320224017
80000,0,15.904748187156969,0.0004189014434814453,0.0009510517120361328,0.06631207466125488,79501.5,0.0,-1.4114167554086845,50.0,0.0,0.6326182434175386,80000,-1.7684380116700513,50.0,1590.5,0.13478003500401975,-2.0810991008281707,2.1251046571731567,-3.946527948141098,0.0002793158500935533,0.005087232641410083
85000,0,15.981079955644706,0.00044083595275878906,0.001013040542602539,0.05587506294250488,84501.5,0.0,-1.9431520807048634,50.0,0.0,0.713884125163823,85000,-1.5446071545890727,50.0,1690.5,0.14501927273720502,-2.1585567989349363,2.2031772766113282,-4.052423235654831,-0.0002794547022858751,0.005411863616202026
90000,0,8.116816842568342,0.0006780624389648438,0.001322031021118164,0.1250319480895996,89501.5,0.0,-1.4827817772814211,50.0,0.0,0.7486354793872474,90000,-1.5810398165321078,50.0,1790.5,0.14917032807320357,-2.201311646461487,2.2457667248249056,-4.031449051380157,-0.00016851721984130564,0.005411943536251783
95000,0,7.878680051575128,0.0005412101745605469,0.0022058486938476562,0.0858461856842041,94501.5,0.0,-1.704215335415131,50.0,0.0,0.6788286358829734,95000,-1.6570142437681046,50.0,1890.5,0.2163924207687378,-2.2211238627433776,2.270505010128021,-4.296863914012909,-0.0031742874545161613,0.01134073808323592
100000,0,7.68326276524952,0.0007138252258300781,0.0017893314361572266,0.1335008144378662,99501.5,0.0,-1.6392891396818539,50.0,0.0,0.5284804328026267,100000,-1.7158025445260532,50.0,1990.5,0.26297483913600445,-2.284355256319046,2.328422343492508,-4.0780606501102445,-0.0008450019359443104,0.011093471833504736
105000,0,7.710071641741638,0.0005650520324707031,0.0014581680297851562,0.13031291961669922,104501.5,0.0,-1.6426532170256483,50.0,0.0,0.6423387955321834,105000,-1.5737391965533427,50.0,2090.5,0.26609493954479696,-2.3229832713603975,2.367337561130524,-4.2050671851634975,-0.0019720916706864955,0.009638370088301599
110000,0,7.903520960112698,0.0006320476531982422,0.001360177993774414,0.12166404724121094,109501.5,0.0,-1.5243838400441188,50.0,0.0,0.63580559727462,110000,-1.5799307344627878,50.0,2190.5,0.2782832909673452,-2.348083646774292,2.3940755264759064,-4.00752029132843,-5.671855006949045e-05,0.008371675737202168
115000,0,8.561567013116168,0.0005991458892822266,0.001714944839477539,0.12677979469299316,114501.5,0.0,-1.3941743806194693,50.0,0.0,0.7328581940067866,115000,-1.2966996823188337,50.0,2290.5,0.2824170919805765,-2.3625641944408415,2.410460681438446,-4.038290153265,-0.0002979882680301671,0.007693230729550123
120000,0,7.6431890783952605,0.0008258819580078125,0.0018341541290283203,0.14275097846984863,119501.5,0.0,-1.6254559907311208,50.0,0.0,0.610163259474357,120000,-1.4987491347470845,50.0,2390.5,0.2817043891400099,-2.340142671108246,2.3859594690799715,-3.9340193512439727,0.0005191995653440244,0.007740722809452563
125000,0,7.959791580923398,0.0007722377777099609,0.0015528202056884766,0.13620495796203613,124501.5,0.1,-1.483915125413708,50.0,0.1,0.7209342539440833,125000,-1.6861753952772023,50.0,2490.5,0.2727991597950459,-2.297574070930481,2.3406316578388213,-3.964361257791519,0.0002499747724068584,0.006880812477786094
130000,0,7.445071976158269,0.0005612373352050781,0.0017418861389160156,0.12523508071899414,129501.5,0.05,-1.6963586262482893,50.0,0.05,0.6850914735994704,130000,-1.6962841059767257,50.0,2590.5,0.25567964221537115,-2.263701862335205,2.3045641944408417,-4.0978455791473385,-0.0006417631014010112,0.006554154872428625
135000,0,11.137643074948457,0.0005707740783691406,0.0013298988342285156,0.10956120491027832,134501.5,0.0,-1.4645888859536256,50.0,0.0,0.6671462286879046,135000,-1.5464074650224402,50.0,2690.5,0.24791487863659858,-2.212847046852112,2.2566335010528564,-3.996022752761841,2.9799736221320928e-05,0.006581375969108194
140000,0,12.332822281636398,0.0005710124969482422,0.002084970474243164,0.09411787986755371,139501.5,0.0,-1.6101849858807977,50.0,0.0,0.6945960755989539,140000,-1.5229893254146079,50.0,2790.5,0.23526534177362918,-2.167208329439163,2.2097357292175293,-3.9299741361141205,0.00041088480793405324,0.0059219476585276425
145000,0,12.789632622628105,0.0008020401000976562,0.001260995864868164,0.0850222110748291,144501.5,0.0,-1.6687508582895514,50.0,0.0,0.8784971620182563,145000,-1.6748645256191241,50.0,2890.5,0.23442383520305157,-2.1204287440776826,2.159591839313507,-4.069612536668777,-0.00042879009117314127,0.006181202351115644
150000,0,10.06092573995648,0.0006110668182373047,0.0017101764678955078,0.09599089622497559,149501.5,0.0,-1.427538793351121,50.0,0.0,0.5983791136731418,150000,-1.6911914748486747,50.0,2990.5,0.20806688550114633,-2.0804099168777466,2.1173816187381744,-4.1141174492836,-0.0005837540721768164,0.005313444662839175
155000,0,10.152746955560982,0.0006682872772216797,0.003965854644775391,0.0937049388885498,154501.5,0.0,-1.7129609026775703,50.0,0.0,0.8446642030738866,155000,-1.4068505370635027,50.0,3090.5,0.2044130605533719,-2.041914701461792,2.0811201171875,-4.247541710853577,-0.0015322878788028903,0.006001324072945863
160000,0,10.074064829642534,0.0006783008575439453,0.0017306804656982422,0.11371588706970215,159501.5,0.05,-1.516191370556281,50.0,0.05,0.7990818685289495,160000,-1.5432048578760686,50.0,3190.5,0.1964877326861024,-2.04327296769619,2.0806918795108795,-3.9849296991825103,0.00010246077014016919,0.006317561571951956
165000,0,12.084928043805835,0.0005180835723876953,0.0013909339904785156,0.0968618392944336,164501.5,0.05,-1.470333967883081,50.0,0.05,0.7563914947287919,165000,-1.6189976406925157,50.0,3290.5,0.17928662388026714,-2.053724409818649,2.0923944177627565,-3.800393494129181,0.0011600193215344915,0.0059592431462369855
170000,0,7.720226162082286,0.0009043216705322266,0.0013408660888671875,0.14243316650390625,169501.5,0.0,-1.6713032092856845,50.0,0.0,0.7823540858414496,170000,-1.663803815902964,50.0,3390.5,0.18124031315743924,-2.047936134815216,2.0850220630168916,-3.9303413274288177,0.0004000768648693338,0.00566625509550795
175000,0,8.087989357285993,0.0007939338684082031,0.0018401145935058594,0.12469768524169922,174501.5,0.0,-1.8453173833858572,50.0,0.0,0.5791558641660223,175000,-1.575775111879336,50.0,3490.5,0.1846274517029524,-2.0479848486185075,2.0839372997283934,-4.079564807653427,-0.00044473703566472975,0.005558125182520598
180000,0,15.699984603975611,0.00037598609924316406,0.0008480548858642578,0.059866905212402344,179501.5,0.0,-1.784877865150887,50.0,0.0,0.7168462866410482,180000,-1.5855411489307174,50.0,3590.5,0.17690108229219914,-2.053358107328415,2.090257496595383,-3.977170701742172,0.00011893569868698251,0.00512721302639693
185000,0,15.584823289645213,0.0004639625549316406,0.0009119510650634766,0.06249094009399414,184501.5,0.0,-1.2202193728935435,50.0,0.0,0.5481069131677682,185000,-1.565829949498592,50.0,3690.5,0.17226512802392244,-2.049009966611862,2.0874793117046355,-3.863459931612015,0.000694210659887176,0.005006157101131976
190000,0,15.605528221940038,0.00045013427734375,0.0008821487426757812,0.07862591743469238,189501.5,0.0,-1.5705150243033275,50.0,0.0,0.45336679507396793,190000,-1.636078218257285,50.0,3790.5,0.17152984743565322,-2.0404460883140563,2.0780325593948366,-3.8929192340373993,0.000511672378910589,0.004852404576260597
195000,0,15.53150154364863,0.0004050731658935547,0.001415252685546875,0.06603479385375977,194501.5,0.0,-1.5571149698559243,50.0,0.0,0.8526145952014301,195000,-1.5899811524477143,50.0,3890.5,0.17086850368231535,-2.030242829680443,2.0670047566890717,-4.01508289861679,-6.961570322528133e-05,0.004861132167745382
200000,0,15.58298942092763,0.00043582916259765625,0.0009789466857910156,0.07084107398986816,199501.5,0.0,-1.6076567672016164,50.0,0.0,0.6350041265287312,200000,-1.568821675810583,50.0,3990.5,0.1669566208794713,-2.028397298574448,2.0643108806610106,-4.02933723115921,-0.00013262711346760626,0.004578428835608065
205000,0,15.57522961484547,0.0004630088806152344,0.0009930133819580078,0.06005096435546875,204501.5,0.0,-1.8549724778655687,50.0,0.0,0.7560539597762946,205000,-1.5318500441753329,50.0,4090.5,0.16779745799303056,-2.024879091858864,2.0602351553440093,-4.061834048986435,-0.00029534134000277844,0.0047707290048711005
210000,0,15.445789330416998,0.00045108795166015625,0.0008509159088134766,0.06287908554077148,209501.5,0.0,-1.717569114206308,50.0,0.0,0.7121654279319194,210000,-1.3361492796490997,50.0,4190.5,0.1591223630607128,-2.0299436049461366,2.0666554865837097,-4.025085139751434,-0.0001162537328855251,0.004693062601611018
215000,0,15.499958991278428,0.00043702125549316406,0.0009357929229736328,0.06476020812988281,214501.5,0.0,-1.6105565912222861,50.0,0.0,0.5415342848726139,215000,-1.6859562789423297,50.0,4290.5,0.15765533692389727,-2.029895827651024,2.0665161130428316,-3.9437793543338775,0.0002960570897812431,0.005069225097075105
220000,0,15.498270396077409,0.0004329681396484375,0.0013072490692138672,0.06688785552978516,219501.5,0.0,-1.6920097174112887,50.0,0.0,0.7726817068362473,220000,-1.7497593004517884,50.0,4390.5,0.15479547486454248,-2.0215762037038805,2.0569243454933166,-4.018219485759735,-9.383319445259985e-05,0.005163985230959952
225000,0,15.647745692615429,0.00040602684020996094,0.0008928775787353516,0.05866813659667969,224501.5,0.0,-1.6475342438686578,50.0,0.0,0.7910164243234756,225000,-1.7791355134570026,50.0,4490.5,0.15484243905544282,-2.015316039919853,2.0511743457317353,-4.059650352716446,-0.0003209338663946255,0.005361292125657201
230000,0,15.547197999896012,0.0003483295440673828,0.0009517669677734375,0.06862521171569824,229501.5,0.0,-1.3796523668758855,50.0,0.0,0.6249707731852091,230000,-1.2021901485394721,50.0,4590.5,0.15165257835388182,-2.011680137991905,2.0478140811920165,-3.938507513999939,0.0002972233002110443,0.004838057711720466
235000,0,13.04599869247137,0.0009779930114746094,0.0022902488708496094,0.14192795753479004,234501.5,0.0,-1.7620646648196014,50.0,0.0,0.7136598507567582,235000,-1.5106420038132098,50.0,4690.5,0.15170113746076822,-2.003668304681778,2.0395666761398314,-3.980628247976303,9.825676255786675e-05,0.004983632329385728
240000,0,6.2673600687644235,0.0009801387786865234,0.0012350082397460938,0.16141390800476074,239501.5,0.0,-1.6442916266427257,50.0,0.0,0.6704877732446736,240000,-1.425687065233135,50.0,4790.5,0.14965887743979692,-2.012194525241852,2.0479503915309905,-3.9755081360340117,0.00012181959891677252,0.004946132480632514
245000,0,6.3847132218895695,0.0006992816925048828,0.0024788379669189453,0.13490509986877441,244501.5,0.05,-1.2954237510893563,50.0,0.05,0.5459049236789966,245000,-1.531636296848285,50.0,4890.5,0.1485741233602166,-2.010596370458603,2.046964044570923,-3.967076078891754,0.00016704048927931582,0.00504061278142035
250000,0,6.411188333649534,0.0008111000061035156,0.0012919902801513672,0.19399094581604004,249501.5,0.05,-1.472119029446024,50.0,0.05,0.7117660826810255,250000,-1.7123507830650966,50.0,4990.5,0.14646467231214047,-2.0124534261226654,2.049111399650574,-3.978720309972763,0.00011293257305806036,0.005097148095257581
255000,0,9.390404168650388,0.0003788471221923828,0.002218961715698242,0.05432701110839844,254501.5,0.0,-1.747280398875019,50.0,0.0,0.6196592557307908,255000,-1.6138249177463226,50.0,5090.5,0.14564362582564355,-2.0196318917274474,2.0553062517642973,-3.9634956548213958,0.000188102842628723,0.00506745018158108
260000,0,11.97942024219684,0.0005929470062255859,0.0019440650939941406,0.07420110702514648,259501.5,0.05,-1.6343823642189617,50.0,0.05,0.6637198133488379,260000,-2.06343680321594,50.0,5190.5,0.14778236972913145,-2.019583229660988,2.0562736620903017,-3.995420826435089,2.660372095851926e-05,0.00544660054706037
265000,0,7.578196664207955,0.0005850791931152344,0.00180816650390625,0.11274290084838867,264501.5,0.05,-1.4250282710793751,50.0,0.05,0.6409558938852631,265000,-1.644843477640014,50.0,5290.5,0.14680288859456778,-2.021747675895691,2.05760480761528,-3.971789999961853,0.0001525968192363507,0.0052237797332927586
270000,0,13.463788263871278,0.00046896934509277344,0.0008778572082519531,0.06440496444702148,269501.5,0.1,-1.4578459622870155,50.0,0.1,0.8347008053708229,270000,-1.4487696347603316,50.0,5390.5,0.14668903941661118,-2.0216129606962205,2.0574211463928225,-4.0021952271461485,-9.14911807194585e-06,0.005494495739229024
275000,0,7.654130245072925,0.0007729530334472656,0.002492189407348633,0.1254878044128418,274501.5,0.0,-1.3386741457432483,50.0,0.0,0.5846714607206844,275000,-1.6873135127402463,50.0,5490.5,0.14503004655241966,-2.026198867201805,2.0624887783527375,-4.011774072170257,-6.13972230348736e-05,0.00535658030025661
280000,0,7.75737643992383,0.0006399154663085938,0.0016238689422607422,0.13649511337280273,279501.5,0.0,-1.4411448999735286,50.0,0.0,0.44931113578849746,280000,-1.475642864054136,50.0,5590.5,0.1425392460897565,-2.02083563041687,2.0560196504592896,-4.006337181568146,-3.1571012455970046e-05,0.005243788668420166
285000,0,7.8726240930973,0.0006589889526367188,0.0016429424285888672,0.07418298721313477,284501.5,0.0,-1.2927549222126553,50.0,0.0,0.571421952634811,285000,-1.8327096774465932,50.0,5690.5,0.14609708209335803,-2.0215925372838974,2.056863847017288,-4.089273268699646,-0.0004631983894360019,0.0053488637153059244
290000,0,7.68383111955194,0.0009038448333740234,0.0026082992553710938,0.12767577171325684,289501.5,0.0,-1.6718653902323688,50.0,0.0,0.7182628928002991,290000,-1.6554485057921569,50.0,5790.5,0.14366986916214228,-2.0261886610984803,2.0617968282699586,-4.00011340713501,1.3506978502846324e-06,0.005337741846218705
295000,0,7.762732506183631,0.0006351470947265625,0.002402067184448242,0.13841891288757324,294501.5,0.05,-1.4371600287151973,50.0,0.05,0.8011120666598754,295000,-1.7062721252789352,50.0,5890.5,0.14723333913832903,-2.037384761452675,2.0746977956295014,-4.044657502412796,-0.00023908460269740316,0.005363416942767799
300000,0,7.668200107775561,0.0008778572082519531,0.0018270015716552734,0.13572096824645996,299501.5,0.05,-1.5141666482641936,50.0,0.05,0.6204403099192155,300000,-1.5227473588041844,50.0,5990.5,0.14316352066025137,-2.046018013715744,2.083205092191696,-3.973408000230789,0.00014097185527862165,0.005187987090088427
305000,0,13.333856009732742,0.0005068778991699219,0.0009191036224365234,0.06239891052246094,304501.5,0.0,-1.494857647894849,50.0,0.0,0.7367939839396311,305000,-1.613903591264944,50.0,6090.5,0.14650396792590617,-2.0515282697677613,2.0894561932086946,-4.019323649168014,-0.00010272500621431391,0.0053334609577432275
310000,0,14.89076898420261,0.0004222393035888672,0.0018239021301269531,0.06499695777893066,309501.5,0.0,-1.3266258516518223,50.0,0.0,0.810685916051177,310000,-1.69427893325811,50.0,6190.5,0.1472818657681346,-2.0597701814174654,2.0968703577518464,-3.9935846426486967,3.681746257643681e-05,0.0054300940660759805
315000,0,14.380692221192602,0.0004711151123046875,0.0008320808410644531,0.06543993949890137,314501.5,0.0,-1.5930987236429803,50.0,0.0,0.5822995358787483,315000,-1.6186356226211491,50.0,6290.5,0.15067660622298717,-2.0655157759189606,2.1038822021484376,-4.005375725984574,-2.6768768519104924e-05,0.005457803749945015
320000,0,14.155606507845478,0.00047278404235839844,0.0008614063262939453,0.06281065940856934,319501.5,0.05,-1.852420142787178,50.0,0.05,0.7616251081230767,320000,-1.498699173655599,50.0,6390.5,0.1551323177590966,-2.0716828227043154,2.1092839550971987,-4.007600478649139,-3.917056992213475e-05,0.005272005333565175
325000,0,14.158426583112394,0.00040602684020996094,0.0007970333099365234,0.07356381416320801,324501.5,0.0,-1.7595655071183984,50.0,0.0,0.7687141512989701,325000,-1.4167741954656614,50.0,6490.5,0.1518971151188016,-2.08009708070755,2.11696586561203,-3.993571360588074,3.643818420096068e-05,0.005509004363324493
330000,0,14.282644357553645,0.0004711151123046875,0.0014789104461669922,0.06994295120239258,329501.5,0.05,-1.6703466913422844,50.0,0.05,0.7243230308312554,330000,-1.3685445342145186,50.0,6590.5,0.15283168447762727,-2.0830115938186644,2.1210626714229583,-3.9909999976158144,5.124136849917704e-05,0.005488457598723471
335000,0,14.271894233016246,0.0004391670227050781,0.001317739486694336,0.06694316864013672,334501.5,0.0,-1.745976232556453,50.0,0.0,0.5914156961227974,335000,-1.7305942894731552,50.0,6690.5,0.14777240286767482,-2.083101173400879,2.1198935499191283,-3.9927352318763734,4.116959096427309e-05,0.005303646673914045
340000,0,14.243900469669612,0.0004849433898925781,0.0014209747314453125,0.0782630443572998,339501.5,0.0,-1.5243071390998746,50.0,0.0,0.774681812071595,340000,-1.519193822100267,50.0,6790.5,0.15247375950217246,-2.090971654891968,2.1290687007904054,-4.011944939136505,-6.329726607145858e-05,0.005464266198221594
345000,0,14.251792933508204,0.0005412101745605469,0.0011327266693115234,0.07504415512084961,344501.5,0.0,-1.670561558902157,50.0,0.0,0.6673310366866096,345000,-1.5954381812833514,50.0,6890.5,0.1544917830750346,-2.106668309688568,2.145392558813095,-3.995573431968689,2.613889851636486e-05,0.005380467730108649
350000,0,14.298012568262521,0.00043702125549316406,0.000823974609375,0.0695040225982666,349501.5,0.0,-1.361177098126546,50.0,0.0,0.5847453517086715,350000,-1.5836532363017208,50.0,6990.5,0.15483515671640635,-2.1106491456031797,2.148850749492645,-3.975438744544983,0.0001358378611257649,0.005408678494859487
355000,0,14.24938874332113,0.0004296302795410156,0.0008981227874755859,0.0666511058807373,354501.5,0.0,-1.5450152656354719,50.0,0.0,0.5760056588140695,355000,-1.7795440413752872,50.0,7090.5,0.1579181428477168,-2.1200118877887726,2.1589625160694124,-4.042827590465546,-0.00022905368196734344,0.005419770356733352
360000,0,14.350150727074807,0.0005521774291992188,0.002040863037109375,0.07481908798217773,359501.5,0.05,-1.5548396463557939,50.0,0.05,0.6808687985574935,360000,-1.3396505021695653,50.0,7190.5,0.16119118110090494,-2.1318330352306365,2.169830583572388,-4.017513418674469,-8.702728994467179e-05,0.0051260106419213115
365000,0,14.216766464816999,0.00045680999755859375,0.0010051727294921875,0.06533598899841309,364501.5,0.0,-1.5610655919081438,50.0,0.0,0.7451996492818502,365000,-1.8784536059853874,50.0,7290.5,0.1561683811545372,-2.1389922552108764,2.1767939925193787,-4.013593196630478,-6.874871779291424e-05,0.005172037355601788
370000,0,14.333370876251646,0.0004401206970214844,0.0008389949798583984,0.0683441162109375,369501.5,0.05,-1.5195140724801663,50.0,0.05,0.7327628960887175,370000,-1.5910317651002213,50.0,7390.5,0.1555495150834322,-2.1479510281085967,2.1863064265251158,-4.0324292302131655,-0.0001607933423219947,0.005063562012743205
375000,0,14.320255801731234,0.0004277229309082031,0.0008590221405029297,0.06610584259033203,374501.5,0.0,-1.437401732500868,50.0,0.0,0.6160683417877372,375000,-1.7750278719050416,50.0,7490.5,0.15968834299594165,-2.1497443540096284,2.1893601512908933,-4.011130145072937,-5.462212866405025e-05,0.005130679969210177
380000,0,14.356608483864761,0.0004353523254394531,0.0007967948913574219,0.06738519668579102,379501.5,0.05,-1.5164735496845694,50.0,0.05,0.7350533801833409,380000,-1.3376926024509679,50.0,7590.5,0.1617081017047167,-2.1651968472003937,2.205555371284485,-4.031487305402756,-0.000160099724358588,0.005288388095330447
385000,0,14.406968466383258,0.0004870891571044922,0.0008149147033691406,0.07057309150695801,384501.5,0.0,-1.6765706454165148,50.0,0.0,0.4781197634373004,385000,-1.4263062722492434,50.0,7690.5,0.16288935673236846,-2.1786880848407746,2.2192701799869536,-3.9678140180110932,0.00016706450129277072,0.0052630834998562935
390000,0,14.330796892101633,0.00043082237243652344,0.0013518333435058594,0.06386518478393555,389501.5,0.0,-1.705028461653972,50.0,0.0,0.7979180719195036,390000,-1.4669358442524776,50.0,7790.5,0.16302346651256083,-2.187342194080353,2.2280057418346404,-4.002511548519134,-1.0950726700684754e-05,0.005196888881735503
395000,0,14.389813546372222,0.0003750324249267578,0.0012788772583007812,0.06916594505310059,394501.5,0.0,-1.5457811283965586,50.0,0.0,0.8188745730447625,395000,-1.5536081102645285,50.0,7890.5,0.16167827531695367,-2.1972661271095277,2.23721857213974,-4.007663993120193,-3.803096180126886e-05,0.005312243625055999
400000,0,14.441067772558815,0.0004191398620605469,0.0014090538024902344,0.07102489471435547,399501.5,0.05,-1.687730273946078,50.0,0.05,0.6877990178557378,400000,-1.7625106230994263,50.0,7990.5,0.16499696570634842,-2.2016965870857237,2.2424891707897188,-3.952173973321915,0.00025491748388594717,0.005223165380302816
405000,0,14.409321381558769,0.0004241466522216797,0.0009100437164306641,0.06419992446899414,404501.5,0.0,-1.5470064720692676,50.0,0.0,0.5056485932817056,405000,-1.557944473490462,50.0,8090.5,0.16539023480564355,-2.202671421289444,2.243787427186966,-4.078076452255249,-0.0004104386529797921,0.00532136769965291
410000,0,14.398542706698457,0.00045609474182128906,0.0009620189666748047,0.07781672477722168,409501.5,0.0,-1.4455414206144335,50.0,0.0,0.7745841905292887,410000,-1.4152446537194732,50.0,8190.5,0.16401306776702404,-2.2096964933872223,2.249992168188095,-3.9902510118484495,5.186967231566087e-05,0.0051446448909118776
415000,0,14.439711116956119,0.0004658699035644531,0.0015952587127685547,0.07648468017578125,414501.5,0.0,-1.8476439421185937,50.0,0.0,0.7246012553975688,415000,-1.7406320733071516,50.0,8290.5,0.16465905936062336,-2.2178558571338653,2.2590707087516786,-4.002004096984863,-8.454188642645022e-06,0.005263215754181146
420000,0,14.377330141696829,0.0004811286926269531,0.0008611679077148438,0.0602879524230957,419501.5,0.05,-1.7138057963397202,50.0,0.05,0.8417575763627636,420000,-1.5864379515846339,50.0,8390.5,0.16492430454492568,-2.2229853625297546,2.2637225122451783,-4.010130841970444,-5.000152558204718e-05,0.005042415481526404
425000,0,14.408128024575118,0.0005280971527099609,0.002035856246948242,0.05967283248901367,424501.5,0.0,-1.5213583445347458,50.0,0.0,0.7402832459878623,425000,-1.5839930398665534,50.0,8490.5,0.16530550106614827,-2.222576130390167,2.2623594813346863,-3.958241359949112,0.00021475004032981814,0.005270007591694594
430000,0,14.34775500778949,0.0005528926849365234,0.001499176025390625,0.07383894920349121,429501.5,0.0,-1.808369518470112,50.0,0.0,0.5388787280525916,430000,-1.5935206770555252,50.0,8590.5,0.16708677057921886,-2.2235493953227996,2.264911497116089,-4.018777675867081,-9.582399909413653e-05,0.005245354505721479
435000,0,14.4453744860145,0.0004329681396484375,0.002735137939453125,0.06540083885192871,434501.5,0.1,-1.6257037042206346,50.0,0.1,0.7175213740303532,435000,-1.626240363655209,50.0,8690.5,0.16483976842463016,-2.233934824466705,2.2754101164340974,-3.9335460295677187,0.0003468115198920714,0.005262157036922872
440000,0,14.269986311706536,0.0004858970642089844,0.0009043216705322266,0.07346367835998535,439501.5,0.0,-1.5794676416329754,50.0,0.0,0.6623240844010504,440000,-1.7452552256273197,50.0,8790.5,0.17155213579535483,-2.23932661318779,2.2814090440273285,-4.043100922346115,-0.00023457086418784457,0.005465249035507441
445000,0,14.26610348371874,0.0004432201385498047,0.0008409023284912109,0.07257819175720215,444501.5,0.05,-1.5629399070947785,50.0,0.05,0.6888270755398432,445000,-1.4893494328182655,50.0,8890.5,0.16890502229332924,-2.2497284014225007,2.2918997550010682,-4.008431143522262,-4.315296875211061e-05,0.005235973701346665
450000,0,14.405924924618922,0.00045609474182128906,0.0014328956604003906,0.0766761302947998,449501.5,0.05,-1.3889210328672608,50.0,0.05,0.8492162242586027,450000,-1.2601418375434275,50.0,8990.5,0.17192842423170804,-2.263619460105896,2.3065004861354828,-4.036508301973343,-0.00019512932663201353,0.00542682470427826
455000,0,14.23718620434639,0.00040411949157714844,0.0012521743774414062,0.06497883796691895,454501.5,0.0,-1.3555626000963337,50.0,0.0,0.5179520230181526,455000,-1.6985965600009973,50.0,9090.5,0.17207178786396982,-2.2781475937366484,2.3216453063488007,-4.029669703245163,-0.00016052123460031,0.0055262158620171245
460000,0,14.41557561746167,0.00040793418884277344,0.0011811256408691406,0.06212210655212402,459501.5,0.0,-1.5450932647235494,50.0,0.0,0.6883448963294576,460000,-1.6359622876063717,50.0,9190.5,0.17521782698854804,-2.2950672469139097,2.338471856355667,-4.060908913612366,-0.00033296145615531713,0.005429076247382909
465000,0,14.36589608913367,0.0004680156707763672,0.0033049583435058594,0.0750119686126709,464501.5,0.0,-1.4096113640910748,50.0,0.0,0.6052855144468705,465000,-1.8141709865896742,50.0,9290.5,0.1766844252869487,-2.311179628133774,2.3563022549152373,-4.008377485275268,-4.670946285114041e-05,0.005697900695726276
470000,0,14.371307333826731,0.0005199909210205078,0.0011739730834960938,0.06682586669921875,469501.5,0.0,-1.4646727911196007,50.0,0.0,0.6726920280909547,470000,-1.7129736758907377,50.0,9390.5,0.17658479654788972,-2.3186752603054046,2.362034693956375,-4.030336711883545,-0.00016130250960122794,0.005475104241166264
475000,0,14.39142758550244,0.0005202293395996094,0.0011699199676513672,0.06543469429016113,474501.5,0.0,-1.3927373482634262,50.0,0.0,0.6339987137984571,475000,-1.46304043082707,50.0,9490.5,0.18180256739258766,-2.321111835002899,2.3660595626831054,-3.982430539369583,0.00010175583305681357,0.005802080165594816
480000,0,14.370260040130821,0.0004718303680419922,0.0009572505950927734,0.06995368003845215,479501.5,0.0,-1.5156540207198688,50.0,0.0,0.7535952209240194,480000,-1.484807416823536,50.0,9590.5,0.17935650897026062,-2.325496904373169,2.3692122507095337,-4.005481016397476,-2.7961019117356046e-05,0.00563954294892028
485000,0,14.294922298345933,0.00047397613525390625,0.0022661685943603516,0.07679271697998047,484501.5,0.0,-1.5727571477721571,50.0,0.0,0.6752977496425941,485000,-1.634930945073939,50.0,9690.5,0.1787140377536416,-2.3323312644958496,2.3771087913513185,-3.993971442937851,3.6053618790901964e-05,0.005616935692261905
490000,0,14.346345263051019,0.0004031658172607422,0.0007989406585693359,0.07176876068115234,489501.5,0.05,-1.3561279486575217,50.0,0.05,0.7448720198982309,490000,-1.445282163528716,50.0,9790.5,0.1833531575948,-2.337871054649353,2.3821383917331698,-4.006263191223145,-3.319157532678219e-05,0.005561985079664737
495000,0,14.333426177175886,0.0005259513854980469,0.0008890628814697266,0.0707240104675293,494501.5,0.0,-1.4510045001731482,50.0,0.0,0.5009636992313693,495000,-1.44812763787942,50.0,9890.5,0.18045085759460927,-2.3400956659317016,2.3848780357837676,-3.9899600908756256,5.7861228819092506e-05,0.005575250580441207
500000,0,14.482459114861864,0.0005118846893310547,0.0013399124145507812,0.06296706199645996,499501.5,0.0,-1.4216378368616884,50.0,0.0,0.7249553150291105,500000,-1.3225337337767435,50.0,9990.5,0.18168670236319304,-2.345540973186493,2.389749290704727,-4.0367256779670715,-0.0001974305967851251,0.00568717586947605
505000,0,14.31989156237205,0.0004570484161376953,0.0008320808410644531,0.06352400779724121,504501.5,0.0,-1.7625617309536323,50.0,0.0,0.7279938486723293,505000,-1.442238832101039,50.0,10090.5,0.18002912506461144,-2.348308500289917,2.392772248983383,-3.998791879653931,8.721487982256804e-06,0.005583698207978159
510000,0,14.348168129322291,0.0005509853363037109,0.0008890628814697266,0.07337117195129395,509501.5,0.05,-1.395750480413879,50.0,0.05,0.8140879175887092,510000,-1.5059186836769904,50.0,10190.5,0.18038447858393192,-2.3485940153598786,2.3932152216434477,-3.972337541103363,0.00016009797783772227,0.005643123579211533
515000,0,14.278559523315053,0.0005869865417480469,0.0010538101196289062,0.07053899765014648,514501.5,0.05,-1.7310142621932265,50.0,0.05,0.7316500728487838,515000,-1.5639221244874324,50.0,10290.5,0.18218066979199649,-2.355967026233673,2.4009415531158447,-4.032671704053879,-0.00018845282427355415,0.00560691105434671
520000,0,14.372805864414461,0.0005333423614501953,0.0015397071838378906,0.07460403442382812,519501.5,0.0,-1.7556403794636388,50.0,0.0,0.6812767528502074,520000,-1.4539622661487273,50.0,10390.5,0.1824205732345581,-2.3652582998275755,2.4105021641254427,-3.998333294391632,1.154042507550912e-05,0.005653524643275887
525000,0,9.260593810708352,0.0007359981536865234,0.0025331974029541016,0.13027191162109375,524501.5,0.0,-1.6285965280943642,50.0,0.0,0.7823166489927037,525000,-1.4474306416659317,50.0,10490.5,0.18486423506587743,-2.3724738087654114,2.4183092930316925,-3.972249138355255,0.00015661345222906675,0.005696374809835106
530000,0,9.392300508722814,0.0007290840148925781,0.0032358169555664062,0.10966014862060547,529501.5,0.05,-1.692629771885948,50.0,0.05,0.7428848326067984,530000,-1.488729113142505,50.0,10590.5,0.18657005524635314,-2.3808808331489564,2.426623660326004,-3.998701933860779,9.499103332927916e-06,0.005567720158956945
535000,0,9.337385595569165,0.0006530284881591797,0.0023910999298095703,0.10270285606384277,534501.5,0.05,-1.5390241818794146,50.0,0.05,0.8339777040844506,535000,-1.8860844011612177,50.0,10690.5,0.18742091798782348,-2.391545094490051,2.437784832239151,-3.98731249833107,7.438344068577862e-05,0.005600563851185143
540000,0,9.48650255041199,0.0007333755493164062,0.0013339519500732422,0.09458374977111816,539501.5,0.0,-1.6630196072106944,50.0,0.0,0.6348175448355213,540000,-1.6368731209099026,50.0,10790.5,0.1889298010841012,-2.398936488389969,2.444323659658432,-4.0091063635349276,-4.797563283500495e-05,0.005381268658209592
545000,0,9.406084643530924,0.0008063316345214844,0.001401662826538086,0.10823512077331543,544501.5,0.05,-1.6400191050064379,50.0,0.05,0.5378856478316639,545000,-1.5860527002971665,50.0,10890.5,0.1911660393923521,-2.406800032377243,2.4528955059051514,-4.031955524682998,-0.00017984280587552348,0.005568549795076251
550000,0,9.516034024457248,0.0009357929229736328,0.0017590522766113281,0.127579927444458,549501.5,0.0,-1.5159887079948333,50.0,0.0,0.6127989298946716,550000,-1.290381804805641,50.0,10990.5,0.19226431393623353,-2.4145237782001496,2.4602712194919585,-4.003649647474289,-1.7714709501888136e-05,0.005373888464644551
555000,0,9.217308743075222,0.0010399818420410156,0.002134084701538086,0.1098639965057373,554501.5,0.0,-1.5793509483406583,50.0,0.0,0.601883042997691,555000,-1.4691229461395756,50.0,11090.5,0.19153273705020546,-2.421470997095108,2.4682750444412234,-4.013956216573715,-7.474639802967432e-05,0.005476359711028635
560000,0,9.336612759323181,0.0007419586181640625,0.003386974334716797,0.09675908088684082,559501.5,0.0,-1.6334235847755376,50.0,0.0,0.5353614881674651,560000,-1.6653296660084798,50.0,11190.5,0.19539346811920405,-2.427716809749603,2.475913666963577,-4.0234477734565735,-0.00013595592373167163,0.005773189133964479
565000,0,9.530486678315558,0.0006582736968994141,0.001706838607788086,0.12992501258850098,564501.5,0.1,-1.794738781262976,50.0,0.1,0.7862797081886488,565000,-1.5463278173225343,50.0,11290.5,0.19857584073394538,-2.4364937658309938,2.483637715101242,-4.06643060874939,-0.00036802582140808225,0.005666240296792239
570000,0,9.23708042926134,0.0007212162017822266,0.0022017955780029297,0.10683703422546387,569501.5,0.05,-1.4546980230182234,50.0,0.05,0.665715671890005,570000,-1.8597428993950953,50.0,11390.5,0.194709489479661,-2.4434770469665525,2.4912015357017516,-3.9959295344352723,2.4579196950071492e-05,0.0055022684456780555
575000,0,9.299597727984262,0.0008521080017089844,0.0014729499816894531,0.135390043258667,574501.5,0.0,-1.7140219735069127,50.0,0.0,0.6683378636493705,575000,-1.5783445087568293,50.0,11490.5,0.19536372674256564,-2.452940725803375,2.5003185636997225,-3.992034858465195,4.694727217429318e-05,0.005619379787705839
580000,0,9.710717912855023,0.000705718994140625,0.002624034881591797,0.07878232002258301,579501.5,0.1,-1.697053993375969,50.0,0.1,0.8185564692090803,580000,-1.7495938720595354,50.0,11590.5,0.1990682843402028,-2.4561076176166536,2.5031877512931824,-4.003878077745438,-1.9483542499074248e-05,0.005580013408325613
585000,0,9.287886879381004,0.0008139610290527344,0.0012280941009521484,0.11594486236572266,584501.5,0.05,-1.4602793992330068,50.0,0.05,0.6830673155163222,585000,-1.6437491181787138,50.0,11690.5,0.1974245674610138,-2.4637363092899323,2.510309412240982,-4.000706158161163,-2.6785388254211282e-06,0.005494323533959687
590000,0,9.395425855967773,0.0010790824890136719,0.0019998550415039062,0.10990095138549805,589501.5,0.0,-1.5777557790423988,50.0,0.0,0.6568496315841093,590000,-1.6278976219485213,50.0,11790.5,0.19708451896160842,-2.46901083946228,2.517095773220062,-4.005333027124405,-2.748372883797856e-05,0.005587797074578703
595000,0,9.262491261282985,0.0007028579711914062,0.001683950424194336,0.10433006286621094,594501.5,0.0,-1.7646789046877291,50.0,0.0,0.7328151025149032,595000,-1.5107029070253486,50.0,11890.5,0.2009875227957964,-2.473393649816513,2.5219110536575315,-3.98473774933815,9.018535831455665e-05,0.005811192033812404
600000,0,9.408340591519213,0.0008490085601806641,0.002390146255493164,0.12725400924682617,599501.5,0.0,-1.352876678230283,50.0,0.0,0.55615924804375,600000,-1.3299911901844657,50.0,11990.5,0.19986742337793112,-2.47742587351799,2.5251596982479096,-3.946182513475418,0.0003046452683083771,0.00556743550579995
605000,0,9.424082536792444,0.0004379749298095703,0.0013790130615234375,0.06884503364562988,604501.5,0.0,-1.5735488594143143,50.0,0.0,0.6655122412314125,605000,-1.5267276338589233,50.0,12090.5,0.20346799783408642,-2.478852502822876,2.52664866399765,-3.991980617761612,4.765320962178521e-05,0.0055491218157112596
610000,0,9.378063783271617,0.0015940666198730469,0.0015239715576171875,0.1323108673095703,609501.5,0.0,-1.7128418617122958,50.0,0.0,0.7947175042264303,610000,-1.4438158918024546,50.0,12190.5,0.20018396152555942,-2.4795484631061555,2.528077239751816,-3.9710427718162538,0.0001609342251213093,0.005656272274907679
615000,0,9.473068599604762,0.0008549690246582031,0.0026149749755859375,0.09086799621582031,614501.5,0.05,-1.3927284127517212,50.0,0.05,0.5945273384548174,615000,-1.4502756684991835,50.0,12290.5,0.20013529425859453,-2.476985289812088,2.525711801290512,-4.018799760103226,-0.00010190232304375969,0.005679985872469842
620000,0,9.335947152682069,0.0005669593811035156,0.001238107681274414,0.08622384071350098,619501.5,0.0,-1.3157328680004619,50.0,0.0,0.7514963080547907,620000,-1.603481188659338,50.0,12390.5,0.19958211425691844,-2.4823443198204043,2.5307509717941286,-3.9557417056560515,0.0002502728072504397,0.005561984102707356
625000,0,9.526720136115108,0.0006840229034423828,0.0015749931335449219,0.12860989570617676,624501.5,0.0,-1.545420676401988,50.0,0.0,0.5902838820962804,625000,-1.706031655829006,50.0,12490.5,0.1996261654421687,-2.480810994386673,2.5287064390182494,-3.9688077523708345,0.0001779081573949952,0.005570898369885981
630000,0,9.522113410158218,0.0005290508270263672,0.0011129379272460938,0.07504415512084961,629501.5,0.0,-1.850199420046024,50.0,0.0,0.6932706591875081,630000,-1.2795128957991082,50.0,12590.5,0.20051579713076353,-2.4773674812316893,2.524929540395737,-3.9447981328964232,0.0003041390589969524,0.005385204255115241
635000,0,9.384749368785979,0.0006947517395019531,0.0017299652099609375,0.10701584815979004,634501.5,0.05,-1.4350909491509376,50.0,0.05,0.7068070925816803,635000,-1.4696438152082214,50.0,12690.5,0.2003274441063404,-2.478316779136658,2.525877849340439,-3.920402241230011,0.0004435472735131043,0.005579814089462161
640000,0,9.257900999999578,0.0006608963012695312,0.0012552738189697266,0.08153486251831055,639501.5,0.05,-1.8669448625560907,50.0,0.05,0.8430188960531069,640000,-1.6201034164216292,50.0,12790.5,0.20209670582413675,-2.481195725440979,2.529237537145615,-3.9732540557384493,0.00014870344125665725,0.00558429795736447
645000,0,9.473661825650343,0.0007486343383789062,0.0016651153564453125,0.1328420639038086,644501.5,0.05,-1.777500635377984,50.0,0.05,0.7171671626203158,645000,-1.4116565773204053,50.0,12890.5,0.1988067247197032,-2.47945596241951,2.5267086238861083,-4.013717406988144,-7.195420167772681e-05,0.0052798541481606665
650000,0,9.395971677952295,0.0007228851318359375,0.0014891624450683594,0.09498977661132812,649501.5,0.0,-1.6997156706042211,50.0,0.0,0.6483724098599052,650000,-1.4276286367657067,50.0,12990.5,0.20190062219649554,-2.4728415989875794,2.520131988763809,-4.015225126266479,-8.09072982519865e-05,0.00541728035081178
655000,0,9.497803706034807,0.0008959770202636719,0.0017499923706054688,0.13359999656677246,654501.5,0.0,-1.6030247515645004,50.0,0.0,0.6852146088044775,655000,-1.5654432326406016,50.0,13090.5,0.19861489532887935,-2.467829425096512,2.5139926409721376,-4.013373359918594,-6.975830754163325e-05,0.005257811733521521
660000,0,9.460813903549951,0.0008749961853027344,0.0012860298156738281,0.09208202362060547,659501.5,0.0,-1.7926186085465496,50.0,0.0,0.7643011783328809,660000,-1.785586013349971,50.0,13190.5,0.19800644183903932,-2.460074888944626,2.507058029413223,-3.9596468827724456,0.00021254967490312994,0.005277857947163284
665000,0,9.599303268343254,0.0009169578552246094,0.0018329620361328125,0.1412050724029541,664501.5,0.0,-1.551125862304764,50.0,0.0,0.5179141195829597,665000,-1.833313963239301,50.0,13290.5,0.19690885344147682,-2.4595552983283997,2.506698248386383,-3.994737010717392,3.0455511197942543e-05,0.005350547407753765
670000,0,10.016929820410088,0.0010073184967041016,0.0020987987518310547,0.13181591033935547,669501.5,0.05,-1.5719578835228334,50.0,0.05,0.6563050292109125,670000,-1.6286760919739265,50.0,13390.5,0.19621898949891328,-2.4570818655490876,2.5037433485984804,-3.9715093331336977,0.00014666924659104553,0.0051909080483019355
675000,0,14.448298269526592,0.0003781318664550781,0.0012538433074951172,0.06602907180786133,674501.5,0.0,-1.5267936189256044,50.0,0.0,0.6263276356505699,675000,-1.459404990043685,50.0,13490.5,0.19842876445502042,-2.450026268005371,2.496832768678665,-3.978257082462311,0.00011490702401351882,0.005213653820566833
680000,0,14.322129507098285,0.0004799365997314453,0.0013189315795898438,0.07839417457580566,679501.5,0.0,-1.658037728334394,50.0,0.0,0.829769981933575,680000,-1.5438678877199856,50.0,13590.5,0.1951612156704068,-2.452079637527466,2.4984084961414337,-3.9813267819881437,9.671818732749671e-05,0.005044657212216407
685000,0,14.358845582370128,0.0004773139953613281,0.0009198188781738281,0.0676259994506836,684501.5,0.0,-1.5598410299045862,50.0,0.0,0.7519095063342546,685000,-1.7889213095571421,50.0,13690.5,0.19546703761816026,-2.4509571106433867,2.498206212282181,-3.9990588083267213,6.839480949565769e-06,0.005281808000523597
690000,0,14.388593752749767,0.0005331039428710938,0.0011019706726074219,0.10161995887756348,689501.5,0.0,-1.5179714566626463,50.0,0.0,0.6490299038771529,690000,-1.5280876329658912,50.0,13790.5,0.1965294225551188,-2.4501884677410124,2.4970280361175536,-3.972798471689224,0.0001431946482916828,0.005209397669881583
695000,0,14.3933421897561,0.0004761219024658203,0.0012040138244628906,0.0713949203491211,694501.5,0.05,-1.401716126985875,50.0,0.05,0.658987193481193,695000,-1.7664435278805022,50.0,13890.5,0.19567847374081612,-2.4487272691726685,2.4944770214557646,-4.042185568332672,-0.00021629620105522918,0.005162305686622858
700000,0,14.421542768157806,0.0005209445953369141,0.0009551048278808594,0.07455110549926758,699501.5,0.05,-1.4000478182407257,50.0,0.05,0.7835061415057304,700000,-1.502332057058836,50.0,13990.5,0.19474406845867634,-2.4495122351646423,2.496213889837265,-4.017564980983734,-8.817408025424811e-05,0.005127041659783572
705000,0,13.518008998448146,0.0006830692291259766,0.0007863044738769531,0.06570577621459961,704501.5,0.05,-1.7251822032898574,50.0,0.05,0.7165487632239171,705000,-1.713931577535743,50.0,14090.5,0.1944761206358671,-2.4495426337718964,2.4967441096305847,-3.9567145919799804,0.0002152011091220629,0.005184758059214801
710000,0,10.158874861321971,0.0007512569427490234,0.0012090206146240234,0.13058900833129883,709501.5,0.0,-1.988142320148949,50.0,0.0,0.6179912702359535,710000,-1.8819010272491652,50.0,14190.5,0.19437007823958993,-2.4476261191368103,2.4937059371471406,-4.016315861225128,-8.148259899826371e-05,0.005112692489288747
715000,0,8.196511827567209,0.0007250308990478516,0.0011911392211914062,0.11433577537536621,714501.5,0.0,-1.4207667982342245,50.0,0.0,0.7462867888802724,715000,-1.7059405855245615,50.0,14290.5,0.19444476795196533,-2.448003724336624,2.4942087314128876,-4.03383669090271,-0.0001658331461949274,0.00502012440841645
720000,0,11.343946881072098,0.0005180835723876953,0.00115203857421875,0.08859872817993164,719501.5,0.0,-1.8299539112786156,50.0,0.0,0.6712033104835367,720000,-2.0009945979615393,50.0,14390.5,0.19302558059990407,-2.4489009759426117,2.4958866271972657,-3.974936334371567,0.0001312865306790627,0.005249857850372791
725000,0,11.789318074005765,0.0006630420684814453,0.0034639835357666016,0.08753204345703125,724501.5,0.0,-1.3915746042139345,50.0,0.0,0.5884960231973195,725000,-1.3711130972719796,50.0,14490.5,0.19691586045920847,-2.4460256767272948,2.493068969488144,-4.021198987007141,-0.00011069059232977452,0.0052601260161027315
730000,0,12.694137486811531,0.00047707557678222656,0.001013040542602539,0.08576583862304688,729501.5,0.05,-1.3555240432605795,50.0,0.05,0.6562263658400331,730000,-1.5086460670072999,50.0,14590.5,0.19317091170698406,-2.4489397621154785,2.495441415309906,-3.97671829867363,0.00011934594571357594,0.004994802152272314
735000,0,11.257518384846891,0.0006420612335205078,0.0019390583038330078,0.09645509719848633,734501.5,0.0,-1.5270724875715627,50.0,0.0,0.7101439224079392,735000,-1.7770971771952664,50.0,14690.5,0.1919310842677951,-2.4489674937725066,2.495009793281555,-3.9922538254261015,4.065653757788823e-05,0.005000063601881265
740000,0,7.766793265294674,0.0006101131439208984,0.0014867782592773438,0.11065912246704102,739501.5,0.0,-1.4581904592964223,50.0,0.0,0.6175067728479863,740000,-1.7980677501715445,50.0,14790.5,0.1935720930621028,-2.448152393102646,2.494383471250534,-4.005313989877701,-2.430328834816464e-05,0.004994192512240261
745000,0,8.05194982608185,0.0006122589111328125,0.001316070556640625,0.1266467571258545,744501.5,0.05,-1.6549563655251913,50.0,0.05,0.7343584044921155,745000,-1.5006719176854006,50.0,14890.5,0.19483751312643288,-2.446266621351242,2.492572792291641,-4.026773781776428,-0.00013048543079639786,0.005026614841539412
750000,0,8.285075116402004,0.0006937980651855469,0.002370119094848633,0.10610580444335938,749501.5,0.0,-1.7388590941819337,50.0,0.0,0.6065158066753307,750000,-1.6308237758944504,50.0,14990.5,0.1934210698828101,-2.444011910915375,2.4908416931629183,-3.9825189397335055,9.022389198798919e-05,0.00515359503403306
755000,0,6.703283032297883,0.0007390975952148438,0.004427909851074219,0.164323091506958,754501.5,0.0,-1.7597368731435998,50.0,0.0,0.7603116960646366,755000,-1.4525316608666539,50.0,15090.5,0.1956191033385694,-2.443955003261566,2.4903139832019807,-4.037576922416687,-0.00018691549829236465,0.005033813371323049
760000,0,15.925428952935313,0.0004291534423828125,0.0012929439544677734,0.051798105239868164,759501.5,0.0,-1.7091734783199282,50.0,0.0,0.6045186701369657,760000,-1.3897334013691642,50.0,15190.5,0.19350349120795726,-2.4415013659000397,2.4878796253204345,-3.9764066565036775,0.00012082448982619098,0.0048994148094207044
765000,0,11.65372524532509,0.0010349750518798828,0.0026471614837646484,0.11674189567565918,764501.5,0.0,-1.5081597135446205,50.0,0.0,0.7543951854977701,765000,-1.4793349017458384,50.0,15290.5,0.19272043199837208,-2.4402065544128417,2.4865476117134095,-4.018231349229812,-8.68189424800221e-05,0.004948874162975699
770000,0,13.71300741348478,0.0005009174346923828,0.0011639595031738281,0.06345987319946289,769501.5,0.0,-1.3666959350815902,50.0,0.0,0.6223340398186598,770000,-1.474862182223792,50.0,15390.5,0.19449173625558613,-2.440199840068817,2.4868563680648803,-3.983684187889099,8.600923481571953e-05,0.005161997257266193
775000,0,15.7802847098051,0.00041174888610839844,0.0008320808410644531,0.061103105545043945,774501.5,0.05,-1.5168140243541326,50.0,0.05,0.7515583276954863,775000,-1.5680216018205348,50.0,15490.5,0.19451132266968488,-2.4439264538288117,2.490656618356705,-3.9831403071880342,8.57159259103355e-05,0.0050267879641614855
780000,0,12.100785707308628,0.0006399154663085938,0.001483917236328125,0.08560633659362793,779501.5,0.0,-1.401098338138592,50.0,0.0,0.5400938692611098,780000,-1.5585417242655955,50.0,15590.5,0.1937497112080455,-2.4448355340957644,2.4912827308177947,-3.981548725605011,9.603512605099241e-05,0.004952066940721124
785000,0,13.153475488744618,0.0005869865417480469,0.001965045928955078,0.07860612869262695,784501.5,0.05,-1.3962088866221096,50.0,0.05,0.813623229303635,785000,-1.5516093894335417,50.0,15690.5,0.19433548498153685,-2.448684992313385,2.4952887117862703,-3.9850789766311645,7.662391867779661e-05,0.004962376597803086
790000,0,13.815876809178416,0.00045228004455566406,0.0014297962188720703,0.06271219253540039,789501.5,0.0,-1.5760340218374063,50.0,0.0,0.5443442967297023,790000,-1.465517132628409,50.0,15790.5,0.19747974117845296,-2.4472615263462068,2.49374089050293,-3.9897466161251067,5.153112186235376e-05,0.004953227523714304
