rachanatexeira/mscdissertation-few-shot-pref-learning/results/fetchreach_run - dud2/log.csv
time/steps,time/epochs,time/steps_per_second,time/dataset,time/preprocess,time/train_step,train/env_steps,eval/reward,eval/length,eval/is_success,eval/reward_std,step,train/reward,train/length,train/num_ep,train/q_loss,train/target_q,train/actor_loss,train/entropy,train/alpha_loss,train/alpha
10000,0,341.67907206885616,0.00034117698669433594,0.0018780231475830078,0.036847829818725586,9501.5,-15.718354870917356,50.0,0.0,4.422212793432146,10000,-15.9703085065653,50.0,190.5,0.27355626225471497,-0.3545810878276825,0.043736113235354424,-0.4581555426120758,0.17707426846027374,0.049984999001026154
15000,0,32.690533905829824,0.0003349781036376953,0.0009531974792480469,0.03098917007446289,14501.5,-11.702678447138867,50.0,0.05,1.3844317020843606,15000,-10.749240600608967,50.0,290.5,0.1758522360920906,-2.3014764845371247,2.3514592003822328,1.3603964915480464,0.12247699572145938,0.022803982559591533
20000,0,28.442943944899174,0.0003440380096435547,0.0015151500701904297,0.0334620475769043,19501.5,-9.254565597398452,50.0,0.1,2.4611841948935718,20000,-9.437159393286338,50.0,390.5,0.1534240095987916,-2.0573859239816668,2.1130306515693666,-1.8825257860571145,0.025105866056401284,0.011824259325861931
25000,0,31.621522186235307,0.00026917457580566406,0.0009047985076904297,0.03369903564453125,24501.5,-20.629986437594532,50.0,0.0,5.342640774977386,25000,-21.22181498551491,50.0,490.5,0.5155309290885925,-2.6535139882564547,2.8281002790927885,-9.662315562725068,-0.08134425939247013,0.0143770882319659
30000,0,32.707331477473666,0.0004038810729980469,0.0010030269622802734,0.031191110610961914,29501.5,-13.38435809723615,50.0,0.0,3.64644971148977,30000,-9.647612691404436,50.0,590.5,0.23535479266941547,-2.086177344441414,2.12047299861908,-2.67351377004385,0.02941997817030642,0.021654228292405604
35000,0,28.208889428186186,0.0004131793975830078,0.0010838508605957031,0.037297964096069336,34501.5,-7.115596475021228,50.0,0.2,1.5217327494043196,35000,-8.095845444893737,50.0,690.5,0.17175543624162673,-1.9637262654304504,1.9965028126239777,-2.881828782558441,0.014456831054762006,0.012915214280597866
40000,0,30.642200679360094,0.0003762245178222656,0.0008997917175292969,0.0344390869140625,39501.5,-7.592540639170943,50.0,0.2,1.4631618840855813,40000,-7.475759026411806,50.0,790.5,0.1511864449828863,-1.8808665606975556,1.9182678216695785,-3.842946073770523,0.0013605896691660747,0.008456609595566988
45000,0,31.60794329171272,0.0003769397735595703,0.001455068588256836,0.036718130111694336,44501.5,-9.011262163881145,50.0,0.3,2.3684718235476536,45000,-9.45333771867949,50.0,890.5,0.1446210181415081,-1.829775529384613,1.8740309195518494,-4.013472562789917,-0.00010495090020413045,0.007929798447992653
50000,0,31.250417005247296,0.00035691261291503906,0.0009162425994873047,0.034639835357666016,49501.5,-7.758180398396638,50.0,0.25,2.53047965648807,50000,-6.146965698857803,50.0,990.5,0.14037704886496066,-1.76960901761055,1.816485985159874,-4.662588222503662,-0.00460160717881081,0.006798282537143678
55000,0,31.129058938044334,0.0003540515899658203,0.0009710788726806641,0.03383302688598633,54501.5,-5.316044535532816,50.0,0.4,1.4427081630188445,55000,-5.928170116212328,50.0,1090.5,0.14264888571202755,-1.7585252838134766,1.8140103188753127,-3.3324077707529067,0.006391326283322996,0.009553499025292695
60000,0,31.435942932324544,0.0003631114959716797,0.0009059906005859375,0.04215693473815918,59501.5,-16.314204919169477,50.0,0.0,1.7331519968794447,60000,-17.271413908169528,50.0,1190.5,0.25559514114260673,-1.7766559236049653,1.8578256633281707,-8.569312413692474,-0.045471827913075684,0.010041196275502443
65000,0,31.17576363378105,0.0003941059112548828,0.0009038448333740234,0.03301882743835449,64501.5,-6.779842843037126,50.0,0.05,2.219566656165655,65000,-8.864181509709042,50.0,1290.5,0.18392323703318833,-1.7052409665584565,1.7706953327655792,-6.064109438657761,-0.021298895972635363,0.010432626653462649
70000,0,31.454453895953584,0.00039386749267578125,0.00128173828125,0.03237628936767578,69501.5,-4.915131709734743,50.0,0.55,1.4500206611448745,70000,-5.2593383306228265,50.0,1390.5,0.15392311937361955,-1.6192945815324784,1.6773379811048508,-4.733650881767273,-0.0058289481201354645,0.008124244939070196
75000,0,31.54841967750901,0.0004010200500488281,0.0009989738464355469,0.03421902656555176,74501.5,-5.224801931245132,50.0,0.45,1.6742503065845147,75000,-7.648135022557307,50.0,1490.5,0.16823871652781963,-1.6199382382631302,1.6795305106639862,-3.897647271990776,0.0016034532343037426,0.015920316709205507
80000,0,31.238439812756628,0.000431060791015625,0.0009520053863525391,0.034706830978393555,79501.5,-4.179535730976499,50.0,0.8,1.1519268560240967,80000,-4.781065661547728,50.0,1590.5,0.13282602749764919,-1.537140528678894,1.5900833438634872,-3.422173019170761,0.005005435699553346,0.008611971123144031
85000,0,30.616323531024097,0.00043010711669921875,0.0010037422180175781,0.0382080078125,84501.5,-4.377757207942625,50.0,0.65,0.9723945920719433,85000,-4.659759489028096,50.0,1690.5,0.12997094051539898,-1.486986925125122,1.540419543147087,-4.262119041442871,-0.0018347738837765065,0.006809015760663897
90000,0,31.219831716164265,0.0004258155822753906,0.001641988754272461,0.03593087196350098,89501.5,-4.664624935375985,50.0,0.95,0.6084371248196172,90000,-4.213561416509131,50.0,1790.5,0.12451152811944485,-1.480185616493225,1.5386936528682709,-3.7827044835090637,0.0011846941427720594,0.0055005148123018445
95000,0,30.861941195339686,0.0003981590270996094,0.0009429454803466797,0.03521609306335449,94501.5,-3.6911849939515604,50.0,0.95,1.0126600217012642,95000,-4.486795046154132,50.0,1890.5,0.12283821803331375,-1.415801058292389,1.4717064254283905,-4.029628761053085,-0.0001508319096537889,0.005090513010974973
100000,0,30.675459173367265,0.0003960132598876953,0.0009639263153076172,0.03512382507324219,99501.5,-4.2931693216236635,50.0,0.6,1.27008755016553,100000,-3.9524737422677645,50.0,1990.5,0.12836083632707596,-1.4210088350772858,1.484093743801117,-4.049103594303131,-0.0002690177455733647,0.0054600436869077385
105000,0,30.741592966950595,0.0004608631134033203,0.0009829998016357422,0.03769207000732422,104501.5,-3.78480236547613,50.0,0.95,0.9648356833685028,105000,-3.8499263346932784,50.0,2090.5,0.12432133167982101,-1.3726883684396745,1.434329301595688,-3.9460348842144013,0.0002710533092831611,0.0051237152782268825
110000,0,31.081548678499296,0.00036597251892089844,0.0012269020080566406,0.03592801094055176,109501.5,-3.437824211451712,50.0,1.0,0.9532410367438645,110000,-3.867252412279214,50.0,2190.5,0.11917484763264656,-1.3359134030342101,1.3974989671707154,-3.91939358663559,0.00037035672782803885,0.004541453698184341
115000,0,31.311233136606937,0.0003731250762939453,0.0009837150573730469,0.03436017036437988,114501.5,-3.2681227514612807,50.0,0.95,1.1035690992718437,115000,-3.9742611872346423,50.0,2290.5,0.1198366745337844,-1.3093912324905395,1.3709979412555695,-3.969915158987045,0.0001342089779136586,0.004331860984209925
120000,0,31.544451593617513,0.00037407875061035156,0.000965118408203125,0.03789472579956055,119501.5,-3.192075652409348,50.0,1.0,0.7419395470000159,120000,-3.548959992109689,50.0,2390.5,0.11975098524242639,-1.2959789204597474,1.3604867647886276,-3.9701444103717805,0.0001168085871686344,0.0037702121953479945
125000,0,30.82423437607526,0.0002999305725097656,0.0009438991546630859,0.04506802558898926,124501.5,-5.678496269648525,50.0,0.25,0.8301766365933888,125000,-4.091225442429818,50.0,2490.5,0.12306026160717011,-1.273930983543396,1.3409070975780486,-3.97160809636116,0.00012549812767247202,0.004244214043952524
130000,0,31.261844391457696,0.00039386749267578125,0.0009701251983642578,0.03574800491333008,129501.5,-3.540096719936133,50.0,0.9,1.3221335360442186,130000,-3.949907531053598,50.0,2590.5,0.12437509754300118,-1.2755441596508026,1.3458233666419983,-3.777584529399872,0.0010136800612744992,0.00457790550775826
135000,0,30.969907037499475,0.00038909912109375,0.0010008811950683594,0.03341078758239746,134501.5,-3.7302711341882584,50.0,0.9,1.2112733722709292,135000,-4.087649204802465,50.0,2690.5,0.126421711653471,-1.2623726307153702,1.3348598923683166,-3.741282711267471,0.0012627704530459596,0.004957029080018402
140000,0,31.02761914859223,0.0003719329833984375,0.0009388923645019531,0.03440999984741211,139501.5,-3.3218993608524237,50.0,1.0,0.8304654156575967,140000,-4.15850287053424,50.0,2790.5,0.1266265046223998,-1.242894038081169,1.3168853451013565,-4.30762352180481,-0.0012308518249737972,0.004163920894265175
145000,0,31.008034587140386,0.0003898143768310547,0.0010161399841308594,0.03983187675476074,144501.5,-3.2060776935889868,50.0,1.0,1.0667950724900324,145000,-3.625768366469991,50.0,2890.5,0.11557279542833566,-1.1999121901988983,1.2683429077863693,-3.9537128348350525,0.00014839952257534605,0.003176622733939439
150000,0,30.80441673648201,0.0004239082336425781,0.0010352134704589844,0.03872203826904297,149501.5,-2.6209717349513766,50.0,1.0,0.6474599335940338,150000,-3.3534930042875906,50.0,2990.5,0.11413208734989166,-1.1868166320323945,1.2557341943979263,-4.022362376689911,-6.601040741588804e-05,0.002938372243195772
155000,0,31.622606226670168,0.00039505958557128906,0.0009632110595703125,0.03388381004333496,154501.5,-3.177315706801203,50.0,1.0,0.8656462464069502,155000,-3.026058947612617,50.0,3090.5,0.113771784581244,-1.171871873497963,1.2418572651147843,-3.861907711267471,0.0004647886610255227,0.0033526314343325795
160000,0,31.00370257463835,0.0004069805145263672,0.0009579658508300781,0.04560112953186035,159501.5,-3.4192892868422513,50.0,1.0,0.6608225521080725,160000,-3.279355827695008,50.0,3190.5,0.11308929949253797,-1.154996056675911,1.2254692941904068,-4.073890674591064,-0.0002167320802254835,0.002892908895621076
165000,0,31.02608275954651,0.0003750324249267578,0.0009589195251464844,0.034726858139038086,164501.5,-2.9673820044560912,50.0,1.0,0.6898330158522568,165000,-3.2621241418837683,50.0,3290.5,0.11491201683878899,-1.1482728970050813,1.221751912713051,-4.151041995048523,-0.0004927511656023853,0.003275494724046439
170000,0,31.36445298084656,0.0003960132598876953,0.00096893310546875,0.034374237060546875,169501.5,-2.940783591479648,50.0,1.0,0.6328836385544044,170000,-3.3781954506419334,50.0,3390.5,0.11150677931308746,-1.1335681855678559,1.2061371363401412,-3.88764240193367,0.00030771266470401316,0.002740628472995013
175000,0,31.83409581497367,0.00034999847412109375,0.0009677410125732422,0.033193111419677734,174501.5,-3.02553228155899,50.0,1.0,0.7408441602657551,175000,-3.125493902466098,50.0,3490.5,0.11184448434412479,-1.1253967064619064,1.198813246011734,-3.9165544283390044,0.00022801319622885784,0.002731889411108568
180000,0,30.67749369613689,0.0003788471221923828,0.0009479522705078125,0.03234219551086426,179501.5,-3.025798803488323,50.0,1.0,0.8282269507267465,180000,-3.343534461036694,50.0,3590.5,0.11059980014711618,-1.1170677996873855,1.1912479782104493,-4.014847383737564,-3.7534311202762185e-05,0.0025645560354460033
185000,0,30.73081558149849,0.0005748271942138672,0.000972747802734375,0.035689353942871094,184501.5,-3.7266266731765727,50.0,0.9,0.7054847378348008,185000,-3.2203900191742263,50.0,3690.5,0.11111018001288175,-1.0969444566965103,1.1706429797410964,-3.9752684161663057,6.486007272360439e-05,0.0026221779661718754
190000,0,31.44252748053141,0.00040221214294433594,0.0010058879852294922,0.03372001647949219,189501.5,-2.848619938265705,50.0,1.0,0.9715470404812029,190000,-3.015722824747358,50.0,3790.5,0.11253608593344688,-1.0908170260190964,1.166517533183098,-4.108729132890701,-0.00028932548478769604,0.002758338207611814
195000,0,31.60983062307851,0.00039005279541015625,0.0009839534759521484,0.03429102897644043,194501.5,-2.6615585023164874,50.0,1.0,0.7937609248838359,195000,-3.492927054594284,50.0,3890.5,0.11194312751293183,-1.0959894626140594,1.1738034934997559,-3.9502595043182374,0.00013305468631733675,0.0026627496886067093
200000,0,31.204715430274025,0.00033783912658691406,0.0009160041809082031,0.038149118423461914,199501.5,-2.689311743221802,50.0,1.0,0.7473324728057127,200000,-3.2140534713569773,50.0,3990.5,0.10833503419905902,-1.07922352206707,1.1562220963239669,-3.904455739021301,0.0002311848794852267,0.002425982880871743
205000,0,31.316707676459675,0.0004439353942871094,0.0009639263153076172,0.033718109130859375,204501.5,-2.8199562528368114,50.0,1.0,0.852187011282527,205000,-3.2569094290959923,50.0,4090.5,0.10913515388965607,-1.0685914945602417,1.1462129275798798,-4.0347661790847775,-8.35458846304391e-05,0.002441038405057043
210000,0,31.19015001084772,0.00039505958557128906,0.0010099411010742188,0.03505110740661621,209501.5,-3.2186289154048233,50.0,1.0,0.5092632291312107,210000,-3.0501954302103704,50.0,4190.5,0.10803102634102106,-1.0641186653375625,1.1423984265327454,-3.9487212002277374,0.00012170043025253108,0.0023301658080890774
215000,0,31.817345926870043,0.00038123130798339844,0.0009567737579345703,0.035774946212768555,214501.5,-3.0045432143406385,50.0,1.0,0.8943272028557212,215000,-3.15885481375828,50.0,4290.5,0.10926031958311797,-1.0651325443983077,1.1448425549268721,-3.8781041028499605,0.0002897124796763819,0.0023550597531720994
220000,0,31.097720997352777,0.0004277229309082031,0.001024007797241211,0.03320813179016113,219501.5,-3.389700400154335,50.0,1.0,0.5988838388309697,220000,-3.3049460731129088,50.0,4390.5,0.10958408938348294,-1.0539689979553222,1.1338755265474318,-4.058041802167892,-0.00013116898235421103,0.002269155800808221
225000,0,30.58412814401318,0.0003609657287597656,0.0009620189666748047,0.034789085388183594,224501.5,-3.1778402611172236,50.0,1.0,0.5988641357774388,225000,-2.9172674551032496,50.0,4490.5,0.10945406787842513,-1.0482365527749062,1.128743596315384,-3.9187893016338347,0.0001880521150687855,0.002314279398182407
230000,0,30.532437136583233,0.0005109310150146484,0.0009558200836181641,0.034301042556762695,229501.5,-3.299124848686662,50.0,1.0,0.7602701683288838,230000,-3.564905154251101,50.0,4590.5,0.10985089644044638,-1.0506907573938369,1.1327013176679612,-3.8997524518966675,0.00023514664502181402,0.002330189916305244
235000,0,31.635417453912105,0.00036978721618652344,0.0009882450103759766,0.03437399864196777,234501.5,-2.898395659803486,50.0,1.0,0.6702050998673653,235000,-3.2367347038694176,50.0,4690.5,0.11014284981042147,-1.038618207871914,1.1203760924339294,-4.027019393920899,-6.30642988580803e-05,0.0023742682128213345
240000,0,31.59600399331286,0.0003819465637207031,0.0016100406646728516,0.0409700870513916,239501.5,-3.567658624583295,50.0,0.95,1.0332488461354887,240000,-3.2476181554447443,50.0,4790.5,0.10914306413382292,-1.0317576488256455,1.114208852291107,-4.066245467662811,-0.00015077718105931126,0.002271042299689725
245000,0,31.379818369208788,0.0003681182861328125,0.0010099411010742188,0.033106088638305664,244501.5,-2.997563803641583,50.0,1.0,0.875843239920908,245000,-3.428016695773549,50.0,4890.5,0.10932836361974478,-1.0259841606616973,1.1086052013635634,-3.992531044960022,1.6899352271138924e-05,0.0021517781536094845
250000,0,30.70998971297232,0.00046634674072265625,0.0010018348693847656,0.03543996810913086,249501.5,-2.843134586195629,50.0,1.0,0.7957416366600002,250000,-3.028126312903653,50.0,4990.5,0.10929330561310052,-1.023486090540886,1.1069341342449188,-3.977720320224762,5.076058019403718e-05,0.0022402969293762
255000,0,30.87115969888949,0.0004100799560546875,0.001928091049194336,0.03424191474914551,254501.5,-3.0464730414677446,50.0,1.0,0.9587278112732275,255000,-3.416541471982787,50.0,5090.5,0.10939049354195594,-1.0236742419600486,1.1084970920085906,-3.9352745671272276,0.00014789203976033606,0.0022922784620895984
260000,0,31.165232244808593,0.0004076957702636719,0.0009951591491699219,0.039788007736206055,259501.5,-2.930973996574323,50.0,1.0,0.8700059479054677,260000,-2.9807125532025247,50.0,5190.5,0.10738037912547588,-1.0151434477567673,1.0997483806610107,-3.9026748628616335,0.0002020666462558438,0.0020791844862978904
265000,0,30.79208987549298,0.0003991127014160156,0.001010894775390625,0.03326106071472168,264501.5,-3.1326745524106836,50.0,1.0,0.7884403805013865,265000,-3.3894080590761733,50.0,5290.5,0.10752590020000935,-1.0063429566025734,1.090390662908554,-3.9639434742927553,7.311213650609716e-05,0.002010112238349393
270000,0,31.18139883206544,0.0004038810729980469,0.0010209083557128906,0.042179107666015625,269501.5,-2.6117861027381553,50.0,1.0,0.766871811489562,270000,-3.0006944384170824,50.0,5390.5,0.10775945387780667,-1.0048226442933084,1.0900249680280685,-3.9634473578929903,7.288392458031013e-05,0.0020506104064406828
275000,0,30.718125264415626,0.0004451274871826172,0.0009508132934570312,0.034684181213378906,274501.5,-3.058302701414015,50.0,1.0,0.798402419103022,275000,-2.8957383404977173,50.0,5490.5,0.10566708500683307,-0.9910576775074005,1.0750409216880799,-4.01108093380928,-2.1858764857825007e-05,0.001973358015296981
280000,0,31.143068318670114,0.0003871917724609375,0.000982046127319336,0.034758806228637695,279501.5,-2.7267407101957652,50.0,1.0,0.9022085406154854,280000,-3.3499503823022776,50.0,5590.5,0.10583742325007915,-0.9868847553133965,1.0708914897441864,-4.027091371774674,-5.2781874255742875e-05,0.0019426664902130143
285000,0,30.770225557063394,0.0004200935363769531,0.0009429454803466797,0.03964400291442871,284501.5,-2.7666399933654566,50.0,1.0,0.5920070557412281,285000,-3.1023400411674324,50.0,5690.5,0.10753424835205078,-0.9929767875671387,1.0791696515083313,-3.981107257127762,3.6974393160562614e-05,0.0019758315017679704
290000,0,31.09669431622766,0.0003809928894042969,0.000990152359008789,0.03707075119018555,289501.5,-2.951857733543773,50.0,1.0,0.7259770568700347,290000,-2.8161819579970566,50.0,5790.5,0.1074775203987956,-0.9953523301482201,1.082782617688179,-3.952059045791626,8.917281134745281e-05,0.001832032198086381
295000,0,31.343665481363153,0.00042700767517089844,0.0009851455688476562,0.03805184364318848,294501.5,-3.0469501126120333,50.0,1.0,0.9508546578073686,295000,-3.3181724743273007,50.0,5890.5,0.10647899839282036,-0.9818309517502785,1.068135120868683,-3.9149072983264923,0.00016213537969451863,0.001856779466033913
300000,0,30.780999434019986,0.0003819465637207031,0.0009431838989257812,0.03425884246826172,299501.5,-2.9345604316752745,50.0,1.0,0.5263005699438528,300000,-2.846105095015762,50.0,5990.5,0.10642447539418935,-0.9747805271148682,1.0607088247537613,-4.0327908644676205,-5.86419952869619e-05,0.0017857703192858026
305000,0,30.849801065200108,0.0004222393035888672,0.0009808540344238281,0.03986215591430664,304501.5,-2.891708641198121,50.0,1.0,0.9658774847669431,305000,-3.1836541210393685,50.0,6090.5,0.10617229191958905,-0.9746225424408913,1.0616414389014244,-4.000714085817337,-5.945093198533869e-07,0.0017712517762556671
310000,0,30.67212392968335,0.0006208419799804688,0.004461050033569336,0.03693199157714844,309501.5,-3.2898978804627768,50.0,1.0,0.7691526661317211,310000,-3.15435622449977,50.0,6190.5,0.10531411328911781,-0.9703342799544334,1.0573002367019653,-4.088020645856857,-0.0001532450757604238,0.0017504391834372655
315000,0,30.93812450336808,0.00041794776916503906,0.0009789466857910156,0.03838014602661133,314501.5,-2.846057206027012,50.0,1.0,0.7571168911713553,315000,-3.0138029930664496,50.0,6290.5,0.10490128772705794,-0.9633945921063423,1.0499062945246695,-4.039301408767701,-6.992679752693221e-05,0.0018022097852081061
320000,0,30.356077982253115,0.000514984130859375,0.0019059181213378906,0.03705906867980957,319501.5,-2.764601317896919,50.0,1.0,0.7236434702016906,320000,-2.968664153690824,50.0,6390.5,0.10419377487897873,-0.9660115422606468,1.0530498111248017,-3.929292838573456,0.0001193101649550954,0.001677591805695556
325000,0,31.303046057451795,0.0004448890686035156,0.0009851455688476562,0.03675103187561035,324501.5,-3.911533673017641,50.0,1.0,0.7100266546416469,325000,-2.951929026507389,50.0,6490.5,0.10644034504890441,-0.9733642381429672,1.0627008002996445,-3.997849927186966,4.294216436392162e-06,0.0017922106882324442
330000,0,31.15305067794271,0.0004107952117919922,0.0009591579437255859,0.03987288475036621,329501.5,-3.0620846391100676,50.0,1.0,0.7724302544159106,330000,-3.143807458782004,50.0,6590.5,0.10701575761288404,-0.9693921557068825,1.0590102466344833,-4.054940395355224,-0.00010101362611385411,0.0018202328773913904
335000,0,31.07900330977028,0.0003917217254638672,0.0009891986846923828,0.06501889228820801,334501.5,-2.9649859029931944,50.0,1.0,0.9634050612455144,335000,-3.106533139248075,50.0,6690.5,0.10680835688859225,-0.963710602760315,1.053318111717701,-4.0609903733730315,-0.0001282321118123946,0.0021241964823566378
340000,0,30.804370583943612,0.000408172607421875,0.0009489059448242188,0.034519195556640625,339501.5,-2.9993722807645264,50.0,1.0,0.8761416942317477,340000,-3.770222787583618,50.0,6790.5,0.10746676596999169,-0.9601454917788506,1.050447447180748,-4.0107457501888275,-2.213948809003341e-05,0.002230886813951656
345000,0,30.85024648693089,0.0004210472106933594,0.001116037368774414,0.04005098342895508,344501.5,-2.7718620543176877,50.0,1.0,0.6556879318517208,345000,-3.2030964871727137,50.0,6890.5,0.10698195799440145,-0.9663668999671936,1.0573072913885118,-4.049630064964294,-0.00010079339043477375,0.0020076940981671215
350000,0,31.051371273606726,0.0003781318664550781,0.0009281635284423828,0.03422689437866211,349501.5,-2.9227047826294417,50.0,1.0,0.8283930782862622,350000,-3.0022245728001993,50.0,6990.5,0.10531818493455648,-0.9545513381958007,1.0448395630121232,-4.059915107488632,-0.00011334033947969146,0.001936156184412539
355000,0,31.441636763856785,0.0004279613494873047,0.0009808540344238281,0.034902095794677734,354501.5,-3.0713247805428177,50.0,1.0,0.818073462710523,355000,-3.38741729681571,50.0,7090.5,0.10511878813803197,-0.9539070903062821,1.044632570207119,-3.867987090587616,0.00023578415034171486,0.0017909262562170625
360000,0,30.868855408691097,0.000453948974609375,0.0009059906005859375,0.03875398635864258,359501.5,-3.0987619852276294,50.0,1.0,0.8220384291526449,360000,-3.0749534725863064,50.0,7190.5,0.10269873676449061,-0.9397706855535507,1.0287739657759667,-4.0146609091758725,-2.3625935647942243e-05,0.0016305301090469584
365000,0,30.93890133789026,0.0003867149353027344,0.0009300708770751953,0.03488421440124512,364501.5,-2.6518250117723,50.0,1.0,0.7909107076121713,365000,-2.9828198082471356,50.0,7290.5,0.10361468062549829,-0.9430958773493767,1.033235633254051,-3.9859792053699494,2.332395666053344e-05,0.0016445120479911565
370000,0,30.90253856416597,0.0003879070281982422,0.0008342266082763672,0.02962183952331543,369501.5,-3.17601045682174,50.0,1.0,0.7266712739294054,370000,-3.2403292980528255,50.0,7390.5,0.10234112104028463,-0.9333606327176094,1.0224344308376312,-3.9724187259674073,4.574979012431868e-05,0.0016395863557700067
375000,0,30.64855452302355,0.0006382465362548828,0.001968860626220703,0.034905195236206055,374501.5,-2.9526904589790415,50.0,1.0,0.9613226450536985,375000,-3.0444426096426027,50.0,7490.5,0.10362691592425108,-0.936121566414833,1.026323604106903,-3.9641196122169493,6.087975961418124e-05,0.001680872874101624
380000,0,30.837046769071964,0.0004019737243652344,0.0009701251983642578,0.034655094146728516,379501.5,-2.679934862882427,50.0,1.0,0.8123554310330042,380000,-3.238864519453101,50.0,7590.5,0.10259964613616467,-0.927666672706604,1.0167506720423698,-4.082518578767776,-0.00012989167930754775,0.0015862935753539204
385000,0,30.85995411102786,0.00037097930908203125,0.0011949539184570312,0.03470587730407715,384501.5,-3.2416038513416288,50.0,1.0,0.8031116313073732,385000,-3.0546592211853083,50.0,7690.5,0.10266695130616427,-0.930793685555458,1.021093157529831,-3.989568671941757,1.6885180863027925e-05,0.0015694472829345613
390000,0,30.869512898348116,0.0004019737243652344,0.0009708404541015625,0.034426212310791016,389501.5,-3.2853047313969577,50.0,1.0,0.8633049752313208,390000,-2.8238284181932825,50.0,7790.5,0.1042591947093606,-0.9319547883272171,1.023195787191391,-3.941077415704727,9.411991458364354e-05,0.0015827692217426374
395000,0,31.02164589618216,0.00038313865661621094,0.000949859619140625,0.03948020935058594,394501.5,-2.597854724433938,50.0,1.0,0.9632508351369347,395000,-2.87866566885788,50.0,7890.5,0.10330048161000013,-0.9276817193627358,1.0185495291352271,-4.002161272525788,-2.9292235158209224e-06,0.0015458546972367912
400000,0,30.673212268196725,0.0003762245178222656,0.0009436607360839844,0.03456425666809082,399501.5,-2.8588274375914993,50.0,1.0,0.8882245286211318,400000,-2.8383426893855557,50.0,7990.5,0.10133169198781251,-0.9175052329301834,1.0073319827318192,-4.021981117248536,-3.4013682263321246e-05,0.0015579296357464045
405000,0,30.829582078558975,0.0003819465637207031,0.000965118408203125,0.03324699401855469,404501.5,-2.984851684911386,50.0,1.0,0.6715730383249783,405000,-2.986458781232229,50.0,8090.5,0.10055526307225228,-0.912491120994091,1.0024125529527663,-3.915863413095474,0.00012930367142507747,0.0015087502932874487
410000,0,31.315526901063194,0.0003440380096435547,0.0008778572082519531,0.035314083099365234,409501.5,-3.5047059105046756,50.0,1.0,0.7326627734605496,410000,-3.204110962150989,50.0,8190.5,0.10336073675751686,-0.9179408739805222,1.0091066703796387,-3.9842361731529237,2.3300400831431035e-05,0.0014687544112093746
415000,0,30.915428226440852,0.0004298686981201172,0.0009970664978027344,0.03517293930053711,414501.5,-3.1014710970452297,50.0,1.0,0.687769207255396,415000,-2.8529707918014853,50.0,8290.5,0.10184089761227369,-0.9150268839597702,1.0062399700880051,-3.943188159704208,8.769199112066418e-05,0.0015288228732533752
420000,0,30.989477108726142,0.0004782676696777344,0.0016238689422607422,0.03613090515136719,419501.5,-3.046397694766907,50.0,1.0,0.7749280694628583,420000,-2.7059732716359437,50.0,8390.5,0.10022798307985067,-0.909948764026165,1.0003717426061631,-3.9590038981437683,6.214746079422184e-05,0.0014769006617134438
425000,0,31.372282447718746,0.0003688335418701172,0.0010039806365966797,0.03456711769104004,424501.5,-2.4985205542928335,50.0,1.0,0.8873767108027703,425000,-3.0290668642944922,50.0,8490.5,0.10003463611751795,-0.9037315905094147,0.9938058443069459,-4.033668945074082,-4.891692838828021e-05,0.001463870934676379
430000,0,31.101220476484805,0.0004169940948486328,0.0011601448059082031,0.03406190872192383,429501.5,-2.5819553347602016,50.0,1.0,0.8198872923694511,430000,-2.947056362461964,50.0,8590.5,0.1014315010085702,-0.9003812415599823,0.9908296600580215,-3.979807826757431,3.0220461478165816e-05,0.0014772251992253586
435000,0,30.757265851728107,0.0003876686096191406,0.0009682178497314453,0.0337069034576416,434501.5,-3.029533591204412,50.0,1.0,0.9157546855643305,435000,-2.9159220005389064,50.0,8690.5,0.10107169149816037,-0.9016481736898422,0.9930079645514488,-4.002648858070374,-3.6458067279454555e-06,0.001476885600714013
440000,0,30.781238432186345,0.00047898292541503906,0.0014050006866455078,0.03499293327331543,439501.5,-2.646627730574452,50.0,1.0,0.8581308752548568,440000,-2.766434742089138,50.0,8790.5,0.10155739556998014,-0.9023356449604034,0.9938295103311539,-4.02631276011467,-3.892589131010027e-05,0.0014929854648653418
445000,0,30.918478363830744,0.0003921985626220703,0.0013077259063720703,0.03428792953491211,444501.5,-2.978346250409719,50.0,1.0,0.7296994755996332,445000,-2.8770740117549325,50.0,8890.5,0.10040906598418951,-0.8998764308691025,0.9913066433668136,-4.024538087129593,-3.5238154786384255e-05,0.0014848343185149134
450000,0,30.925033044586176,0.00039196014404296875,0.0009558200836181641,0.03555130958557129,449501.5,-2.9408653614210105,50.0,1.0,0.7133465698699566,450000,-2.7900432816261813,50.0,8990.5,0.0990594043508172,-0.8902126785516739,0.9801084316968918,-4.021942001104355,-3.0532832836797754e-05,0.0014043157063424586
455000,0,31.038539375668254,0.0003819465637207031,0.0018150806427001953,0.03468489646911621,454501.5,-2.8730013679091795,50.0,1.0,1.0327709576140502,455000,-3.2597811637556604,50.0,9090.5,0.10064813782274723,-0.898859592795372,0.9911639773249626,-3.9673446242809294,4.9038924400520045e-05,0.0014990162389585749
460000,0,30.983360149775443,0.00040793418884277344,0.0010640621185302734,0.03466987609863281,459501.5,-2.6800583757358125,50.0,1.0,0.5915481776658369,460000,-2.8987336974899067,50.0,9190.5,0.09987502314150333,-0.8945736675262451,0.9864634147286415,-4.039241780042648,-5.795263025629538e-05,0.001478608668432571
465000,0,30.78909716848631,0.00035691261291503906,0.0009419918060302734,0.03502011299133301,464501.5,-2.795171664346898,50.0,1.0,0.7392088721146596,465000,-2.6968799564115775,50.0,9290.5,0.09978742038458585,-0.8909024105072022,0.9826747417449951,-3.9892166397571565,1.6268993018456967e-05,0.0014770611794665456
470000,0,30.552802918882186,0.0004630088806152344,0.0012459754943847656,0.03561997413635254,469501.5,-2.8449137871463135,50.0,1.0,0.8885277099579036,470000,-3.059829460584822,50.0,9390.5,0.09964487014710903,-0.886026918232441,0.9773597531318664,-3.9445623950958253,8.076013360732759e-05,0.0014493090937612578
475000,0,31.162002420534073,0.00038504600524902344,0.0010089874267578125,0.034338951110839844,474501.5,-2.698897318251348,50.0,1.0,1.016347484349505,475000,-2.4670934832880453,50.0,9490.5,0.09948985627293587,-0.886597248673439,0.9783170093297958,-3.9977298471927645,3.4495512300054543e-06,0.0013981847119284793
480000,0,31.136137287437123,0.0004558563232421875,0.0010111331939697266,0.03487110137939453,479501.5,-3.1040559829275383,50.0,1.0,0.9741285392019291,480000,-2.8948417249088836,50.0,9590.5,0.10093553277105093,-0.8927939037680626,0.986135835826397,-4.059348747968674,-8.636524473149621e-05,0.0014567170564550906
485000,0,30.406863130497502,0.0004711151123046875,0.001856088638305664,0.036484718322753906,484501.5,-27.692461139468357,50.0,0.0,6.193960293378393,485000,-25.574606416035476,50.0,9690.5,8.361747954144914e+22,109039851475.13132,-128286535412.33116,200202579395492.03,128283804663.82599,0.000931145561975427
490000,0,31.022043291932754,0.0003719329833984375,0.0009930133819580078,0.03504681587219238,489501.5,-30.40066341394779,50.0,0.0,7.038545013044833,490000,-27.182316383936417,50.0,9790.5,5.332815941956344e+29,501710787954343.94,-590537906376933.4,6.153522592369418e+18,590537522682003.5,9.803959327109623e-05
495000,0,31.124702515901035,0.0004138946533203125,0.0018351078033447266,0.03590893745422363,494501.5,-28.55020443029627,50.0,0.0,6.386863007418406,495000,-28.270220218524337,50.0,9890.5,2.090149495481755e+31,3174976899352887.5,-3738018668437569.5,1.476106891643204e+20,3738018132640399.5,2.5570477037035742e-05
500000,0,30.798349768674456,0.00038504600524902344,0.0015769004821777344,0.03576993942260742,499501.5,-27.764465191406394,50.0,0.0,6.836552966302906,500000,-30.741686932858403,50.0,9990.5,1.1653174725951473e+32,7509013627622392.0,-8840203258145276.0,1.1249814112094207e+21,8840202749191651.0,7.907387782779551e-06
505000,0,31.131392535853653,0.0003719329833984375,0.0009400844573974609,0.034243106842041016,504501.5,-27.210620555809662,50.0,0.0,7.471820553872326,505000,-27.462423605540017,50.0,10090.5,2.7682665464468985e+32,1.1578793990312428e+16,-1.3627911917887554e+16,5.162594946630353e+21,1.3627911647304614e+16,2.6519119137446977e-06
510000,0,30.643982722956114,0.00039696693420410156,0.0009531974792480469,0.03452873229980469,509501.5,-27.431831890557817,50.0,0.0,7.7945624667131606,510000,-26.408658848042506,50.0,10190.5,4.030797864990164e+32,1.3970481617899094e+16,-1.6445423508952974e+16,1.7677383639090218e+22,1.6445423368292794e+16,9.337010713466043e-07
515000,0,31.13385127874547,0.0006289482116699219,0.0011928081512451172,0.04256415367126465,514501.5,-29.374685308921027,50.0,0.0,6.719996097460793,515000,-29.048397991202062,50.0,10290.5,4.2727717126390274e+32,1.4380028394060382e+16,-1.6932697904924066e+16,5.0001804996561705e+22,1.6932697811508528e+16,3.3966032191301566e-07
520000,0,30.591961066389395,0.0003867149353027344,0.0009882450103759766,0.0356447696685791,519501.5,-27.69090705409962,50.0,0.0,6.120212663913688,520000,-29.952807927503727,50.0,10390.5,3.607450458092918e+32,1.3214284137889792e+16,-1.5552307441898094e+16,1.231996529401654e+23,1.5552307206748636e+16,1.2656016577494711e-07
525000,0,30.380329008153932,0.0003662109375,0.0007429122924804688,0.02654576301574707,524501.5,-30.72943661886719,50.0,0.0,7.110411610859541,525000,-27.935923946244657,50.0,10490.5,2.564357936791003e+32,1.1135770708964016e+16,-1.3114396022283436e+16,2.736372405198236e+23,1.311439574203682e+16,4.803300517863818e-08
530000,0,30.976037215107212,0.00045013427734375,0.0016219615936279297,0.04214191436767578,529501.5,-28.246479492478493,50.0,0.0,7.012515227134701,530000,-29.12995123098985,50.0,10590.5,1.593177387961952e+32,8776420442052231.0,-1.0335142242175418e+16,5.601178003401222e+23,1.03351418899881e+16,1.8488054223553264e-08
535000,0,30.670316632930543,0.00042891502380371094,0.0009448528289794922,0.03912925720214844,534501.5,-29.641337247979987,50.0,0.0,8.574091647313512,535000,-28.043245737173258,50.0,10690.5,8.903159837450719e+31,6559945042696339.0,-7724525999458615.0,1.07409632503579e+24,7724525453997769.0,7.204292110429833e-09
540000,0,30.374382390681692,0.00041794776916503906,0.0009899139404296875,0.035919189453125,539501.5,-29.487658728040536,50.0,0.0,5.364293679293407,540000,-28.14361794512908,50.0,10790.5,4.550673690455588e+31,4689170095874769.0,-5521749489024500.0,1.9517871039033933e+24,5521748967722844.0,2.833559844317435e-09
545000,0,31.031853612832187,0.0003838539123535156,0.0014019012451171875,0.03931117057800293,544501.5,-29.023389847735718,50.0,0.0,6.171565494317811,545000,-30.34371929012908,50.0,10890.5,2.156009021652054e+31,3227079693886816.5,-3800010880989528.0,3.386707870654624e+24,3800010345460793.5,1.123662368263112e-09
550000,0,30.812256982632007,0.0003998279571533203,0.0009982585906982422,0.037941694259643555,549501.5,-29.536421493929602,50.0,0.0,5.602212802826743,550000,-29.724114739889835,50.0,10990.5,9.620457718343646e+30,2155247568307617.8,-2538072087671603.0,5.656000779302983e+24,2538071559659061.0,4.4933001855373966e-10
555000,0,31.146442012688098,0.0003979206085205078,0.0010018348693847656,0.040621042251586914,554501.5,-30.038220486589104,50.0,0.0,6.2788347596373715,555000,-26.408102029118037,50.0,11090.5,4.050222797062021e+30,1398304468017086.5,-1646643946119495.8,9.131683192377452e+24,1646643423744098.2,1.8054239134257522e-10
560000,0,30.63533548081647,0.00039696693420410156,0.0018470287322998047,0.038350820541381836,559501.5,-32.26920557830522,50.0,0.0,5.947747782037363,560000,-28.89244402991842,50.0,11190.5,1.6272143463271907e+30,886082224884023.2,-1043645817375686.6,1.4319701645827104e+25,1043645304999510.0,7.296435902692799e-11
565000,0,29.991590378376912,0.0004038810729980469,0.0009911060333251953,0.03482484817504883,564501.5,-31.47885997263244,50.0,0.0,7.124861952200798,565000,-30.599489557192573,50.0,11290.5,6.260629583382569e+29,549661175491592.2,-647225267718193.1,2.1860848692697932e+25,647224759435657.2,2.96377917347046e-11
570000,0,30.5706876415655,0.0004911422729492188,0.0010039806365966797,0.03986191749572754,569501.5,-30.08039072414323,50.0,0.0,7.905691636512445,570000,-29.57590849034859,50.0,11390.5,2.3263998830595615e+29,334990607615262.75,-394467915186831.4,3.265339525546222e+25,394467404891029.5,1.2092458904003345e-11
575000,0,31.26832519814436,0.00038909912109375,0.0009520053863525391,0.036110877990722656,574501.5,-28.194370587176525,50.0,0.0,7.556820619863814,575000,-27.770898287398573,50.0,11490.5,8.314831215043086e+28,200228812334563.3,-235825487341944.84,4.775484933894304e+25,235824977717231.62,4.942778595272424e-12
580000,0,30.92694391525033,0.0004138946533203125,0.0009469985961914062,0.03421425819396973,579501.5,-28.59402553305957,50.0,0.0,7.012584199384225,580000,-28.89467160763299,50.0,11590.5,2.902592642670687e+28,118294800456744.95,-139320088137302.02,6.853561127317651e+25,139319578000883.72,2.0345500594595027e-12
585000,0,30.805364930266784,0.0003840923309326172,0.0009410381317138672,0.04009079933166504,584501.5,-28.228526896870136,50.0,0.0,5.245279298552226,585000,-30.562028564717686,50.0,11690.5,9.825826724897501e+27,68820509436936.195,-81047058231853.06,9.678293981780683e+25,81046548556808.19,8.3807939857709e-13
590000,0,30.866327719490837,0.0004029273986816406,0.0009751319885253906,0.04073786735534668,589501.5,-29.924143893323247,50.0,0.0,6.7829934139609,590000,-26.2060796406034,50.0,11790.5,3.2371451501836244e+27,39495648701054.98,-46521429457371.13,1.3473810651486506e+26,46520919862018.05,3.455374012091561e-13
595000,0,31.55923613614041,0.00039505958557128906,0.0009429454803466797,0.03476905822753906,594501.5,-26.833286696477835,50.0,0.0,6.186287876739131,595000,-28.379038671533856,50.0,11890.5,1.048419819445803e+27,22475768286150.656,-26468962308980.734,1.847772734127024e+26,26468452778639.36,1.4334937529808957e-13
600000,0,31.185495676448877,0.0003800392150878906,0.0009081363677978516,0.03591585159301758,599501.5,-26.1575501332033,50.0,0.0,5.816903755554792,600000,-30.59902711561322,50.0,11990.5,3.320969639034863e+26,12647185146445.824,-14898030993997.824,2.5007870685079727e+26,14897521564319.744,5.96123623046159e-14
605000,0,30.906441068455642,0.00038886070251464844,0.00092315673828125,0.03680014610290527,604501.5,-29.746938415032623,50.0,0.0,7.371923974274063,605000,-29.114704263590177,50.0,12090.5,1.028275931549017e+26,7037003731828.736,-8289620946583.552,3.3458168353269e+26,8289111801069.568,2.4791047241394635e-14
610000,0,30.543947030818117,0.000392913818359375,0.0009679794311523438,0.03528189659118652,609501.5,-30.34074452343874,50.0,0.0,5.1806865999728045,610000,-28.291007952481884,50.0,12190.5,3.1215865113895527e+25,3877628425535.488,-4566714551631.872,4.431267020048545e+26,4566205592502.272,1.0311035784416924e-14
615000,0,30.51380282839395,0.0004589557647705078,0.0009090900421142578,0.03828692436218262,614501.5,-28.853739482578284,50.0,0.0,7.544846099593696,615000,-27.48608676187634,50.0,12290.5,9.287079010635003e+24,2115126807363.584,-2491191957913.6,5.811880259891516e+26,2490683010580.48,4.288059907136811e-15
620000,0,31.080059914218435,0.00043392181396484375,0.0009801387786865234,0.037229061126708984,619501.5,-29.12242613188738,50.0,0.0,6.69041391914035,620000,-27.517689353683522,50.0,12390.5,2.705707841768294e+24,1141757308567.552,-1345164819562.496,7.539986259628433e+26,1344656032792.576,1.7843897313067992e-15
625000,0,30.98183088684603,0.0004050731658935547,0.0009109973907470703,0.03465390205383301,624501.5,-30.227706579750627,50.0,0.0,6.924727058009257,625000,-28.535597353564498,50.0,12490.5,7.820150943574001e+23,614161270308.864,-723474901368.832,9.695738139964431e+26,722966395355.136,7.460624694801462e-16
630000,0,31.06701031370725,0.0003840923309326172,0.0009441375732421875,0.0397188663482666,629501.5,-30.20994766555455,50.0,0.0,8.315410077870874,630000,-28.345901651933747,50.0,12590.5,2.2466598878564473e+23,329495826006.016,-388214733864.96,1.2369945493518469e+27,387705934315.52,3.1359096583183973e-16
635000,0,30.73441673752693,0.00044918060302734375,0.0009679794311523438,0.03412890434265137,634501.5,-28.26822312030821,50.0,0.0,7.20503300256405,635000,-29.00087911695577,50.0,12690.5,6.421471598381818e+22,176561641996.288,-207972013391.872,1.5678634686583117e+27,207461515575.296,1.3238586710557447e-16
640000,0,30.359372971370544,0.00038909912109375,0.0009279251098632812,0.03438901901245117,639501.5,-27.135149412134098,50.0,0.0,6.913943117656076,640000,-29.0763654069494,50.0,12790.5,1.8161406940562852e+22,94274056577.024,-111071021858.816,1.972704004361876e+27,110557912702.976,5.607052965218987e-17
645000,0,30.71025661626452,0.0003960132598876953,0.0009946823120117188,0.034600257873535156,644501.5,-29.25316418537937,50.0,0.0,6.723188615573034,645000,-32.09661608738958,50.0,12890.5,5.056719082711312e+21,50160028069.888,-59095454027.776,2.4659038271718133e+27,58578863603.712,2.3766416479680187e-17
650000,0,30.625190585827,0.00040602684020996094,0.0009229183197021484,0.04411625862121582,649501.5,-25.740092516342543,50.0,0.0,5.030637914766153,650000,-30.031321796056687,50.0,12990.5,1.3804191951251786e+21,26644792129.536,-31384271456.256,3.064985678438519e+27,30863262830.592,1.0074088497739472e-17
655000,0,30.740860931352284,0.0003972053527832031,0.0009357929229736328,0.04380321502685547,654501.5,-28.46935099908837,50.0,0.0,6.931210102565173,655000,-28.378596124083877,50.0,13090.5,3.654409130257708e+20,14162637855.744,-16686481527.808,3.786095001847897e+27,16160276434.944,4.270196098256557e-18
660000,0,30.68853593419409,0.00038695335388183594,0.0009591579437255859,0.03454899787902832,659501.5,-31.750953770561562,50.0,0.0,6.265532821528926,660000,-30.313066564139348,50.0,13190.5,9.224514147961058e+19,7595765036.032,-8948155380.736,4.6508851291085357e+27,8414892030.464,1.8100471054522925e-18
665000,0,30.457292983971048,0.0003921985626220703,0.000990152359008789,0.03472304344177246,664501.5,-31.16586741875465,50.0,0.0,7.221483635271584,665000,-31.652019524579316,50.0,13290.5,2.1414409182410617e+19,4163033607.68,-4903577568.768,5.686384993184865e+27,4361104394.496,7.672412203262169e-19
670000,0,30.31779054174601,0.00040793418884277344,0.0018639564514160156,0.03580307960510254,669501.5,-29.25072954935367,50.0,0.0,6.83049336415558,670000,-30.9674388573929,50.0,13390.5,4.355548783877382e+18,2378994660.864,-2802008514.816,6.917064385738691e+27,2248709755.776,3.2521755907370674e-19
675000,0,30.886278573038943,0.0004737377166748047,0.0009799003601074219,0.03583121299743652,674501.5,-27.20454158178,50.0,0.0,6.020837605140665,675000,-29.797049295812307,50.0,13490.5,9.705450684916507e+17,1459905016.96,-1718970127.872,8.371314656041558e+27,1153579181.824,1.3785294383281474e-19
680000,0,30.514510769877614,0.0004639625549316406,0.0009319782257080078,0.03518199920654297,679501.5,-31.178875443128895,50.0,0.0,7.537860958549807,680000,-27.342711010554023,50.0,13590.5,4.9741200391203405e+17,992399852.096,-1168098672.128,1.0089400701238913e+28,589344591.552,5.84329888754203e-20
685000,0,30.466827432786708,0.00043487548828125,0.0009250640869140625,0.03739309310913086,684501.5,-30.570380698531228,50.0,0.0,6.293268596150804,685000,-32.08348813175285,50.0,13690.5,4.9151867501654784e+17,756325864.192,-890061879.68,1.2100438848599892e+28,299606157.536,2.476852541072997e-20
690000,0,30.465032962461635,0.00047898292541503906,0.0018661022186279297,0.03661680221557617,689501.5,-27.84337230322338,50.0,0.0,6.277304057283599,690000,-29.154230177149163,50.0,13790.5,5.1915084952345824e+17,620588301.056,-729989997.952,1.4454042824055972e+28,151700052.336,1.049886159228091e-20
695000,0,30.662735843608164,0.0004248619079589844,0.0010161399841308594,0.04034304618835449,694501.5,-28.406204863501422,50.0,0.0,6.935138677014721,695000,-31.133649676066902,50.0,13890.5,5.060243363805256e+17,541507285.92,-636987139.136,1.7152009429024297e+28,76306498.264,4.450248563476657e-21
700000,0,30.047958768878352,0.0004131793975830078,0.0017969608306884766,0.04043412208557129,699501.5,-32.666889606635955,50.0,0.0,6.263052852391119,700000,-30.695299468610386,50.0,13990.5,4.659238997821542e+17,497476229.248,-585063192.256,2.0277649878527554e+28,38239456.208,1.8863675934563322e-21
705000,0,30.375570032047236,0.0004229545593261719,0.0019030570983886719,0.03646492958068848,704501.5,-30.363802639709814,50.0,0.0,7.376522674976775,705000,-29.16776973185993,50.0,14090.5,4.097458755035076e+17,471552120.128,-554477468.032,2.3873397883221876e+28,19085687.06,7.996907095326481e-22
710000,0,30.798547424313394,0.00040411949157714844,0.002240896224975586,0.04173111915588379,709501.5,-27.339543678633383,50.0,0.0,6.738579921366104,710000,-30.074745426636053,50.0,14190.5,3.527475507137138e+17,455625895.168,-535902682.944,2.802411097814529e+28,9501150.284,3.3913349126533743e-22
715000,0,30.420904798209026,0.00039005279541015625,0.0009148120880126953,0.03505516052246094,714501.5,-30.507503860199694,50.0,0.0,6.721563860076857,715000,-30.520609321465702,50.0,14290.5,3.01553220599161e+17,445765129.856,-524207241.76,3.27953792778029e+28,4720139.5915,1.4396547336240984e-22
720000,0,30.938805030199514,0.0004150867462158203,0.0012087821960449219,0.03812408447265625,719501.5,-29.295687396866818,50.0,0.0,7.820823536258554,720000,-28.783195393026194,50.0,14390.5,2.5496845812208605e+17,439337212.96,-516682654.944,3.82612285520343e+28,2341793.3715,6.122168893702051e-23
725000,0,30.818271688607126,0.00046896934509277344,0.0009160041809082031,0.03586316108703613,724501.5,-27.660865878166703,50.0,0.0,6.134534497781701,725000,-28.864494773980756,50.0,14490.5,2.1660798726723706e+17,434434621.536,-510802032.064,4.4489750060083835e+28,1160336.507125,2.608798569735695e-23
730000,0,30.253817697000056,0.00042510032653808594,0.0009751319885253906,0.03552365303039551,729501.5,-27.148927574986942,50.0,0.0,7.456266703146082,730000,-30.23991328206474,50.0,14590.5,1.8481313782720733e+17,429504829.664,-505123996.32,5.160071943090299e+28,574473.506125,1.1135831832887134e-23
735000,0,30.721816382390948,0.000392913818359375,0.0009579658508300781,0.03879117965698242,734501.5,-29.77209543085982,50.0,0.0,7.455399171685948,735000,-31.265522920154165,50.0,14690.5,1.6089914974290102e+17,422929184.768,-497315135.328,5.967791970767801e+28,284082.198734375,4.761377067476885e-24
740000,0,30.244216315618225,0.0004112720489501953,0.0009427070617675781,0.034571170806884766,739501.5,-28.40061947137397,50.0,0.0,6.259290684472063,740000,-27.360598709377133,50.0,14790.5,1.4443355241500272e+17,412893052.48,-485518147.744,6.886029047284368e+28,140411.6920234375,2.039571650922194e-24
745000,0,30.73434602136272,0.00038695335388183594,0.000904083251953125,0.03813910484313965,744501.5,-26.535265279913954,50.0,0.0,6.4980979107432875,745000,-29.08204485142166,50.0,14890.5,1.357263650354333e+17,398141434.976,-468202155.36,7.92523768498064e+28,69349.09058203125,8.75240904059245e-25
750000,0,30.393315856583484,0.00044417381286621094,0.0010437965393066406,0.03644204139709473,749501.5,-29.60478377395077,50.0,0.0,6.840571091465781,750000,-29.694852713649503,50.0,14990.5,1.3326455838058374e+17,378536335.104,-445263752.224,9.096922703865792e+28,34213.02734179688,3.7617549729526867e-25
755000,0,30.935594812672957,0.0004470348358154297,0.0011119842529296875,0.036299943923950195,754501.5,-29.915727673992286,50.0,0.0,5.948874664944555,755000,-30.491083276194654,50.0,15090.5,1.3436846877642536e+17,356254287.072,-419133044.0,1.041921258790231e+29,16862.573078125,1.6187344214313133e-25
760000,0,30.784372859369576,0.0003750324249267578,0.0009808540344238281,0.0358273983001709,759501.5,-30.56983040694221,50.0,0.0,6.280964535737619,760000,-27.124917991871506,50.0,15190.5,1.3750682375639218e+17,333120262.016,-391968954.688,1.190248961705759e+29,8302.451222167969,6.976762502100498e-26
765000,0,31.110745187047772,0.00047206878662109375,0.0009369850158691406,0.044782161712646484,764501.5,-29.71151639468605,50.0,0.0,6.146780352992667,765000,-29.314156461602003,50.0,15290.5,1.4225732064392512e+17,310036263.328,-364876107.104,1.357193412188328e+29,4083.9024147949217,3.0097022924859754e-26
770000,0,30.7214887471439,0.00037407875061035156,0.0008859634399414062,0.03436422348022461,769501.5,-27.584324595109422,50.0,0.0,7.356027532578191,770000,-30.19367649831968,50.0,15390.5,1.4730900188116182e+17,287546910.656,-338397592.64,1.5441843963211427e+29,2005.7063887939453,1.2991185140179817e-26
775000,0,30.58829595320432,0.00040221214294433594,0.0025157928466796875,0.03540682792663574,774501.5,-26.621632087463258,50.0,0.0,5.773391915648367,775000,-28.64590859737398,50.0,15490.5,1.5204082007618355e+17,266353160.464,-313538756.864,1.7532062589227228e+29,983.516833557129,5.6108600146989436e-27
